<?xml version="1.0" encoding="UTF-8"?>
<map version="1.10" tiledversion="1.10.2" orientation="orthogonal" renderorder="right-down" width="80" height="50" tilewidth="16" tileheight="16" infinite="0" nextlayerid="26" nextobjectid="1068">
 <editorsettings>
  <export target="1_meadow.lua" format="lua"/>
 </editorsettings>
 <properties>
  <property name="ambience" value="wind"/>
  <property name="background" value="fog"/>
  <property name="dark" type="int" value="20"/>
  <property name="darkType" value="parallax"/>
  <property name="defaultX" type="int" value="520"/>
  <property name="defaultY" type="int" value="320"/>
  <property name="music" value="forest"/>
  <property name="shader" value="saturation"/>
  <property name="shaderVal" type="float" value="0.7"/>
  <property name="weather" value="petals"/>
 </properties>
 <tileset firstgid="1" name="overworld" tilewidth="16" tileheight="16" tilecount="736" columns="23">
  <image source="_tilesets/overworld.png" width="368" height="520"/>
  <tile id="176">
   <animation>
    <frame tileid="176" duration="100"/>
    <frame tileid="177" duration="100"/>
    <frame tileid="178" duration="100"/>
   </animation>
  </tile>
  <tile id="199">
   <animation>
    <frame tileid="199" duration="100"/>
    <frame tileid="200" duration="100"/>
    <frame tileid="201" duration="100"/>
   </animation>
  </tile>
  <tile id="222">
   <animation>
    <frame tileid="222" duration="100"/>
    <frame tileid="223" duration="100"/>
    <frame tileid="224" duration="100"/>
   </animation>
  </tile>
  <tile id="245">
   <animation>
    <frame tileid="245" duration="200"/>
    <frame tileid="268" duration="200"/>
    <frame tileid="291" duration="200"/>
   </animation>
  </tile>
  <tile id="246">
   <animation>
    <frame tileid="246" duration="200"/>
    <frame tileid="269" duration="200"/>
    <frame tileid="292" duration="200"/>
   </animation>
  </tile>
  <tile id="247">
   <animation>
    <frame tileid="247" duration="200"/>
    <frame tileid="270" duration="200"/>
    <frame tileid="293" duration="200"/>
   </animation>
  </tile>
 </tileset>
 <tileset firstgid="737" name="water" tilewidth="16" tileheight="16" tilecount="1600" columns="40">
  <image source="_tilesets/water2.png" width="640" height="640"/>
  <tile id="41">
   <animation>
    <frame tileid="41" duration="150"/>
    <frame tileid="44" duration="150"/>
    <frame tileid="47" duration="150"/>
    <frame tileid="50" duration="150"/>
    <frame tileid="53" duration="150"/>
    <frame tileid="56" duration="150"/>
    <frame tileid="59" duration="150"/>
    <frame tileid="62" duration="150"/>
   </animation>
  </tile>
  <tile id="42">
   <animation>
    <frame tileid="42" duration="150"/>
    <frame tileid="45" duration="150"/>
    <frame tileid="48" duration="150"/>
    <frame tileid="51" duration="150"/>
    <frame tileid="54" duration="150"/>
    <frame tileid="57" duration="150"/>
    <frame tileid="60" duration="150"/>
    <frame tileid="63" duration="150"/>
   </animation>
  </tile>
  <tile id="43">
   <animation>
    <frame tileid="43" duration="150"/>
    <frame tileid="46" duration="150"/>
    <frame tileid="49" duration="150"/>
    <frame tileid="52" duration="150"/>
    <frame tileid="55" duration="150"/>
    <frame tileid="58" duration="150"/>
    <frame tileid="61" duration="150"/>
    <frame tileid="64" duration="150"/>
   </animation>
  </tile>
  <tile id="66">
   <animation>
    <frame tileid="66" duration="100"/>
    <frame tileid="67" duration="100"/>
    <frame tileid="68" duration="100"/>
   </animation>
  </tile>
  <tile id="70">
   <animation>
    <frame tileid="70" duration="150"/>
    <frame tileid="71" duration="150"/>
    <frame tileid="72" duration="150"/>
    <frame tileid="73" duration="150"/>
    <frame tileid="74" duration="150"/>
    <frame tileid="75" duration="150"/>
    <frame tileid="76" duration="150"/>
    <frame tileid="77" duration="150"/>
   </animation>
  </tile>
  <tile id="81">
   <animation>
    <frame tileid="81" duration="150"/>
    <frame tileid="84" duration="150"/>
    <frame tileid="87" duration="150"/>
    <frame tileid="90" duration="150"/>
    <frame tileid="93" duration="150"/>
    <frame tileid="96" duration="150"/>
    <frame tileid="99" duration="150"/>
    <frame tileid="102" duration="150"/>
   </animation>
  </tile>
  <tile id="82">
   <animation>
    <frame tileid="82" duration="150"/>
    <frame tileid="85" duration="150"/>
    <frame tileid="88" duration="150"/>
    <frame tileid="91" duration="150"/>
    <frame tileid="94" duration="150"/>
    <frame tileid="97" duration="150"/>
    <frame tileid="100" duration="150"/>
    <frame tileid="103" duration="150"/>
   </animation>
  </tile>
  <tile id="83">
   <animation>
    <frame tileid="83" duration="150"/>
    <frame tileid="86" duration="150"/>
    <frame tileid="89" duration="150"/>
    <frame tileid="92" duration="150"/>
    <frame tileid="95" duration="150"/>
    <frame tileid="101" duration="150"/>
    <frame tileid="104" duration="150"/>
   </animation>
  </tile>
  <tile id="106">
   <animation>
    <frame tileid="106" duration="100"/>
    <frame tileid="107" duration="100"/>
    <frame tileid="108" duration="100"/>
   </animation>
  </tile>
  <tile id="121">
   <animation>
    <frame tileid="121" duration="150"/>
    <frame tileid="124" duration="150"/>
    <frame tileid="127" duration="150"/>
    <frame tileid="130" duration="150"/>
    <frame tileid="133" duration="150"/>
    <frame tileid="136" duration="150"/>
    <frame tileid="139" duration="150"/>
    <frame tileid="142" duration="150"/>
   </animation>
  </tile>
  <tile id="122">
   <animation>
    <frame tileid="122" duration="150"/>
    <frame tileid="125" duration="150"/>
    <frame tileid="128" duration="150"/>
    <frame tileid="131" duration="150"/>
    <frame tileid="134" duration="150"/>
    <frame tileid="137" duration="150"/>
    <frame tileid="140" duration="150"/>
    <frame tileid="143" duration="150"/>
   </animation>
  </tile>
  <tile id="123">
   <animation>
    <frame tileid="123" duration="150"/>
    <frame tileid="126" duration="150"/>
    <frame tileid="129" duration="150"/>
    <frame tileid="132" duration="150"/>
    <frame tileid="135" duration="150"/>
    <frame tileid="138" duration="150"/>
    <frame tileid="141" duration="150"/>
    <frame tileid="144" duration="150"/>
   </animation>
  </tile>
  <tile id="146">
   <animation>
    <frame tileid="146" duration="100"/>
    <frame tileid="147" duration="100"/>
    <frame tileid="148" duration="100"/>
   </animation>
  </tile>
  <tile id="150">
   <animation>
    <frame tileid="150" duration="150"/>
    <frame tileid="151" duration="150"/>
    <frame tileid="152" duration="150"/>
    <frame tileid="153" duration="150"/>
    <frame tileid="154" duration="150"/>
    <frame tileid="155" duration="150"/>
    <frame tileid="156" duration="150"/>
    <frame tileid="157" duration="150"/>
   </animation>
  </tile>
  <tile id="186">
   <animation>
    <frame tileid="186" duration="200"/>
    <frame tileid="226" duration="200"/>
    <frame tileid="266" duration="200"/>
   </animation>
  </tile>
  <tile id="187">
   <animation>
    <frame tileid="187" duration="200"/>
    <frame tileid="227" duration="200"/>
    <frame tileid="267" duration="200"/>
   </animation>
  </tile>
  <tile id="188">
   <animation>
    <frame tileid="188" duration="200"/>
    <frame tileid="228" duration="200"/>
    <frame tileid="268" duration="200"/>
   </animation>
  </tile>
  <tile id="201">
   <animation>
    <frame tileid="201" duration="150"/>
    <frame tileid="204" duration="150"/>
    <frame tileid="207" duration="150"/>
    <frame tileid="210" duration="150"/>
    <frame tileid="213" duration="150"/>
    <frame tileid="216" duration="150"/>
    <frame tileid="219" duration="150"/>
    <frame tileid="222" duration="150"/>
   </animation>
  </tile>
  <tile id="202">
   <animation>
    <frame tileid="202" duration="150"/>
    <frame tileid="205" duration="150"/>
    <frame tileid="208" duration="150"/>
    <frame tileid="211" duration="150"/>
    <frame tileid="214" duration="150"/>
    <frame tileid="217" duration="150"/>
    <frame tileid="220" duration="150"/>
    <frame tileid="223" duration="150"/>
   </animation>
  </tile>
  <tile id="203">
   <animation>
    <frame tileid="203" duration="150"/>
    <frame tileid="206" duration="150"/>
    <frame tileid="209" duration="150"/>
    <frame tileid="212" duration="150"/>
    <frame tileid="215" duration="150"/>
    <frame tileid="218" duration="150"/>
    <frame tileid="221" duration="150"/>
    <frame tileid="224" duration="150"/>
   </animation>
  </tile>
  <tile id="241">
   <animation>
    <frame tileid="241" duration="150"/>
    <frame tileid="244" duration="150"/>
    <frame tileid="247" duration="150"/>
    <frame tileid="250" duration="150"/>
    <frame tileid="253" duration="150"/>
    <frame tileid="256" duration="150"/>
    <frame tileid="259" duration="150"/>
    <frame tileid="262" duration="150"/>
   </animation>
  </tile>
  <tile id="243">
   <animation>
    <frame tileid="243" duration="150"/>
    <frame tileid="246" duration="150"/>
    <frame tileid="249" duration="150"/>
    <frame tileid="252" duration="150"/>
    <frame tileid="255" duration="150"/>
    <frame tileid="258" duration="150"/>
    <frame tileid="261" duration="150"/>
    <frame tileid="264" duration="150"/>
   </animation>
  </tile>
  <tile id="281">
   <animation>
    <frame tileid="281" duration="150"/>
    <frame tileid="284" duration="150"/>
    <frame tileid="287" duration="150"/>
    <frame tileid="290" duration="150"/>
    <frame tileid="293" duration="150"/>
    <frame tileid="296" duration="150"/>
    <frame tileid="299" duration="150"/>
    <frame tileid="302" duration="150"/>
   </animation>
  </tile>
  <tile id="282">
   <animation>
    <frame tileid="282" duration="150"/>
    <frame tileid="285" duration="150"/>
    <frame tileid="288" duration="150"/>
    <frame tileid="291" duration="150"/>
    <frame tileid="294" duration="150"/>
    <frame tileid="297" duration="150"/>
    <frame tileid="300" duration="150"/>
    <frame tileid="303" duration="150"/>
   </animation>
  </tile>
  <tile id="283">
   <animation>
    <frame tileid="283" duration="150"/>
    <frame tileid="286" duration="150"/>
    <frame tileid="289" duration="150"/>
    <frame tileid="292" duration="150"/>
    <frame tileid="295" duration="150"/>
    <frame tileid="298" duration="150"/>
    <frame tileid="301" duration="150"/>
    <frame tileid="304" duration="150"/>
   </animation>
  </tile>
  <tile id="361">
   <animation>
    <frame tileid="361" duration="150"/>
    <frame tileid="401" duration="150"/>
    <frame tileid="441" duration="150"/>
    <frame tileid="481" duration="150"/>
   </animation>
  </tile>
  <tile id="362">
   <animation>
    <frame tileid="362" duration="150"/>
    <frame tileid="402" duration="150"/>
    <frame tileid="442" duration="150"/>
    <frame tileid="482" duration="150"/>
   </animation>
  </tile>
  <tile id="364">
   <animation>
    <frame tileid="364" duration="150"/>
    <frame tileid="404" duration="150"/>
    <frame tileid="444" duration="150"/>
    <frame tileid="484" duration="150"/>
   </animation>
  </tile>
  <tile id="365">
   <animation>
    <frame tileid="365" duration="150"/>
    <frame tileid="405" duration="150"/>
    <frame tileid="445" duration="150"/>
    <frame tileid="485" duration="150"/>
   </animation>
  </tile>
  <tile id="367">
   <animation>
    <frame tileid="367" duration="150"/>
    <frame tileid="407" duration="150"/>
    <frame tileid="447" duration="150"/>
    <frame tileid="487" duration="150"/>
   </animation>
  </tile>
  <tile id="368">
   <animation>
    <frame tileid="368" duration="150"/>
    <frame tileid="408" duration="150"/>
    <frame tileid="448" duration="150"/>
    <frame tileid="488" duration="150"/>
   </animation>
  </tile>
  <tile id="370">
   <animation>
    <frame tileid="370" duration="150"/>
    <frame tileid="410" duration="150"/>
    <frame tileid="450" duration="150"/>
    <frame tileid="490" duration="150"/>
   </animation>
  </tile>
  <tile id="371">
   <animation>
    <frame tileid="371" duration="150"/>
    <frame tileid="411" duration="150"/>
    <frame tileid="451" duration="150"/>
    <frame tileid="491" duration="150"/>
   </animation>
  </tile>
  <tile id="372">
   <animation>
    <frame tileid="372" duration="150"/>
    <frame tileid="412" duration="150"/>
    <frame tileid="452" duration="150"/>
    <frame tileid="492" duration="150"/>
   </animation>
  </tile>
  <tile id="374">
   <animation>
    <frame tileid="374" duration="150"/>
    <frame tileid="414" duration="150"/>
    <frame tileid="454" duration="150"/>
    <frame tileid="494" duration="150"/>
   </animation>
  </tile>
  <tile id="375">
   <animation>
    <frame tileid="375" duration="150"/>
    <frame tileid="415" duration="150"/>
    <frame tileid="455" duration="150"/>
    <frame tileid="495" duration="150"/>
   </animation>
  </tile>
  <tile id="379">
   <animation>
    <frame tileid="379" duration="150"/>
    <frame tileid="419" duration="150"/>
    <frame tileid="459" duration="150"/>
    <frame tileid="499" duration="150"/>
   </animation>
  </tile>
  <tile id="380">
   <animation>
    <frame tileid="380" duration="150"/>
    <frame tileid="420" duration="150"/>
    <frame tileid="460" duration="150"/>
    <frame tileid="500" duration="150"/>
   </animation>
  </tile>
  <tile id="382">
   <animation>
    <frame tileid="382" duration="150"/>
    <frame tileid="422" duration="150"/>
    <frame tileid="462" duration="150"/>
    <frame tileid="502" duration="150"/>
   </animation>
  </tile>
  <tile id="383">
   <animation>
    <frame tileid="383" duration="150"/>
    <frame tileid="423" duration="150"/>
    <frame tileid="463" duration="150"/>
    <frame tileid="503" duration="150"/>
   </animation>
  </tile>
  <tile id="385">
   <animation>
    <frame tileid="385" duration="150"/>
    <frame tileid="425" duration="150"/>
    <frame tileid="465" duration="150"/>
    <frame tileid="505" duration="150"/>
   </animation>
  </tile>
  <tile id="386">
   <animation>
    <frame tileid="386" duration="150"/>
    <frame tileid="426" duration="150"/>
    <frame tileid="466" duration="150"/>
    <frame tileid="506" duration="150"/>
   </animation>
  </tile>
  <tile id="388">
   <animation>
    <frame tileid="388" duration="150"/>
    <frame tileid="428" duration="150"/>
    <frame tileid="468" duration="150"/>
    <frame tileid="508" duration="150"/>
   </animation>
  </tile>
  <tile id="389">
   <animation>
    <frame tileid="389" duration="150"/>
    <frame tileid="429" duration="150"/>
    <frame tileid="469" duration="150"/>
    <frame tileid="509" duration="150"/>
   </animation>
  </tile>
  <tile id="390">
   <animation>
    <frame tileid="390" duration="150"/>
    <frame tileid="430" duration="150"/>
    <frame tileid="470" duration="150"/>
    <frame tileid="510" duration="150"/>
   </animation>
  </tile>
  <tile id="392">
   <animation>
    <frame tileid="392" duration="150"/>
    <frame tileid="432" duration="150"/>
    <frame tileid="472" duration="150"/>
    <frame tileid="512" duration="150"/>
   </animation>
  </tile>
  <tile id="393">
   <animation>
    <frame tileid="393" duration="150"/>
    <frame tileid="433" duration="150"/>
    <frame tileid="473" duration="150"/>
    <frame tileid="513" duration="150"/>
   </animation>
  </tile>
  <tile id="395">
   <animation>
    <frame tileid="395" duration="150"/>
    <frame tileid="435" duration="150"/>
    <frame tileid="475" duration="150"/>
    <frame tileid="515" duration="150"/>
   </animation>
  </tile>
  <tile id="396">
   <animation>
    <frame tileid="396" duration="150"/>
    <frame tileid="436" duration="150"/>
    <frame tileid="476" duration="150"/>
    <frame tileid="516" duration="150"/>
   </animation>
  </tile>
  <tile id="561">
   <animation>
    <frame tileid="561" duration="150"/>
    <frame tileid="564" duration="150"/>
    <frame tileid="567" duration="150"/>
    <frame tileid="570" duration="150"/>
   </animation>
  </tile>
  <tile id="563">
   <animation>
    <frame tileid="563" duration="150"/>
    <frame tileid="566" duration="150"/>
    <frame tileid="569" duration="150"/>
    <frame tileid="572" duration="150"/>
   </animation>
  </tile>
  <tile id="579">
   <animation>
    <frame tileid="579" duration="150"/>
    <frame tileid="582" duration="150"/>
    <frame tileid="585" duration="150"/>
    <frame tileid="588" duration="150"/>
   </animation>
  </tile>
  <tile id="581">
   <animation>
    <frame tileid="581" duration="150"/>
    <frame tileid="584" duration="150"/>
    <frame tileid="587" duration="150"/>
    <frame tileid="590" duration="150"/>
   </animation>
  </tile>
  <tile id="641">
   <animation>
    <frame tileid="641" duration="150"/>
    <frame tileid="644" duration="150"/>
    <frame tileid="647" duration="150"/>
    <frame tileid="650" duration="150"/>
    <frame tileid="653" duration="150"/>
    <frame tileid="656" duration="150"/>
    <frame tileid="659" duration="150"/>
    <frame tileid="662" duration="150"/>
   </animation>
  </tile>
  <tile id="642">
   <animation>
    <frame tileid="642" duration="150"/>
    <frame tileid="645" duration="150"/>
    <frame tileid="648" duration="150"/>
    <frame tileid="651" duration="150"/>
    <frame tileid="654" duration="150"/>
    <frame tileid="657" duration="150"/>
    <frame tileid="660" duration="150"/>
    <frame tileid="663" duration="150"/>
   </animation>
  </tile>
  <tile id="643">
   <animation>
    <frame tileid="643" duration="150"/>
    <frame tileid="646" duration="150"/>
    <frame tileid="649" duration="150"/>
    <frame tileid="652" duration="150"/>
    <frame tileid="655" duration="150"/>
    <frame tileid="658" duration="150"/>
    <frame tileid="661" duration="150"/>
    <frame tileid="664" duration="150"/>
   </animation>
  </tile>
  <tile id="681">
   <animation>
    <frame tileid="681" duration="150"/>
    <frame tileid="684" duration="150"/>
    <frame tileid="687" duration="150"/>
    <frame tileid="690" duration="150"/>
    <frame tileid="693" duration="150"/>
    <frame tileid="696" duration="150"/>
    <frame tileid="699" duration="150"/>
    <frame tileid="702" duration="150"/>
   </animation>
  </tile>
  <tile id="682">
   <animation>
    <frame tileid="682" duration="150"/>
    <frame tileid="685" duration="150"/>
    <frame tileid="688" duration="150"/>
    <frame tileid="691" duration="150"/>
    <frame tileid="694" duration="150"/>
    <frame tileid="697" duration="150"/>
    <frame tileid="700" duration="150"/>
    <frame tileid="703" duration="150"/>
   </animation>
  </tile>
  <tile id="683">
   <animation>
    <frame tileid="683" duration="150"/>
    <frame tileid="686" duration="150"/>
    <frame tileid="689" duration="150"/>
    <frame tileid="692" duration="150"/>
    <frame tileid="695" duration="150"/>
    <frame tileid="698" duration="150"/>
    <frame tileid="701" duration="150"/>
    <frame tileid="704" duration="150"/>
   </animation>
  </tile>
  <tile id="721">
   <animation>
    <frame tileid="721" duration="150"/>
    <frame tileid="724" duration="150"/>
    <frame tileid="727" duration="150"/>
    <frame tileid="730" duration="150"/>
    <frame tileid="733" duration="150"/>
    <frame tileid="736" duration="150"/>
    <frame tileid="739" duration="150"/>
    <frame tileid="742" duration="150"/>
   </animation>
  </tile>
  <tile id="722">
   <animation>
    <frame tileid="722" duration="150"/>
    <frame tileid="725" duration="150"/>
    <frame tileid="728" duration="150"/>
    <frame tileid="731" duration="150"/>
    <frame tileid="734" duration="150"/>
    <frame tileid="737" duration="150"/>
    <frame tileid="740" duration="150"/>
    <frame tileid="743" duration="150"/>
   </animation>
  </tile>
  <tile id="723">
   <animation>
    <frame tileid="723" duration="150"/>
    <frame tileid="726" duration="150"/>
    <frame tileid="729" duration="150"/>
    <frame tileid="732" duration="150"/>
    <frame tileid="735" duration="150"/>
    <frame tileid="738" duration="150"/>
    <frame tileid="741" duration="150"/>
    <frame tileid="744" duration="150"/>
   </animation>
  </tile>
  <tile id="801">
   <animation>
    <frame tileid="801" duration="150"/>
    <frame tileid="804" duration="150"/>
    <frame tileid="807" duration="150"/>
    <frame tileid="810" duration="150"/>
    <frame tileid="813" duration="150"/>
    <frame tileid="816" duration="150"/>
    <frame tileid="819" duration="150"/>
    <frame tileid="822" duration="150"/>
   </animation>
  </tile>
  <tile id="802">
   <animation>
    <frame tileid="802" duration="150"/>
    <frame tileid="805" duration="150"/>
    <frame tileid="808" duration="150"/>
    <frame tileid="811" duration="150"/>
    <frame tileid="814" duration="150"/>
    <frame tileid="817" duration="150"/>
    <frame tileid="820" duration="150"/>
    <frame tileid="823" duration="150"/>
   </animation>
  </tile>
  <tile id="803">
   <animation>
    <frame tileid="803" duration="150"/>
    <frame tileid="806" duration="150"/>
    <frame tileid="809" duration="150"/>
    <frame tileid="812" duration="150"/>
    <frame tileid="815" duration="150"/>
    <frame tileid="818" duration="150"/>
    <frame tileid="821" duration="150"/>
    <frame tileid="824" duration="150"/>
   </animation>
  </tile>
  <tile id="841">
   <animation>
    <frame tileid="841" duration="150"/>
    <frame tileid="844" duration="150"/>
    <frame tileid="847" duration="150"/>
    <frame tileid="850" duration="150"/>
    <frame tileid="853" duration="150"/>
    <frame tileid="856" duration="150"/>
    <frame tileid="859" duration="150"/>
    <frame tileid="862" duration="150"/>
   </animation>
  </tile>
  <tile id="843">
   <animation>
    <frame tileid="843" duration="150"/>
    <frame tileid="846" duration="150"/>
    <frame tileid="849" duration="150"/>
    <frame tileid="852" duration="150"/>
    <frame tileid="855" duration="150"/>
    <frame tileid="858" duration="150"/>
    <frame tileid="861" duration="150"/>
    <frame tileid="864" duration="150"/>
   </animation>
  </tile>
  <tile id="881">
   <animation>
    <frame tileid="881" duration="150"/>
    <frame tileid="884" duration="150"/>
    <frame tileid="887" duration="150"/>
    <frame tileid="890" duration="150"/>
    <frame tileid="893" duration="150"/>
    <frame tileid="896" duration="150"/>
    <frame tileid="899" duration="150"/>
    <frame tileid="902" duration="150"/>
   </animation>
  </tile>
  <tile id="882">
   <animation>
    <frame tileid="882" duration="150"/>
    <frame tileid="885" duration="150"/>
    <frame tileid="888" duration="150"/>
    <frame tileid="891" duration="150"/>
    <frame tileid="894" duration="150"/>
    <frame tileid="897" duration="150"/>
    <frame tileid="900" duration="150"/>
    <frame tileid="903" duration="150"/>
   </animation>
  </tile>
  <tile id="883">
   <animation>
    <frame tileid="883" duration="150"/>
    <frame tileid="886" duration="150"/>
    <frame tileid="889" duration="150"/>
    <frame tileid="892" duration="150"/>
    <frame tileid="895" duration="150"/>
    <frame tileid="898" duration="150"/>
    <frame tileid="901" duration="150"/>
    <frame tileid="904" duration="150"/>
   </animation>
  </tile>
  <wangsets>
   <wangset name="Water" type="corner" tile="-1">
    <wangcolor name="Dirt Edge" color="#ff0000" tile="-1" probability="1"/>
    <wangtile tileid="641" wangid="0,0,0,1,0,0,0,0"/>
    <wangtile tileid="642" wangid="0,0,0,1,0,1,0,0"/>
    <wangtile tileid="643" wangid="0,0,0,0,0,1,0,0"/>
    <wangtile tileid="681" wangid="0,1,0,1,0,0,0,0"/>
    <wangtile tileid="682" wangid="0,1,0,1,0,1,0,1"/>
    <wangtile tileid="683" wangid="0,0,0,0,0,1,0,1"/>
    <wangtile tileid="721" wangid="0,1,0,0,0,0,0,0"/>
    <wangtile tileid="722" wangid="0,1,0,0,0,0,0,1"/>
    <wangtile tileid="723" wangid="0,0,0,0,0,0,0,1"/>
    <wangtile tileid="801" wangid="0,1,0,0,0,1,0,1"/>
    <wangtile tileid="802" wangid="0,1,0,0,0,0,0,1"/>
    <wangtile tileid="803" wangid="0,1,0,1,0,0,0,1"/>
    <wangtile tileid="841" wangid="0,0,0,0,0,1,0,1"/>
    <wangtile tileid="843" wangid="0,1,0,1,0,0,0,0"/>
    <wangtile tileid="881" wangid="0,0,0,1,0,1,0,1"/>
    <wangtile tileid="882" wangid="0,0,0,1,0,1,0,0"/>
    <wangtile tileid="883" wangid="0,1,0,1,0,1,0,0"/>
   </wangset>
  </wangsets>
 </tileset>
 <tileset firstgid="2337" name="terrain" tilewidth="16" tileheight="16" tilecount="4000" columns="50">
  <image source="_tilesets/terrain.png" width="800" height="1280"/>
  <tile id="59" probability="0.015"/>
  <tile id="60" probability="0.015"/>
  <tile id="61" probability="0.015"/>
  <tile id="62" probability="0.015"/>
  <tile id="63" probability="0.015"/>
  <tile id="64" probability="0.025"/>
  <tile id="107" probability="0.015"/>
  <tile id="108" probability="0.015"/>
  <tile id="109" probability="0.015"/>
  <tile id="110" probability="0.015"/>
  <tile id="111" probability="0.015"/>
  <tile id="112" probability="0.015"/>
  <tile id="113" probability="0.015"/>
  <tile id="251">
   <animation>
    <frame tileid="251" duration="350"/>
    <frame tileid="254" duration="350"/>
    <frame tileid="257" duration="350"/>
    <frame tileid="260" duration="350"/>
   </animation>
  </tile>
  <tile id="253">
   <animation>
    <frame tileid="253" duration="350"/>
    <frame tileid="256" duration="350"/>
    <frame tileid="259" duration="350"/>
    <frame tileid="262" duration="350"/>
   </animation>
  </tile>
  <tile id="264">
   <animation>
    <frame tileid="264" duration="350"/>
    <frame tileid="314" duration="350"/>
    <frame tileid="364" duration="350"/>
    <frame tileid="414" duration="350"/>
   </animation>
  </tile>
  <tile id="265">
   <animation>
    <frame tileid="265" duration="350"/>
    <frame tileid="315" duration="350"/>
    <frame tileid="365" duration="350"/>
    <frame tileid="415" duration="350"/>
   </animation>
  </tile>
  <tile id="301">
   <animation>
    <frame tileid="301" duration="350"/>
    <frame tileid="304" duration="350"/>
    <frame tileid="307" duration="350"/>
    <frame tileid="310" duration="350"/>
   </animation>
  </tile>
  <tile id="303">
   <animation>
    <frame tileid="303" duration="350"/>
    <frame tileid="306" duration="350"/>
    <frame tileid="309" duration="350"/>
    <frame tileid="312" duration="350"/>
   </animation>
  </tile>
  <tile id="351">
   <animation>
    <frame tileid="351" duration="350"/>
    <frame tileid="354" duration="350"/>
    <frame tileid="357" duration="350"/>
    <frame tileid="360" duration="350"/>
   </animation>
  </tile>
  <tile id="352">
   <animation>
    <frame tileid="352" duration="350"/>
    <frame tileid="355" duration="350"/>
    <frame tileid="358" duration="350"/>
    <frame tileid="361" duration="350"/>
   </animation>
  </tile>
  <tile id="353">
   <animation>
    <frame tileid="353" duration="350"/>
    <frame tileid="356" duration="350"/>
    <frame tileid="359" duration="350"/>
    <frame tileid="362" duration="350"/>
   </animation>
  </tile>
  <tile id="451">
   <animation>
    <frame tileid="451" duration="350"/>
    <frame tileid="453" duration="350"/>
    <frame tileid="455" duration="350"/>
    <frame tileid="457" duration="350"/>
   </animation>
  </tile>
  <tile id="452">
   <animation>
    <frame tileid="452" duration="350"/>
    <frame tileid="454" duration="350"/>
    <frame tileid="456" duration="350"/>
    <frame tileid="458" duration="350"/>
   </animation>
  </tile>
  <tile id="501">
   <animation>
    <frame tileid="501" duration="350"/>
    <frame tileid="503" duration="350"/>
    <frame tileid="505" duration="350"/>
    <frame tileid="507" duration="350"/>
   </animation>
  </tile>
  <tile id="502">
   <animation>
    <frame tileid="502" duration="350"/>
    <frame tileid="504" duration="350"/>
    <frame tileid="506" duration="350"/>
    <frame tileid="508" duration="350"/>
   </animation>
  </tile>
  <tile id="606">
   <animation>
    <frame tileid="606" duration="100"/>
    <frame tileid="607" duration="100"/>
    <frame tileid="608" duration="100"/>
   </animation>
  </tile>
  <tile id="656">
   <animation>
    <frame tileid="656" duration="100"/>
    <frame tileid="657" duration="100"/>
    <frame tileid="658" duration="100"/>
   </animation>
  </tile>
  <tile id="706">
   <animation>
    <frame tileid="706" duration="100"/>
    <frame tileid="707" duration="100"/>
    <frame tileid="708" duration="100"/>
   </animation>
  </tile>
  <tile id="756">
   <animation>
    <frame tileid="756" duration="200"/>
    <frame tileid="806" duration="200"/>
    <frame tileid="856" duration="200"/>
   </animation>
  </tile>
  <tile id="757">
   <animation>
    <frame tileid="757" duration="200"/>
    <frame tileid="807" duration="200"/>
    <frame tileid="857" duration="200"/>
   </animation>
  </tile>
  <tile id="758">
   <animation>
    <frame tileid="758" duration="200"/>
    <frame tileid="808" duration="200"/>
    <frame tileid="858" duration="200"/>
   </animation>
  </tile>
  <wangsets>
   <wangset name="Grasslands" type="corner" tile="59">
    <wangcolor name="Elevation" color="#ff0000" tile="-1" probability="1"/>
    <wangcolor name="Grass Edges" color="#00ff00" tile="-1" probability="1"/>
    <wangcolor name="Water Edges" color="#00ffff" tile="-1" probability="1"/>
    <wangcolor name="Path" color="#ff7700" tile="-1" probability="1"/>
    <wangcolor name="Grass Edges 2" color="#00aa00" tile="-1" probability="1"/>
    <wangcolor name="Dirt" color="#ff00d8" tile="-1" probability="1"/>
    <wangtile tileid="51" wangid="0,0,0,1,0,0,0,0"/>
    <wangtile tileid="52" wangid="0,0,0,1,0,1,0,0"/>
    <wangtile tileid="53" wangid="0,0,0,0,0,1,0,0"/>
    <wangtile tileid="55" wangid="0,1,0,0,0,1,0,1"/>
    <wangtile tileid="56" wangid="0,1,0,1,0,0,0,1"/>
    <wangtile tileid="65" wangid="0,2,0,0,0,2,0,2"/>
    <wangtile tileid="66" wangid="0,2,0,0,0,0,0,2"/>
    <wangtile tileid="67" wangid="0,2,0,2,0,0,0,2"/>
    <wangtile tileid="68" wangid="0,0,0,2,0,0,0,0"/>
    <wangtile tileid="69" wangid="0,0,0,0,0,2,0,0"/>
    <wangtile tileid="71" wangid="0,0,0,5,0,0,0,0"/>
    <wangtile tileid="72" wangid="0,0,0,5,0,5,0,0"/>
    <wangtile tileid="73" wangid="0,0,0,0,0,5,0,0"/>
    <wangtile tileid="75" wangid="0,5,0,0,0,5,0,5"/>
    <wangtile tileid="76" wangid="0,5,0,5,0,0,0,5"/>
    <wangtile tileid="101" wangid="0,1,0,1,0,0,0,0"/>
    <wangtile tileid="102" wangid="0,1,0,1,0,1,0,1"/>
    <wangtile tileid="103" wangid="0,0,0,0,0,1,0,1"/>
    <wangtile tileid="105" wangid="0,0,0,1,0,1,0,1"/>
    <wangtile tileid="106" wangid="0,1,0,1,0,1,0,0"/>
    <wangtile tileid="115" wangid="0,0,0,0,0,2,0,2"/>
    <wangtile tileid="116" wangid="0,2,0,2,0,2,0,2"/>
    <wangtile tileid="117" wangid="0,2,0,2,0,0,0,0"/>
    <wangtile tileid="118" wangid="0,2,0,0,0,0,0,0"/>
    <wangtile tileid="119" wangid="0,0,0,0,0,0,0,2"/>
    <wangtile tileid="121" wangid="0,5,0,5,0,0,0,0"/>
    <wangtile tileid="122" wangid="0,5,0,5,0,5,0,5"/>
    <wangtile tileid="123" wangid="0,0,0,0,0,5,0,5"/>
    <wangtile tileid="125" wangid="0,0,0,5,0,5,0,5"/>
    <wangtile tileid="126" wangid="0,5,0,5,0,5,0,0"/>
    <wangtile tileid="151" wangid="0,1,0,0,0,0,0,0"/>
    <wangtile tileid="152" wangid="0,1,0,0,0,0,0,1"/>
    <wangtile tileid="153" wangid="0,0,0,0,0,0,0,1"/>
    <wangtile tileid="165" wangid="0,0,0,2,0,2,0,2"/>
    <wangtile tileid="166" wangid="0,0,0,2,0,2,0,0"/>
    <wangtile tileid="167" wangid="0,2,0,2,0,2,0,0"/>
    <wangtile tileid="171" wangid="0,5,0,0,0,0,0,0"/>
    <wangtile tileid="172" wangid="0,5,0,0,0,0,0,5"/>
    <wangtile tileid="173" wangid="0,0,0,0,0,0,0,5"/>
    <wangtile tileid="250" wangid="0,3,0,3,0,3,0,3"/>
    <wangtile tileid="251" wangid="0,3,0,0,0,3,0,3"/>
    <wangtile tileid="252" wangid="0,3,0,0,0,0,0,3"/>
    <wangtile tileid="253" wangid="0,3,0,3,0,0,0,3"/>
    <wangtile tileid="301" wangid="0,0,0,0,0,3,0,3"/>
    <wangtile tileid="303" wangid="0,3,0,3,0,0,0,0"/>
    <wangtile tileid="351" wangid="0,0,0,3,0,3,0,3"/>
    <wangtile tileid="352" wangid="0,0,0,3,0,3,0,0"/>
    <wangtile tileid="353" wangid="0,3,0,3,0,3,0,0"/>
    <wangtile tileid="451" wangid="0,0,0,3,0,0,0,0"/>
    <wangtile tileid="452" wangid="0,0,0,0,0,3,0,0"/>
    <wangtile tileid="501" wangid="0,3,0,0,0,0,0,0"/>
    <wangtile tileid="502" wangid="0,0,0,0,0,0,0,3"/>
    <wangtile tileid="951" wangid="0,0,0,4,0,0,0,0"/>
    <wangtile tileid="952" wangid="0,0,0,4,0,4,0,0"/>
    <wangtile tileid="953" wangid="0,0,0,0,0,4,0,0"/>
    <wangtile tileid="955" wangid="0,4,0,0,0,4,0,4"/>
    <wangtile tileid="956" wangid="0,4,0,4,0,0,0,4"/>
    <wangtile tileid="958" wangid="0,0,0,6,0,0,0,0"/>
    <wangtile tileid="959" wangid="0,0,0,6,0,6,0,0"/>
    <wangtile tileid="960" wangid="0,0,0,0,0,6,0,0"/>
    <wangtile tileid="962" wangid="0,6,0,0,0,6,0,6"/>
    <wangtile tileid="963" wangid="0,6,0,6,0,0,0,6"/>
    <wangtile tileid="1001" wangid="0,4,0,4,0,0,0,0"/>
    <wangtile tileid="1002" wangid="0,4,0,4,0,4,0,4"/>
    <wangtile tileid="1003" wangid="0,0,0,0,0,4,0,4"/>
    <wangtile tileid="1005" wangid="0,0,0,4,0,4,0,4"/>
    <wangtile tileid="1006" wangid="0,4,0,4,0,4,0,0"/>
    <wangtile tileid="1008" wangid="0,6,0,6,0,0,0,0"/>
    <wangtile tileid="1009" wangid="0,6,0,6,0,6,0,6"/>
    <wangtile tileid="1010" wangid="0,0,0,0,0,6,0,6"/>
    <wangtile tileid="1012" wangid="0,0,0,6,0,6,0,6"/>
    <wangtile tileid="1013" wangid="0,6,0,6,0,6,0,0"/>
    <wangtile tileid="1051" wangid="0,4,0,0,0,0,0,0"/>
    <wangtile tileid="1052" wangid="0,4,0,0,0,0,0,4"/>
    <wangtile tileid="1053" wangid="0,0,0,0,0,0,0,4"/>
    <wangtile tileid="1058" wangid="0,6,0,0,0,0,0,0"/>
    <wangtile tileid="1059" wangid="0,6,0,0,0,0,0,6"/>
    <wangtile tileid="1060" wangid="0,0,0,0,0,0,0,6"/>
   </wangset>
   <wangset name="New Grass" type="corner" tile="-1">
    <wangcolor name="Light" color="#ff0000" tile="-1" probability="1"/>
    <wangcolor name="Dark" color="#00ff00" tile="-1" probability="1"/>
    <wangcolor name="Dirt" color="#0000ff" tile="-1" probability="1"/>
    <wangcolor name="Thick Dark" color="#ff7700" tile="-1" probability="1"/>
    <wangtile tileid="1651" wangid="0,0,0,1,0,0,0,0"/>
    <wangtile tileid="1652" wangid="0,0,0,1,0,1,0,0"/>
    <wangtile tileid="1653" wangid="0,0,0,0,0,1,0,0"/>
    <wangtile tileid="1655" wangid="0,1,0,0,0,1,0,1"/>
    <wangtile tileid="1656" wangid="0,1,0,1,0,0,0,1"/>
    <wangtile tileid="1658" wangid="0,0,0,2,0,0,0,0"/>
    <wangtile tileid="1659" wangid="0,0,0,2,0,2,0,0"/>
    <wangtile tileid="1660" wangid="0,0,0,0,0,2,0,0"/>
    <wangtile tileid="1662" wangid="0,2,0,0,0,2,0,2"/>
    <wangtile tileid="1663" wangid="0,2,0,2,0,0,0,2"/>
    <wangtile tileid="1665" wangid="0,0,0,3,0,0,0,0"/>
    <wangtile tileid="1666" wangid="0,0,0,3,0,3,0,0"/>
    <wangtile tileid="1667" wangid="0,0,0,0,0,3,0,0"/>
    <wangtile tileid="1669" wangid="0,3,0,0,0,3,0,3"/>
    <wangtile tileid="1670" wangid="0,3,0,3,0,0,0,3"/>
    <wangtile tileid="1672" wangid="0,0,0,4,0,0,0,0"/>
    <wangtile tileid="1673" wangid="0,0,0,4,0,4,0,0"/>
    <wangtile tileid="1674" wangid="0,0,0,0,0,4,0,0"/>
    <wangtile tileid="1676" wangid="0,4,0,0,0,4,0,4"/>
    <wangtile tileid="1677" wangid="0,4,0,4,0,0,0,4"/>
    <wangtile tileid="1701" wangid="0,1,0,1,0,0,0,0"/>
    <wangtile tileid="1702" wangid="0,1,0,1,0,1,0,1"/>
    <wangtile tileid="1703" wangid="0,0,0,0,0,1,0,1"/>
    <wangtile tileid="1705" wangid="0,0,0,1,0,1,0,1"/>
    <wangtile tileid="1706" wangid="0,1,0,1,0,1,0,0"/>
    <wangtile tileid="1708" wangid="0,2,0,2,0,0,0,0"/>
    <wangtile tileid="1709" wangid="0,2,0,2,0,2,0,2"/>
    <wangtile tileid="1710" wangid="0,0,0,0,0,2,0,2"/>
    <wangtile tileid="1712" wangid="0,0,0,2,0,2,0,2"/>
    <wangtile tileid="1713" wangid="0,2,0,2,0,2,0,0"/>
    <wangtile tileid="1715" wangid="0,3,0,3,0,0,0,0"/>
    <wangtile tileid="1716" wangid="0,3,0,3,0,3,0,3"/>
    <wangtile tileid="1717" wangid="0,0,0,0,0,3,0,3"/>
    <wangtile tileid="1719" wangid="0,0,0,3,0,3,0,3"/>
    <wangtile tileid="1720" wangid="0,3,0,3,0,3,0,0"/>
    <wangtile tileid="1722" wangid="0,4,0,4,0,0,0,0"/>
    <wangtile tileid="1723" wangid="0,4,0,4,0,4,0,4"/>
    <wangtile tileid="1724" wangid="0,0,0,0,0,4,0,4"/>
    <wangtile tileid="1726" wangid="0,0,0,4,0,4,0,4"/>
    <wangtile tileid="1727" wangid="0,4,0,4,0,4,0,0"/>
    <wangtile tileid="1751" wangid="0,1,0,0,0,0,0,0"/>
    <wangtile tileid="1752" wangid="0,1,0,0,0,0,0,1"/>
    <wangtile tileid="1753" wangid="0,0,0,0,0,0,0,1"/>
    <wangtile tileid="1758" wangid="0,2,0,0,0,0,0,0"/>
    <wangtile tileid="1759" wangid="0,2,0,0,0,0,0,2"/>
    <wangtile tileid="1760" wangid="0,0,0,0,0,0,0,2"/>
    <wangtile tileid="1765" wangid="0,3,0,0,0,0,0,0"/>
    <wangtile tileid="1766" wangid="0,3,0,0,0,0,0,3"/>
    <wangtile tileid="1767" wangid="0,0,0,0,0,0,0,3"/>
    <wangtile tileid="1772" wangid="0,4,0,0,0,0,0,0"/>
    <wangtile tileid="1773" wangid="0,4,0,0,0,0,0,4"/>
    <wangtile tileid="1774" wangid="0,0,0,0,0,0,0,4"/>
   </wangset>
  </wangsets>
 </tileset>
 <layer id="24" name="Simple" width="80" height="50">
  <data encoding="csv">
2395,2395,2395,2395,2395,2395,2395,2395,2395,2395,2395,2395,2395,2395,2395,2395,2395,2395,2395,2395,2395,2395,2395,2395,2395,2395,2395,2395,2395,2395,2395,2395,2395,2395,2395,2395,2395,2395,2395,2395,2395,2395,2395,2395,2395,2395,2395,2395,2395,2395,2395,2395,2395,2395,2395,2395,2395,2395,2395,2395,2395,2395,2395,2395,2395,2395,2395,2395,2395,2395,2395,2395,2395,2395,2395,2395,2395,2395,2395,2395,
2395,2395,2395,2395,2395,2395,2395,2395,2395,2395,2395,2395,2395,2395,2395,2395,2395,2395,2395,2395,2395,2395,2395,2395,2395,2395,2395,2395,2395,2395,2395,2395,2395,2395,2395,2395,2395,2395,2395,2395,2395,2395,2395,2395,2395,2395,2395,2395,2395,2395,2395,2395,2395,2395,2395,2395,2395,2395,2395,2395,2395,2395,2395,2395,2395,2395,2395,2395,2395,2395,2395,2395,2395,2395,2395,2395,2395,2395,2395,2395,
2395,2395,2395,2395,2395,2395,2395,2395,2395,2395,2395,2395,2395,2395,2395,2395,2395,2395,2395,2395,2395,2395,2395,2395,2395,2395,2395,2395,2395,2395,2395,2395,2395,2395,2395,2395,2395,2395,2395,2395,2395,2395,2395,2395,2395,2395,2395,2395,2395,2395,2395,2395,2395,2395,2395,2395,2395,2395,2395,2395,2395,2395,2395,2395,2395,2395,2395,2395,2395,2395,2395,2395,2395,2395,2395,2395,2395,2395,2395,2395,
2395,2395,2395,2395,2395,2395,2395,2395,2395,2395,2395,2395,2395,2395,2395,2395,2395,2395,2395,2395,2395,2395,2395,2395,2395,2395,2395,2395,2395,2395,2395,2395,2395,2395,2395,2395,2395,2395,2395,2395,2395,2395,2395,2395,2395,2395,2395,2395,2395,2395,2395,2395,2395,2395,2395,2395,2395,2395,2395,2395,2395,2395,2395,2395,2395,2395,2395,2395,2395,2395,2395,2395,2395,2395,2395,2395,2395,2395,2395,2395,
2395,2395,2395,2395,2395,2395,2395,2395,2395,2395,2395,2395,2395,2395,2395,2395,2395,2395,2395,2395,2395,2395,2395,2395,2395,2395,2395,2395,2395,2395,2395,2395,2395,2395,2395,2395,2395,2395,2395,2395,2395,2395,2395,2395,2395,2395,2395,2395,2395,2395,2395,2395,2395,2395,2395,2395,2395,2395,2395,2395,2395,2395,2395,2395,2395,2395,2395,2395,2395,2395,2395,2395,2395,2395,2395,2395,2395,2395,2395,2395,
2395,2395,2395,2395,2395,2395,2395,2395,2395,2395,2395,2395,2395,2395,2395,2395,2395,2395,2395,2395,2395,2395,2395,2395,2395,2395,2395,2395,2395,2395,2395,2395,2395,2395,2395,2395,2395,2395,2395,2395,2395,2395,2395,2395,2395,2395,2395,2395,2395,2395,2395,2395,2395,2395,2395,2395,2395,2395,2395,2395,2395,2395,2395,2395,2395,2395,2395,2395,2395,2395,2395,2395,2395,2395,2395,2395,2395,2395,2395,2395,
2395,2395,2395,2395,2395,2395,2395,2395,2395,2395,2395,2395,2395,2395,2395,2395,2395,2395,2395,2395,2395,2395,2395,2395,2395,2395,2395,2395,2395,2395,2395,2395,2395,2395,2395,2395,2395,2395,2395,2395,2395,2395,2395,2395,2395,2395,2395,2395,2395,2395,2395,2395,2395,2395,2395,2395,2395,2395,2395,2395,2395,2395,2395,2395,2395,2395,2395,2395,2395,2395,2395,2395,2395,2395,2395,2395,2395,2395,2395,2395,
2395,2395,2395,2395,2395,2395,2395,2395,2395,2395,2395,2395,2395,2395,2395,2395,2395,2395,2395,2395,2395,2395,2395,2395,2395,2395,2395,2395,2395,2395,2395,2395,2395,2395,2395,2395,2395,2395,2395,2395,2395,2395,2395,2395,2395,2395,2395,2395,2395,2395,2395,2395,2395,2395,2395,2395,2395,2395,2395,2395,2395,2395,2395,2395,2395,2395,2395,2395,2395,2395,2395,2395,2395,2395,2395,2395,2395,2395,2395,2395,
2395,2395,2395,2395,2395,2395,2395,2395,2395,2395,2395,2395,2395,2395,2395,2395,2395,2395,2395,2395,2395,2395,2395,2395,2395,2395,2395,2395,2395,2395,2395,2395,2395,2395,2395,2395,2395,2395,2395,2395,2395,2395,2395,2395,2395,2395,2395,2395,2395,2395,2395,2395,2395,2395,2395,2395,2395,2395,2395,2395,2395,2395,2395,2395,2395,2395,2395,2395,2395,2395,2395,2395,2395,2395,2395,2395,2395,2395,2395,2395,
2395,2395,2395,2395,2395,2395,2395,2395,2395,2395,2395,2395,2395,2395,2395,2395,2395,2395,2395,2395,2395,2395,2395,2395,2395,2395,2395,2395,2395,2395,2395,2395,2395,2395,2395,2395,2395,2395,2395,2395,2395,2395,2395,2395,2395,2395,2395,2395,2395,2395,2395,2395,2395,2395,2395,2395,2395,2395,2395,2395,2395,2395,2395,2395,2395,2395,2395,2395,2395,2395,2395,2395,2395,2395,2395,2395,2395,2395,2395,2395,
2395,2395,2395,2395,2395,2395,2395,2395,2395,2395,2395,2395,2395,2395,2395,2395,2395,2395,2395,2395,2395,2395,2395,2395,2395,2395,2395,2395,2395,2395,2395,2395,2395,2395,2395,2395,2395,2395,2395,2395,2395,2395,2395,2395,2395,2395,2395,2395,2395,2395,2395,2395,2395,2395,2395,2395,2395,2395,2395,2395,2395,2395,2395,2395,2395,2395,2395,2395,2395,2395,2395,2395,2395,2395,2395,2395,2395,2395,2395,2395,
2395,2395,2395,2395,2395,2395,2395,2395,2395,2395,2395,2395,2395,2395,2395,2395,2395,2395,2395,2395,2395,2395,2395,2395,2395,2395,2395,2395,2395,2395,2395,2395,2395,2395,2395,2395,2395,2395,2395,2395,2395,2395,2395,2395,2395,2395,2395,2395,2395,2395,2395,2395,2395,2395,2395,2395,2395,2395,2395,2395,2395,2395,2395,2395,2395,2395,2395,2395,2395,2395,2395,2395,2395,2395,2395,2395,2395,2395,2395,2395,
2395,2395,2395,2395,2395,2395,2395,2395,2395,2395,2395,2395,2395,2395,2395,2395,2395,2395,2395,2395,2395,2395,2395,2395,2395,2395,2395,2395,2395,2395,2395,2395,2395,2395,2395,2395,2395,2395,2395,2395,2395,2395,2395,2395,2395,2395,2395,2395,2395,2395,2395,2395,2395,2395,2395,2395,2395,2395,2395,2395,2395,2395,2395,2395,2395,2395,2395,2395,2395,2395,2395,2395,2395,2395,2395,2395,2395,2395,2395,2395,
2395,2395,2395,2395,2395,2395,2395,2395,2395,2395,2395,2395,2395,2395,2395,2395,2395,2395,2395,2395,2395,2395,2395,2395,2395,2395,2395,2395,2395,2395,2395,2395,2395,2395,2395,2395,2395,2395,2395,2395,2395,2395,2395,2395,2395,2395,2395,2395,2395,2395,2395,2395,2395,2395,2395,2395,2395,2395,2395,2395,2395,2395,2395,2395,2395,2395,2395,2395,2395,2395,2395,2395,2395,2395,2395,2395,2395,2395,2395,2395,
2395,2395,2395,2395,2395,2395,2395,2395,2395,2395,2395,2395,2395,2395,2395,2395,2395,2395,2395,2395,2395,2395,2395,2395,2395,2395,2395,2395,2395,2395,2395,2395,2395,2395,2395,2395,2395,2395,2395,2395,2395,2395,2395,2395,2395,2395,2395,2395,2395,2395,2395,2395,2395,2395,2395,2395,2395,2395,2395,2395,2395,2395,2395,2395,2395,2395,2395,2395,2395,2395,2395,2395,2395,2395,2395,2395,2395,2395,2395,2395,
2395,2395,2395,2395,2395,2395,2395,2395,2395,2395,2395,2395,2395,2395,2395,2395,2395,2395,2395,2395,2395,2395,2395,2395,2395,2395,2395,2395,2395,2395,2395,2395,2395,2395,2395,2395,2395,2395,2395,2395,2395,2395,2395,2395,2395,2395,2395,2395,2395,2395,2395,2395,2395,2395,2395,2395,2395,2395,2395,2395,2395,2395,2395,2395,2395,2395,2395,2395,2395,2395,2395,2395,2395,2395,2395,2395,2395,2395,2395,2395,
2395,2395,2395,2395,2395,2395,2395,2395,2395,2395,2395,2395,2395,2395,2395,2395,2395,2395,2395,2395,2395,2395,2395,2395,2395,2395,2395,2395,2395,2395,2395,2395,2395,2395,2395,2395,2395,2395,2395,2395,2395,2395,2395,2395,2395,2395,2395,2395,2395,2395,2395,2395,2395,2395,2395,2395,2395,2395,2395,2395,2395,2395,2395,2395,2395,2395,2395,2395,2395,2395,2395,2395,2395,2395,2395,2395,2395,2395,2395,2395,
2395,2395,2395,2395,2395,2395,2395,2395,2395,2395,2395,2395,2395,2395,2395,2395,2395,2395,2395,2395,2395,2395,2395,2395,2395,2395,2395,2395,2395,2395,2395,2395,2395,2395,2395,2395,2395,2395,2395,2395,2395,2395,2395,2395,2395,2395,2395,2395,2395,2395,2395,2395,2395,2395,2395,2395,2395,2395,2395,2395,2395,2395,2395,2395,2395,2395,2395,2395,2395,2395,2395,2395,2395,2395,2395,2395,2395,2395,2395,2395,
2395,2395,2395,2395,2395,2395,2395,2395,2395,2395,2395,2395,2395,2395,2395,2395,2395,2395,2395,2395,2395,2395,2395,2395,2395,2395,2395,2395,2395,2395,2395,2395,2395,2395,2395,2395,2395,2395,2395,2395,2395,2395,2395,2395,2395,2395,2395,2395,2395,2395,2395,2395,2395,2395,2395,2395,2395,2395,2395,2395,2395,2395,2395,2395,2395,2395,2395,2395,2395,2395,2395,2395,2395,2395,2395,2395,2395,2395,2395,2395,
2395,2395,2395,2395,2395,2395,2395,2395,2395,2395,2395,2395,2395,2395,2395,2395,2395,2395,2395,2395,2395,2395,2395,2395,2395,2395,2395,2395,2395,2395,2395,2395,2395,2395,2395,2395,2395,2395,2395,2395,2395,2395,2395,2395,2395,2395,2395,2395,2395,2395,2395,2395,2395,2395,2395,2395,2395,2395,2395,2395,2395,2395,2395,2395,2395,2395,2395,2395,2395,2395,2395,2395,2395,2395,2395,2395,2395,2395,2395,2395,
2395,2395,2395,2395,2395,2395,2395,2395,2395,2395,2395,2395,2395,2395,2395,2395,2395,2395,2395,2395,2395,2395,2395,2395,2395,2395,2395,2395,2395,2395,2395,2395,2395,2395,2395,2395,2395,2395,2395,2395,2395,2395,2395,2395,2395,2395,2395,2395,2395,2395,2395,2395,2395,2395,2395,2395,2395,2395,2395,2395,2395,2395,2395,2395,2395,2395,2395,2395,2395,2395,2395,2395,2395,2395,2395,2395,2395,2395,2395,2395,
2395,2395,2395,2395,2395,2395,2395,2395,2395,2395,2395,2395,2395,2395,2395,2395,2395,2395,2395,2395,2395,2395,2395,2395,2395,2395,2395,2395,2395,2395,2395,2395,2395,2395,2395,2395,2395,2395,2395,2395,2395,2395,2395,2395,2395,2395,2395,2395,2395,2395,2395,2395,2395,2395,2395,2395,2395,2395,2395,2395,2395,2395,2395,2395,2395,2395,2395,2395,2395,2395,2395,2395,2395,2395,2395,2395,2395,2395,2395,2395,
2395,2395,2395,2395,2395,2395,2395,2395,2395,2395,2395,2395,2395,2395,2395,2395,2395,2395,2395,2395,2395,2395,2395,2395,2395,2395,2395,2395,2395,2395,2395,2395,2395,2395,2395,2395,2395,2395,2395,2395,2395,2395,2395,2395,2395,2395,2395,2395,2395,2395,2395,2395,2395,2395,2395,2395,2395,2395,2395,2395,2395,2395,2395,2395,2395,2395,2395,2395,2395,2395,2395,2395,2395,2395,2395,2395,2395,2395,2395,2395,
2395,2395,2395,2395,2395,2395,2395,2395,2395,2395,2395,2395,2395,2395,2395,2395,2395,2395,2395,2395,2395,2395,2395,2395,2395,2395,2395,2395,2395,2395,2395,2395,2395,2395,2395,2395,2395,2395,2395,2395,2395,2395,2395,2395,2395,2395,2395,2395,2395,2395,2395,2395,2395,2395,2395,2395,2395,2395,2395,2395,2395,2395,2395,2395,2395,2395,2395,2395,2395,2395,2395,2395,2395,2395,2395,2395,2395,2395,2395,2395,
2395,2395,2395,2395,2395,2395,2395,2395,2395,2395,2395,2395,2395,2395,2395,2395,2395,2395,2395,2395,2395,2395,2395,2395,2395,2395,2395,2395,2395,2395,2395,2395,2395,2395,2395,2395,2395,2395,2395,2395,2395,2395,2395,2395,2395,2395,2395,2395,2395,2395,2395,2395,2395,2395,2395,2395,2395,2395,2395,2395,2395,2395,2395,2395,2395,2395,2395,2395,2395,2395,2395,2395,2395,2395,2395,2395,2395,2395,2395,2395,
2395,2395,2395,2395,2395,2395,2395,2395,2395,2395,2395,2395,2395,2395,2395,2395,2395,2395,2395,2395,2395,2395,2395,2395,2395,2395,2395,2395,2395,2395,2395,2395,2395,2395,2395,2395,2395,2395,2395,2395,2395,2395,2395,2395,2395,2395,2395,2395,2395,2395,2395,2395,2395,2395,2395,2395,2395,2395,2395,2395,2395,2395,2395,2395,2395,2395,2395,2395,2395,2395,2395,2395,2395,2395,2395,2395,2395,2395,2395,2395,
2395,2395,2395,2395,2395,2395,2395,2395,2395,2395,2395,2395,2395,2395,2395,2395,2395,2395,2395,2395,2395,2395,2395,2395,2395,2395,2395,2395,2395,2395,2395,2395,2395,2395,2395,2395,2395,2395,2395,2395,2395,2395,2395,2395,2395,2395,2395,2395,2395,2395,2395,2395,2395,2395,2395,2395,2395,2395,2395,2395,2395,2395,2395,2395,2395,2395,2395,2395,2395,2395,2395,2395,2395,2395,2395,2395,2395,2395,2395,2395,
2395,2395,2395,2395,2395,2395,2395,2395,2395,2395,2395,2395,2395,2395,2395,2395,2395,2395,2395,2395,2395,2395,2395,2395,2395,2395,2395,2395,2395,2395,2395,2395,2395,2395,2395,2395,2395,2395,2395,2395,2395,2395,2395,2395,2395,2395,2395,2395,2395,2395,2395,2395,2395,2395,2395,2395,2395,2395,2395,2395,2395,2395,2395,2395,2395,2395,2395,2395,2395,2395,2395,2395,2395,2395,2395,2395,2395,2395,2395,2395,
2395,2395,2395,2395,2395,2395,2395,2395,2395,2395,2395,2395,2395,2395,2395,2395,2395,2395,2395,2395,2395,2395,2395,2395,2395,2395,2395,2395,2395,2395,2395,2395,2395,2395,2395,2395,2395,2395,2395,2395,2395,2395,2395,2395,2395,2395,2395,2395,2395,2395,2395,2395,2395,2395,2395,2395,2395,2395,2395,2395,2395,2395,2395,2395,2395,2395,2395,2395,2395,2395,2395,2395,2395,2395,2395,2395,2395,2395,2395,2395,
2395,2395,2395,2395,2395,2395,2395,2395,2395,2395,2395,2395,2395,2395,2395,2395,2395,2395,2395,2395,2395,2395,2395,2395,2395,2395,2395,2395,2395,2395,2395,2395,2395,2395,2395,2395,2395,2395,2395,2395,2395,2395,2395,2395,2395,2395,2395,2395,2395,2395,2395,2395,2395,2395,2395,2395,2395,2395,2395,2395,0,0,2395,2395,2395,2395,2395,2395,2395,2395,2395,2395,2395,2395,2395,2395,2395,2395,2395,2395,
2395,2395,2395,2395,2395,2395,2395,2395,2395,2395,2395,2395,2395,2395,2395,2395,2395,2395,2395,2395,2395,2395,2395,2395,2395,2395,2395,2395,2395,2395,2395,2395,2395,2395,2395,2395,2395,2395,2395,2395,2395,2395,2395,2395,2395,2395,2395,2395,2395,2395,2395,2395,2395,2395,2395,2395,2395,2395,2395,2395,2395,0,2395,2395,2395,2395,2395,2395,2395,2395,2395,2395,2395,2395,2395,2395,2395,2395,2395,2395,
2395,2395,2395,2395,2395,2395,2395,2395,2395,2395,2395,2395,2395,2395,2395,2395,2395,2395,2395,2395,2395,2395,2395,2395,2395,2395,2395,2395,2395,2395,2395,2395,2395,2395,2395,2395,2395,2395,2395,2395,2395,2395,2395,2395,2395,2395,2395,2395,2395,2395,2395,2395,2395,2395,2395,2395,2395,2395,2395,2395,2395,2395,2395,2395,2395,2395,2395,2395,2395,2395,2395,2395,2395,2395,2395,2395,2395,2395,2395,2395,
2395,2395,2395,2395,2395,2395,2395,2395,2395,2395,2395,2395,2395,2395,2395,2395,2395,2395,2395,2395,2395,2395,2395,2395,2395,2395,2395,2395,2395,2395,2395,2395,2395,2395,2395,2395,2395,2395,2395,2395,2395,2395,2395,2395,2395,2395,2395,2395,2395,2395,2395,2395,2395,2395,2395,2395,2395,2395,2395,2395,2395,2395,2395,2395,2395,2395,2395,2395,2395,2395,2395,2395,2395,2395,2395,2395,2395,2395,2395,2395,
2395,2395,2395,2395,2395,2395,2395,2395,2395,2395,2395,2395,2395,2395,2395,2395,2395,2395,2395,2395,2395,2395,2395,2395,2395,2395,2395,2395,2395,2395,2395,2395,2395,2395,2395,2395,2395,2395,2395,2395,2395,2395,2395,2395,2395,2395,2395,2395,2395,2395,2395,2395,2395,2395,2395,2395,2395,2395,2395,2395,2395,2395,2395,2395,2395,2395,2395,2395,2395,2395,2395,2395,2395,2395,2395,2395,2395,2395,2395,2395,
2395,2395,2395,2395,2395,2395,2395,2395,2395,2395,2395,2395,2395,2395,2395,2395,2395,2395,2395,2395,2395,2395,2395,2395,2395,2395,2395,2395,2395,2395,2395,2395,2395,2395,2395,2395,2395,2395,2395,2395,2395,2395,2395,2395,2395,2395,2395,2395,2395,2395,2395,2395,2395,2395,2395,2395,2395,2395,2395,2395,2395,2395,2395,2395,2395,2395,2395,2395,2395,2395,2395,2395,2395,2395,2395,2395,2395,2395,2395,2395,
2395,2395,2395,2395,2395,2395,2395,2395,2395,2395,2395,2395,2395,2395,2395,2395,2395,2395,2395,2395,2395,2395,2395,2395,2395,2395,2395,2395,2395,2395,2395,2395,2395,2395,2395,2395,2395,2395,2395,2395,2395,2395,2395,2395,2395,2395,2395,2395,2395,2395,2395,2395,2395,2395,2395,2395,2395,2395,2395,2395,2395,2395,2395,2395,2395,2395,2395,2395,2395,2395,2395,2395,2395,2395,2395,2395,2395,2395,2395,2395,
2395,2395,2395,2395,2395,2395,2395,2395,2395,2395,2395,2395,2395,2395,2395,2395,2395,2395,2395,2395,2395,2395,2395,2395,2395,2395,2395,2395,2395,2395,2395,2395,2395,2395,2395,2395,2395,2395,2395,2395,2395,2395,2395,2395,2395,2395,2395,2395,2395,2395,2395,2395,2395,2395,2395,2395,2395,2395,2395,2395,2395,2395,2395,2395,2395,2395,2395,2395,2395,2395,2395,2395,2395,2395,2395,2395,2395,2395,2395,2395,
2395,2395,2395,2395,2395,2395,2395,2395,2395,2395,2395,2395,2395,2395,2395,2395,2395,2395,2395,2395,2395,2395,2395,2395,2395,2395,2395,2395,2395,2395,2395,2395,2395,2395,2395,2395,2395,2395,2395,2395,2395,2395,2395,2395,2395,2395,2395,2395,2395,2395,2395,2395,2395,2395,2395,2395,2395,2395,2395,2395,2395,2395,2395,2395,2395,2395,2395,2395,2395,2395,2395,2395,2395,2395,2395,2395,2395,2395,2395,2395,
2395,2395,2395,2395,2395,2395,2395,2395,2395,2395,2395,2395,2395,2395,2395,2395,2395,2395,2395,2395,2395,2395,2395,2395,2395,2395,2395,2395,2395,2395,2395,2395,2395,2395,2395,2395,2395,2395,2395,2395,2395,2395,2395,2395,2395,2395,2395,2395,2395,2395,2395,2395,2395,2395,2395,2395,2395,2395,2395,2395,2395,2395,2395,2395,2395,2395,2395,2395,2395,2395,2395,2395,2395,2395,2395,2395,2395,2395,2395,2395,
2395,2395,2395,2395,2395,2395,2395,2395,2395,2395,2395,2395,2395,2395,2395,2395,2395,2395,2395,2395,2395,2395,2395,2395,2395,2395,2395,2395,2395,2395,2395,2395,2395,2395,2395,2395,2395,2395,2395,2395,2395,2395,2395,2395,2395,2395,2395,2395,2395,2395,2395,2395,2395,2395,2395,2395,2395,2395,2395,2395,2395,2395,2395,2395,2395,2395,2395,2395,2395,2395,2395,2395,2395,2395,2395,2395,2395,2395,2395,2395,
2395,2395,2395,2395,2395,2395,2395,2395,2395,2395,2395,2395,2395,2395,2395,2395,2395,2395,2395,2395,2395,2395,2395,2395,2395,2395,2395,2395,2395,2395,2395,2395,2395,2395,2395,2395,2395,2395,2395,2395,2395,2395,2395,2395,2395,2395,2395,2395,2395,2395,2395,2395,2395,2395,2395,2395,2395,2395,2395,2395,2395,2395,2395,2395,2395,2395,2395,2395,2395,2395,2395,2395,2395,2395,2395,2395,2395,2395,2395,2395,
2395,2395,2395,2395,2395,2395,2395,2395,2395,2395,2395,2395,2395,2395,2395,2395,2395,2395,2395,2439,2439,2439,2439,2395,2395,2395,2395,2395,2395,2395,2395,2395,2395,2395,2395,2395,2395,2395,2395,2395,2395,2395,2395,2395,2395,2395,2395,2395,2395,2395,2395,2395,2395,2395,2395,2395,2395,2395,2395,2395,2395,2395,2395,2395,2395,2395,2395,2395,2395,2395,2395,2395,2395,2395,2395,2395,2395,2395,2395,2395,
2395,2395,2395,2395,2395,2395,2395,2395,2395,2395,2395,2395,2395,2395,2395,2395,2395,2395,2395,2439,2439,2439,2439,2395,2395,2395,2395,2395,2395,2395,2395,2395,2395,2395,2395,2395,2395,2395,2395,2395,2395,2395,2395,2395,2395,2395,2395,2395,2395,2395,2395,2395,2395,2395,2395,2395,2395,2395,2395,2395,2395,2395,2395,2395,2395,2395,2395,2395,2395,2395,2395,2395,2395,2395,2395,2395,2395,2395,2395,2395,
2395,2395,2395,2395,2395,2395,2395,2395,2395,2395,2395,2395,2395,2395,2395,2395,2395,2395,2395,2439,2439,2439,2439,2395,2395,2395,2395,2395,2395,2395,2395,2395,2395,2395,2395,2395,2395,2395,2395,2395,2395,2395,2395,2395,2395,2395,2395,2395,2395,2395,2395,2395,2395,2395,2395,2395,2395,2395,2395,2395,2395,2395,2395,2395,2395,2395,2395,2395,2395,2395,2395,2395,2395,2395,2395,2395,2395,2395,2395,2395,
2395,2395,2395,2395,2395,2395,2395,2395,2395,2395,2395,2395,2395,2395,2395,2395,2395,2395,2395,2439,2439,2439,2439,2395,2395,2395,2395,2395,2395,2395,2395,2395,2395,2395,2395,2395,2395,2395,2395,2395,2395,2395,2395,2395,2395,2395,2395,2395,2395,2395,2395,2395,2395,2395,2395,2395,2395,2395,2395,2395,2395,2395,2395,2395,2395,2395,2395,2395,2395,2395,2395,2395,2395,2395,2395,2395,2395,2395,2395,2395,
2395,2395,2395,2395,2395,2395,2395,2395,2395,2395,2395,2395,2395,2395,2395,2395,2395,2395,2395,2439,2439,2439,2439,2395,2395,2395,2395,2395,2395,2395,2395,2395,2395,2395,2395,2395,2395,2395,2395,2395,2395,2395,2395,2395,2395,2395,2395,2395,2395,2395,2395,2395,2395,2395,2395,2395,2395,2395,2395,2395,2395,2395,2395,2395,2395,2395,2395,2395,2395,2395,2395,2395,2395,2395,2395,2395,2395,2395,2395,2395,
2395,2395,2395,2395,2395,2395,2395,2395,2395,2395,2395,2395,2395,2395,2395,2395,2395,2395,2395,2439,2439,2439,2439,2395,2395,2395,2395,2395,2395,2395,2395,2395,2395,2395,2395,2395,2395,2395,2395,2395,2395,2395,2395,2395,2395,2395,2395,2395,2395,2395,2395,2395,2395,2395,2395,2395,2395,2395,2395,2395,2395,2395,2395,2395,2395,2395,2395,2395,2395,2395,2395,2395,2395,2395,2395,2395,2395,2395,2395,2395,
2395,2395,2395,2395,2395,2395,2395,2395,2395,2395,2395,2395,2395,2395,2395,2395,2395,2395,2395,2439,2439,2439,2439,2395,2395,2395,2395,2395,2395,2395,2395,2395,2395,2395,2395,2395,2395,2395,2395,2395,2395,2395,2395,2395,2395,2395,2395,2395,2395,2395,2395,2395,2395,2395,2395,2395,2395,2395,2395,2395,2395,2395,2395,2395,2395,2395,2395,2395,2395,2395,2395,2395,2395,2395,2395,2395,2395,2395,2395,2395,
2395,2395,2395,2395,2395,2395,2395,2395,2395,2395,2395,2395,2395,2395,2395,2395,2395,2395,2395,2439,2439,2439,2439,2395,2395,2395,2395,2395,2395,2395,2395,2395,2395,2395,2395,2395,2395,2395,2395,2395,2395,2395,2395,2395,2395,2395,2395,2395,2395,2395,2395,2395,2395,2395,2395,2395,2395,2395,2395,2395,2395,2395,2395,2395,2395,2395,2395,2395,2395,2395,2395,2395,2395,2395,2395,2395,2395,2395,2395,2395,
2395,2395,2395,2395,2395,2395,2395,2395,2395,2395,2395,2395,2395,2395,2395,2395,2395,2395,2395,2439,2439,2439,2439,2395,2395,2395,2395,2395,2395,2395,2395,2395,2395,2395,2395,2395,2395,2395,2395,2395,2395,2395,2395,2395,2395,2395,2395,2395,2395,2395,2395,2395,2395,2395,2395,2395,2395,2395,2395,2395,2395,2395,2395,2395,2395,2395,2395,2395,2395,2395,2395,2395,2395,2395,2395,2395,2395,2395,2395,2395
</data>
 </layer>
 <layer id="1" name="Base" width="80" height="50">
  <data encoding="csv">
0,0,0,0,0,0,0,0,0,0,0,0,0,0,4059,4060,4060,4060,4060,4060,4060,4060,4060,4060,4060,4063,4011,0,0,0,0,0,0,0,0,0,0,0,4059,4060,4060,4060,4060,4013,4111,4009,4010,4011,0,0,0,0,0,0,0,0,0,0,0,0,0,0,0,0,0,0,0,0,0,0,0,0,0,0,0,0,0,0,0,0,
0,0,0,0,0,0,0,0,0,0,0,0,0,0,4109,4110,4110,4014,4060,4060,4060,4060,4060,4060,4060,4060,4061,0,0,0,0,0,0,0,0,0,0,0,4059,4060,4060,4060,4060,4063,4010,4064,4060,4063,4011,0,0,0,0,0,0,0,0,0,0,0,0,0,0,0,0,0,0,0,0,0,0,0,0,0,0,0,0,0,0,0,
0,0,0,0,0,0,0,0,0,0,0,0,0,0,0,0,4009,4064,4060,4060,4060,4060,4060,4060,4060,4060,4061,0,0,0,0,0,0,0,0,0,0,0,4109,4014,4060,4060,4060,4060,4060,4060,4060,4060,4061,0,0,0,0,0,0,0,0,0,0,0,0,0,0,0,0,0,0,0,0,0,0,0,0,0,0,0,0,0,0,0,
0,0,0,0,0,0,0,0,0,0,0,0,0,0,0,0,4059,4060,4060,4060,4060,4060,4060,4060,4060,4060,4063,4011,0,0,0,0,0,0,0,0,0,4009,4010,4064,4060,4060,4060,4060,4060,4060,4060,4060,4061,0,0,0,0,0,0,0,0,0,0,0,0,0,0,0,0,0,0,0,0,0,0,0,0,0,0,0,0,0,0,0,
0,0,0,0,0,0,0,0,0,0,0,0,0,0,0,4009,4064,4060,4060,4060,4060,4060,4060,4060,4060,4060,4060,4061,0,0,0,0,0,0,0,0,0,4059,4060,4060,4060,4060,4060,4060,4060,4060,4060,4060,4063,4011,0,0,0,0,0,0,0,0,0,0,0,0,0,0,0,0,0,0,0,0,0,0,0,0,0,0,0,0,0,0,
0,0,0,0,0,0,0,0,0,0,0,0,0,0,0,4059,4060,4060,4060,4060,4060,4060,4060,4060,4060,4060,4060,4061,0,0,0,0,0,0,0,0,0,4059,4060,4060,4060,4060,4060,4013,4014,4060,4060,4060,4060,4063,4010,4010,4010,4011,0,0,0,0,0,0,0,0,0,0,0,0,0,0,0,0,0,0,0,0,0,0,0,0,0,0,
0,0,0,0,0,0,0,0,0,0,0,0,0,0,0,4059,4060,4060,4060,4060,4060,4013,4110,4014,4060,4060,4060,4061,0,0,0,0,0,0,0,0,0,4109,4110,4110,4110,4110,4110,4111,4109,4014,4060,4060,4060,4060,4060,4060,4060,4061,0,0,0,0,0,0,0,0,0,0,0,0,0,0,0,0,0,0,0,0,0,0,0,0,0,0,
0,0,0,0,0,0,0,0,0,0,0,0,0,0,0,4059,4060,4060,4060,4060,4013,4111,0,4109,4110,4110,4110,4111,0,0,0,0,0,0,0,0,0,0,0,0,0,0,0,0,0,4059,4060,4060,4060,4060,4060,4060,4060,4061,0,0,0,0,0,0,0,0,0,0,0,0,0,0,0,0,0,0,0,0,0,0,0,0,0,0,
0,0,0,0,0,0,0,0,0,0,0,0,0,0,0,4109,4014,4060,4060,4013,4111,0,0,0,0,0,0,0,0,0,0,0,0,0,0,0,0,0,0,0,0,0,0,0,0,4109,4110,4110,4014,4060,4060,4060,4060,4061,0,0,0,0,0,0,0,0,0,0,0,0,0,0,0,0,0,0,0,0,0,0,0,0,0,0,
0,0,0,0,0,0,0,0,0,0,0,0,0,0,0,0,4109,4110,4110,4111,0,0,0,0,0,0,0,0,0,0,0,0,0,0,0,0,0,0,0,0,0,0,0,0,0,0,0,4009,4064,4060,4060,4060,4060,4063,4011,0,0,0,0,0,0,0,0,0,0,0,0,0,0,0,0,0,0,0,0,0,0,0,0,0,
0,0,0,0,0,0,0,0,0,0,0,0,0,0,0,0,0,0,0,0,0,0,0,0,0,0,0,0,0,0,0,0,0,0,0,0,0,0,0,0,0,0,0,0,0,0,0,4059,4060,4060,4060,4060,4060,4060,4061,0,0,0,0,0,0,0,0,0,0,0,0,0,0,0,0,0,0,0,0,0,0,0,0,0,
0,0,0,0,0,0,0,0,0,0,0,0,0,0,0,0,0,0,0,0,0,0,0,0,0,0,0,0,0,0,0,0,0,0,0,0,0,0,0,0,0,0,0,0,0,0,0,4059,4060,4060,4060,4060,4060,4060,4063,4010,4011,0,0,0,0,0,0,0,0,0,0,0,0,0,0,0,0,0,0,0,0,0,0,0,
0,0,0,0,0,0,0,0,0,0,0,0,0,0,0,0,0,0,0,0,0,0,0,0,0,0,0,0,0,0,0,0,0,0,0,0,0,0,0,0,0,0,0,0,0,0,0,4109,4110,4014,4060,4060,4060,4060,4060,4060,4061,0,0,0,0,0,0,0,0,0,0,0,0,0,0,0,0,0,0,0,0,0,0,0,
0,0,0,0,0,0,0,0,0,0,0,0,0,0,0,0,0,0,0,0,0,0,0,0,0,0,0,0,0,0,0,0,0,0,0,0,0,0,0,0,0,0,0,0,0,0,0,4009,4010,4064,4060,4060,4060,4060,4060,4060,4061,0,0,0,0,0,0,0,0,0,0,0,0,0,0,0,0,0,0,0,0,0,0,0,
0,0,0,0,0,0,0,0,0,0,0,0,0,0,0,0,0,0,0,0,0,0,0,0,0,0,0,0,0,0,0,0,0,0,0,0,0,0,0,0,0,0,0,4009,4010,4010,4010,4064,4060,4060,4060,4060,4060,4060,4060,4013,4111,0,0,0,0,0,0,0,0,0,0,0,0,0,0,0,0,0,0,0,0,0,0,0,
0,0,0,0,0,0,0,0,0,0,0,0,0,0,0,0,0,0,0,0,0,0,0,0,0,0,0,0,0,0,0,0,0,0,0,0,0,0,0,0,0,0,0,4059,4060,4060,4060,4060,4060,4060,4060,4060,4060,4060,4060,4061,0,0,0,0,0,4009,4010,4010,4010,4010,4010,4011,0,0,0,0,0,0,0,0,0,0,0,0,
0,0,0,0,0,0,0,0,0,0,0,0,0,0,0,0,0,0,0,0,0,0,0,0,0,0,0,0,0,0,0,0,0,0,0,0,0,0,0,0,0,0,0,4059,4060,4060,4060,4060,4060,4060,4060,4060,4060,4060,4060,4061,0,4009,4010,4010,4010,4064,4060,4060,4060,4060,4060,4063,4011,0,0,0,0,0,0,0,0,0,0,0,
0,0,0,0,0,0,0,0,0,0,0,0,0,0,0,0,0,0,0,0,0,0,0,0,0,0,0,0,0,0,0,0,0,0,0,0,0,0,0,0,0,0,0,4059,4060,4060,4013,4110,4014,4060,4060,4060,4060,4060,4060,4063,4010,4064,4060,4060,4060,4060,4060,4060,4060,4060,4060,4060,4061,0,0,0,0,0,0,0,0,0,0,0,
0,0,0,0,0,0,0,0,0,0,0,0,0,0,0,0,0,0,0,0,0,0,4009,0,0,0,0,0,0,0,0,0,0,0,0,0,0,0,0,0,0,0,0,4109,4110,4110,4111,0,4059,4060,4060,4060,4060,4060,4060,4060,4060,4060,4060,4060,4060,4013,4014,4060,4060,4060,4060,4013,4111,0,0,0,0,0,0,0,0,0,4009,4010,
0,0,0,0,0,0,0,0,0,0,0,0,0,0,0,0,0,4009,0,0,0,0,4064,0,0,0,0,0,0,4009,4010,4010,4010,4010,4011,0,0,0,0,0,0,0,0,0,0,0,0,0,4109,4014,4060,4060,4060,4060,4013,4110,4014,4060,4060,4060,4060,4061,4109,4110,4110,4110,4110,4111,0,0,0,0,0,0,0,0,0,4009,4064,4060,
0,0,0,0,0,0,0,0,0,0,0,0,0,0,0,0,4010,0,0,0,0,0,0,0,0,0,0,0,4009,4064,4060,4060,4060,4060,4063,4010,4011,0,0,0,0,0,0,0,0,0,0,0,0,4059,4060,4060,4013,4110,4111,4009,4064,4060,4060,4060,4060,4061,0,0,0,4009,4010,4010,4011,4009,4010,4010,4011,0,0,4009,4010,4064,4060,4060,
0,0,0,0,0,0,0,0,0,0,0,0,0,0,0,0,4060,0,0,0,0,4060,0,0,0,0,0,0,4059,4060,4060,4060,4060,4060,4060,4060,4061,0,0,0,0,0,0,0,0,0,0,0,0,4109,4110,4110,4111,0,0,4059,4060,4060,4013,4110,4110,4111,0,0,4009,4064,4060,4060,4063,4064,4060,4060,4061,4009,4010,4064,4060,4060,4060,4060,
0,0,0,0,0,0,0,0,0,0,0,0,0,0,0,0,4060,0,0,0,0,4060,0,0,0,0,0,0,4109,4014,4060,4060,4060,4060,4060,4060,4061,0,0,0,3995,3996,3996,3997,0,0,0,0,0,0,0,0,0,0,0,4109,4110,4110,4111,0,0,0,0,0,4059,4060,4060,4060,4060,4060,4060,4060,4063,4064,4060,4060,4060,4060,4060,4060,
0,0,0,0,0,0,0,0,0,0,0,0,0,0,0,0,0,0,0,0,0,0,0,0,0,0,0,0,0,4059,4060,4060,4060,4060,4060,4060,4061,0,0,0,4045,4046,4046,4049,3996,3997,0,0,0,0,0,0,0,0,0,0,0,0,0,0,0,0,0,0,4109,4014,4060,4060,4060,4060,4060,4060,4060,4060,4060,4060,4060,4060,4060,4060,
0,0,0,0,0,0,0,0,0,0,0,0,0,0,0,0,0,0,0,0,4060,0,0,0,0,0,0,0,0,4109,4110,4110,4110,4014,4060,4013,4111,0,0,0,4095,4000,4046,4046,4046,4047,0,0,0,0,0,0,0,0,0,0,0,0,0,0,0,0,0,0,0,4109,4014,4060,4060,4060,4060,4060,4060,4060,4060,4060,4060,4060,4060,4060,
0,0,0,0,0,0,0,0,0,0,0,0,0,0,0,0,0,0,0,0,4060,4013,4111,0,0,0,0,0,0,0,0,0,0,4109,4110,4111,0,0,0,0,0,4095,4096,4096,4096,4097,0,0,0,0,0,0,0,0,0,0,0,0,0,0,0,0,0,0,0,0,4059,4060,4060,4060,4060,4060,4060,4060,4060,4060,4060,4060,4060,4013,
0,0,0,0,0,0,0,0,0,0,0,0,0,0,0,0,0,0,0,0,0,0,0,0,0,0,0,0,0,0,0,0,0,0,0,0,0,0,0,0,0,0,0,0,0,0,3995,3996,3996,3996,3997,0,0,0,0,0,0,0,4002,4003,4003,4004,0,0,0,0,4059,4060,4060,4060,4060,4060,4060,4060,4060,4060,4013,4110,4110,4111,
0,0,0,0,0,0,0,0,0,0,0,0,0,0,0,0,0,0,0,0,0,0,0,0,0,0,0,4059,4060,4061,4004,0,0,0,0,0,0,0,0,0,0,0,0,0,0,3995,4050,4046,4046,4046,4047,0,0,0,0,0,0,0,4052,4053,4053,4056,4003,0,0,0,4059,4060,4060,4060,4060,4060,4060,4060,4060,4060,4061,0,0,0,
0,0,4009,4010,4010,4011,0,0,0,0,0,0,0,0,0,0,0,0,0,0,0,0,0,0,0,0,0,4059,4060,4061,4054,0,0,0,0,0,0,0,0,0,0,0,0,3995,3996,4050,4046,4046,4046,3999,4097,0,0,0,0,0,0,0,4102,4007,4243,4053,4053,0,0,0,4109,4110,4110,4110,4014,4060,4060,4060,4060,4013,4111,0,0,0,
4009,4010,4064,4060,4060,4063,4011,0,0,0,0,0,0,0,0,0,0,0,0,0,0,0,0,0,0,0,0,4109,4110,4111,4104,0,0,0,0,0,0,0,0,0,0,3995,3996,4050,4046,4046,4046,4046,4046,4047,0,0,0,0,0,0,0,0,0,4052,4053,4193,4053,0,0,0,0,0,0,0,4059,4060,4060,4060,4060,4061,0,0,0,0,
4059,4060,4060,4060,4060,4060,4063,4011,0,0,0,0,0,0,0,0,0,4002,4003,4004,0,0,0,0,0,0,0,0,0,0,0,0,0,0,0,0,0,0,0,0,0,4045,4046,4046,4046,4046,4046,3999,4096,4097,0,0,0,3995,3996,3997,0,0,0,4102,4007,4053,4053,0,0,0,0,0,0,0,4059,4060,4060,4060,4060,4061,0,0,0,0,
4064,4060,4060,4060,4060,4060,4060,4061,0,0,0,0,0,0,0,0,0,4052,4053,4054,0,0,0,0,0,0,0,0,0,0,0,0,0,0,0,0,0,0,0,0,0,0,0,0,0,0,0,0,0,0,0,0,0,4045,4046,4049,3997,0,0,0,4052,4242,4053,0,0,0,0,0,0,0,4059,4060,4060,4060,4013,4111,0,0,0,0,
4060,4060,4060,4060,4060,4060,4060,4063,4011,0,0,0,0,0,0,0,0,4102,4103,4104,0,0,0,0,0,0,0,0,0,0,0,0,0,0,0,0,0,0,0,0,0,0,0,0,0,0,0,0,0,0,0,0,0,4045,4046,4046,4049,3997,0,0,4052,4053,4006,0,0,0,0,0,0,0,4109,4110,4110,4110,4111,0,0,0,0,0,
4060,4060,4060,4060,4060,4060,4060,4060,4063,4011,0,0,0,0,0,0,0,0,0,0,0,0,0,0,0,0,0,0,0,0,0,0,0,0,0,0,0,0,0,0,0,0,0,0,0,0,0,0,0,0,0,0,0,0,4000,4046,4046,4047,0,4002,4057,4053,4056,0,0,0,0,0,0,0,0,0,0,0,0,0,0,0,0,0,
4060,4060,4060,4060,4060,4060,4060,4060,4060,4061,0,0,0,0,0,0,0,0,0,0,0,0,0,0,0,0,0,0,0,0,0,0,0,0,0,0,0,0,0,0,0,0,0,0,0,0,4002,4003,4003,4003,4003,4004,0,0,4050,4046,4046,4047,4002,4057,4053,4053,4053,0,0,0,0,0,0,0,0,0,4009,4010,4010,4011,0,0,0,4009,
4060,4060,4060,4060,4060,4060,4060,4060,4013,4111,0,0,0,0,0,0,0,0,4009,4010,4011,0,0,0,0,0,0,0,0,0,0,0,0,0,0,0,0,0,0,0,0,0,0,0,0,0,4102,4007,4242,4053,4053,4056,4003,4004,4046,4046,3999,4097,4052,4243,4053,4053,0,0,0,0,0,0,0,4009,4010,4010,4064,4060,4060,4061,0,4009,4010,4064,
4110,4014,4060,4060,4060,4013,4110,4110,4111,0,0,0,0,0,0,0,4009,4010,4064,4060,4063,4011,0,0,0,0,0,0,0,0,0,0,0,0,0,0,0,0,0,0,0,0,4009,4010,4011,0,0,4102,4007,4053,4053,4006,4103,4104,4096,4096,4097,4002,4057,4053,4053,4053,0,0,0,0,0,0,4009,4064,4060,4060,4060,4060,4060,4063,4010,4064,4060,4060,
4009,4064,4060,4013,4110,4111,0,0,0,0,0,0,0,4009,4010,4010,4064,4060,4060,4060,4060,4061,0,0,0,0,0,0,0,0,0,0,0,0,0,0,0,0,0,0,0,0,4059,4060,4063,4010,4010,4011,4102,4103,4103,4104,0,0,0,0,0,4052,4242,4053,4193,4053,0,0,0,0,0,4009,4064,4060,4060,4060,4060,4060,4060,4060,4060,4060,4060,4060,
4059,4060,4060,4061,0,0,0,0,0,0,0,0,0,4059,4060,4060,4060,4060,4060,4013,0,0,0,0,0,0,0,0,0,0,0,0,0,0,0,0,0,0,0,0,0,0,4059,4060,4060,4060,4060,4063,4010,4010,4011,0,0,0,0,0,0,4052,4053,4053,4053,4053,0,0,0,4009,4010,4064,4060,4060,4060,4060,4060,4060,4060,4060,4060,4060,4060,4060,
4109,4110,4110,4111,0,0,0,0,0,0,0,0,0,4059,4060,4060,4060,4060,4060,4061,0,0,4009,4010,4011,0,0,0,0,0,0,0,0,0,0,0,0,0,0,0,0,0,4109,4014,4060,4060,4060,4060,4060,4060,4061,0,0,4009,4010,4011,0,0,0,0,0,0,0,4009,4010,4064,4060,4060,4060,4060,4060,4060,4060,4060,4060,4060,4060,4060,4060,4060,
0,0,0,0,0,4009,4010,4010,4011,0,0,0,0,4059,4060,4060,4060,4060,4060,4061,0,0,4059,4060,4063,4010,4010,4011,0,4010,4010,4010,4011,0,0,0,0,0,0,0,0,0,0,4109,4014,4060,4013,4110,4110,4110,4111,0,4009,4064,4060,4061,0,0,0,0,0,0,0,4059,4060,4060,4060,4060,4060,4060,4060,4060,4060,4060,4060,4060,4060,4060,4060,4060,
0,0,0,4009,4010,4064,4060,4060,4061,0,0,0,0,4059,4060,4013,4110,4110,4110,0,0,0,4059,4060,4060,4060,4060,4061,0,4060,4060,4060,4063,4011,0,0,0,0,0,0,0,0,0,0,4109,4110,4111,0,0,0,0,0,4059,4060,4060,4061,0,0,0,0,0,0,0,4059,4060,4060,4060,4060,4060,4060,4060,4060,4060,4060,4060,4060,4060,4060,4060,4060,
0,0,4009,4064,4060,4060,4060,4060,4063,4010,4011,0,0,4109,4110,4111,0,0,0,0,0,0,4109,4110,4014,4060,4060,4061,0,4014,4060,4060,4060,4061,0,0,0,0,0,0,0,0,0,0,0,0,0,0,0,0,0,0,4059,4060,4013,4111,0,0,0,0,0,0,0,4109,4110,4014,4060,4060,4060,4060,4060,4060,4060,4060,4060,4060,4060,4060,4060,4060,
0,0,4059,4060,4060,4060,4060,4060,4060,4060,4061,0,0,0,0,0,0,0,0,0,0,0,4009,4010,4064,4013,4110,4111,0,4059,4060,4060,4060,4061,0,0,0,0,0,0,0,0,0,0,0,0,0,0,0,0,0,0,0,0,0,0,0,0,0,0,0,0,0,0,4009,4064,4060,4060,4060,4060,4060,4060,4060,4060,4060,4060,4060,4060,4060,4060,
0,0,4109,4110,4110,4110,4014,4060,4060,4060,4061,0,0,0,0,0,0,0,0,0,0,0,4059,4060,4060,4061,0,0,0,0,0,4110,4110,4111,0,0,0,0,0,0,0,0,0,0,0,0,0,0,0,0,0,0,4009,4010,4010,4011,0,0,0,0,0,0,0,0,4059,4060,4060,4060,4060,4060,4060,4060,4013,4110,4110,4110,4110,4014,4060,4060,
0,0,0,0,0,4009,4064,4060,4060,4013,4111,0,3997,0,0,0,0,0,0,0,0,0,4059,4060,4013,4111,0,0,0,0,0,0,0,4009,4010,4010,4011,0,0,0,0,0,0,0,0,0,0,0,0,0,0,4009,4064,4060,4060,4061,0,0,0,0,0,0,0,0,4059,4060,4060,4060,4060,4060,4060,4013,4111,0,0,0,0,4109,4014,4060,
0,0,0,4009,4010,4064,4060,4060,4060,4061,0,0,4049,3997,0,0,0,0,0,0,0,0,4109,4110,4111,0,0,0,0,0,0,0,0,4059,4060,4060,4063,4010,4010,4011,0,0,0,0,0,0,0,0,0,4009,4010,4064,4060,4060,4060,4063,4011,0,0,0,0,0,0,0,4109,4110,4110,4014,4060,4060,4060,4061,0,0,0,0,0,0,4109,4110,
0,0,0,4059,4060,4060,4060,4060,4060,4061,0,0,4046,4047,0,0,0,0,0,0,0,0,0,0,0,0,4009,4010,4011,0,0,0,0,4109,4014,4060,4060,4060,4060,4061,0,0,0,0,0,0,0,0,4009,4064,4060,4060,4060,4060,4060,4060,4063,4011,0,0,0,0,0,0,0,0,0,4109,4110,4110,4110,4111,0,0,0,0,0,0,0,0,
0,0,4009,4064,4060,4060,4060,4060,4060,4061,0,0,4046,4049,3996,3996,3996,3996,0,0,0,0,0,0,4009,4010,4064,4060,4063,4011,0,0,0,0,4059,4060,4060,4060,4060,4063,4011,0,0,0,0,0,0,0,4059,4060,4060,4060,4060,4060,4060,4060,4060,4063,4010,4010,4011,0,0,0,0,0,0,0,0,0,0,0,0,0,0,0,0,0,0,0,
0,0,4059,4060,4060,4060,4060,4060,4060,4061,0,0,4046,4046,4046,4046,4046,4046,0,0,0,0,0,0,4059,4060,4060,4060,4060,4061,0,0,0,0,4109,4110,4014,4060,4060,4060,4061,0,0,0,0,0,0,0,4059,4060,4060,4060,4060,4060,4060,4060,4060,4060,4060,4060,4063,4011,0,0,0,0,0,0,0,0,0,0,0,0,0,0,0,0,0,0
</data>
 </layer>
 <layer id="21" name="Terrain" width="80" height="50">
  <data encoding="csv">
0,0,0,0,0,0,0,0,0,0,0,0,0,0,0,0,0,0,0,0,0,0,0,0,0,0,0,0,0,1418,819,819,819,819,819,1420,0,0,0,0,0,0,0,0,0,0,0,0,0,0,0,0,0,0,0,0,0,0,0,0,0,0,0,0,0,0,0,0,0,0,0,0,0,0,0,0,0,0,0,0,
0,0,0,0,0,0,0,0,0,0,0,0,0,0,0,0,0,0,0,0,0,0,0,0,0,0,0,0,0,1418,819,819,819,819,819,1420,0,0,0,0,0,0,0,0,0,0,0,0,0,0,0,0,0,0,0,0,0,0,0,0,0,0,0,0,0,0,0,0,0,0,0,0,0,0,0,0,0,0,0,0,
0,0,0,0,0,0,0,0,0,0,0,0,0,0,0,0,0,0,0,0,0,0,0,0,0,0,0,0,0,1418,819,819,819,819,819,1420,0,0,0,0,0,0,0,0,0,0,0,0,0,0,0,0,0,0,0,0,0,0,0,0,0,0,0,0,0,0,0,0,0,0,0,0,0,0,0,0,0,0,0,0,
0,0,0,0,0,0,0,0,0,0,0,0,0,0,0,0,0,0,0,0,0,0,0,0,0,0,0,0,0,1418,819,819,819,819,819,1420,0,0,0,0,0,0,0,0,0,0,0,0,0,0,0,0,0,0,0,0,0,0,0,0,0,0,0,0,0,0,0,0,0,0,0,0,0,0,0,0,0,0,0,0,
0,0,0,0,0,0,0,0,0,0,0,0,0,0,0,0,0,0,0,0,0,0,0,0,0,0,0,0,0,1418,819,819,819,819,819,1420,0,0,0,0,0,0,0,0,0,0,0,0,0,0,0,0,0,0,0,0,0,0,0,0,0,0,0,0,0,0,0,0,0,0,0,0,0,0,0,0,0,0,0,0,
0,0,0,0,0,0,0,0,0,0,0,0,0,0,0,0,0,0,0,0,0,0,0,0,0,0,0,0,0,1418,819,819,819,819,819,1420,0,0,0,0,0,0,0,0,0,0,0,0,0,0,0,0,0,0,0,0,0,0,0,0,0,0,0,0,0,0,0,0,0,0,0,0,0,0,0,0,0,0,0,0,
0,0,0,0,0,0,0,0,0,0,0,0,0,0,0,0,0,0,0,0,0,0,0,0,0,0,0,0,0,1418,819,819,819,819,819,1420,0,0,0,0,0,0,0,0,0,0,0,0,0,0,0,0,0,0,0,0,0,0,0,0,0,0,0,0,0,0,0,0,0,0,0,0,0,0,0,0,0,0,0,0,
0,0,0,0,0,0,0,0,0,0,0,0,0,0,0,0,0,0,0,0,0,0,0,0,0,0,0,0,0,1418,819,819,819,819,819,1420,0,0,0,0,0,0,0,0,0,0,0,0,0,0,0,0,0,0,0,0,0,0,0,0,0,0,0,0,0,0,0,0,0,0,0,0,0,0,0,0,0,0,0,0,
0,0,0,0,0,0,0,0,0,0,0,0,0,0,0,0,0,0,0,0,0,0,0,0,0,0,0,0,0,1458,1540,819,819,819,1538,1460,0,0,0,0,0,0,0,0,0,0,0,0,0,0,0,0,0,0,0,0,0,0,0,0,0,0,0,0,0,0,0,0,0,0,0,0,0,0,0,0,0,0,0,0,
0,0,0,0,0,0,0,0,0,0,0,0,0,0,0,0,0,0,0,0,0,0,0,0,0,0,0,0,0,0,843,843,843,843,843,0,0,0,0,0,0,0,0,0,0,0,0,0,0,0,0,0,0,0,0,0,0,0,0,0,0,0,0,0,0,0,0,0,0,0,0,0,0,0,0,0,0,0,0,0,
0,0,0,0,0,0,0,0,0,0,0,0,0,0,0,0,0,0,0,0,0,0,0,0,0,0,0,0,0,0,843,843,843,843,843,0,0,0,0,3157,0,0,0,0,0,0,0,0,0,0,0,0,0,0,0,0,0,0,0,0,0,0,0,0,0,0,0,0,0,0,0,0,0,0,0,0,0,0,0,0,
0,0,0,0,0,0,0,0,0,0,0,0,0,0,0,0,0,0,0,0,0,0,0,0,1126,819,819,819,819,819,883,883,883,883,883,819,819,819,819,1126,0,0,0,0,0,0,0,0,0,0,0,0,0,0,0,0,0,0,0,0,0,0,0,0,0,0,0,0,0,0,0,0,0,0,0,0,0,0,0,0,
0,0,0,0,0,0,0,0,0,0,0,0,0,0,0,0,0,0,0,0,0,0,0,0,819,819,819,819,819,819,819,819,819,819,819,819,819,819,819,819,0,0,0,0,0,0,0,0,0,0,0,0,0,0,0,0,0,0,0,0,0,0,0,0,0,0,0,0,0,0,0,0,0,0,0,0,0,0,0,0,
0,0,0,0,0,0,0,0,0,0,0,0,0,0,0,0,0,0,819,1126,819,819,819,819,819,819,819,819,819,819,819,819,819,819,819,819,819,819,819,819,0,0,0,0,0,0,0,0,0,0,0,0,0,0,0,0,0,0,0,0,0,0,0,0,0,0,0,0,0,0,0,0,0,0,0,0,0,0,0,0,
0,0,0,0,0,0,0,0,0,0,0,0,0,0,0,0,0,819,819,819,819,819,819,819,819,819,819,819,819,819,819,819,819,819,819,819,819,819,819,819,0,0,0,0,0,0,0,0,0,0,0,0,0,0,0,0,0,0,0,0,0,0,0,0,0,0,0,0,0,0,0,0,0,0,0,0,0,0,0,0,
0,0,0,0,0,0,0,0,0,0,0,0,0,0,0,0,0,819,819,819,819,819,819,819,819,819,819,819,819,819,819,819,819,819,819,819,819,819,819,819,0,0,0,0,0,0,0,0,0,0,0,0,0,0,0,0,0,0,0,0,0,0,0,0,0,0,0,0,0,0,0,0,0,0,0,0,0,0,0,0,
0,0,0,0,0,0,0,0,0,0,0,0,0,0,0,0,0,819,819,819,819,819,819,819,819,819,819,819,819,819,819,819,819,819,819,819,819,819,819,0,0,0,0,0,0,0,0,0,0,0,0,0,0,0,0,0,0,0,0,0,0,0,0,0,0,0,0,0,0,0,0,0,0,0,0,0,0,0,0,0,
0,0,0,0,0,0,0,0,0,0,0,0,0,0,0,0,0,819,819,819,819,819,819,819,819,819,819,1540,819,819,819,819,819,819,819,819,819,1538,1459,0,0,0,0,0,0,0,0,0,0,0,0,0,0,0,0,0,0,0,0,0,0,0,0,0,0,0,0,0,0,0,0,0,0,0,0,0,0,0,0,0,
0,0,0,0,0,0,0,0,0,0,0,0,0,0,0,0,0,0,1419,1419,1419,1419,0,0,0,0,0,1458,1459,1459,1459,1459,1459,1459,1459,1459,1459,1460,0,0,0,0,0,0,0,0,0,0,0,0,0,0,0,0,0,0,0,0,0,0,0,0,0,0,0,0,0,0,0,0,0,0,0,0,0,0,0,0,0,0,
0,0,0,0,0,0,0,0,0,0,0,0,0,0,0,0,0,1419,1419,1419,1419,1419,0,0,0,0,0,0,0,0,0,0,0,0,0,0,0,0,0,0,0,0,0,0,0,0,0,0,0,0,0,0,0,0,0,0,0,0,0,0,0,0,0,0,0,0,0,0,0,0,0,0,0,0,0,0,0,0,0,0,
0,0,0,0,0,0,0,0,0,0,0,0,0,0,0,0,0,1419,1419,1419,1419,1419,0,0,0,0,0,0,0,0,0,0,0,0,0,0,0,0,0,0,0,0,0,0,0,0,0,0,0,0,0,0,0,0,0,0,0,0,0,0,0,0,0,0,0,0,0,0,0,0,0,0,0,0,0,0,0,0,0,0,
1419,1419,1419,1419,1419,1419,0,0,0,0,0,0,0,0,0,0,0,1419,1419,1419,1419,0,0,0,0,0,0,0,0,0,0,0,0,0,0,0,0,0,0,0,3157,0,0,0,0,0,0,0,0,0,0,0,0,0,0,0,0,0,0,0,0,0,0,0,0,0,0,0,0,0,0,0,0,0,0,0,0,0,0,0,
1419,1419,1419,1419,1419,1419,0,0,0,0,0,0,0,0,0,1419,1419,1419,1419,1419,1419,0,0,0,0,0,0,0,0,0,0,0,0,0,0,0,0,0,0,0,3207,0,0,0,0,3157,0,0,0,0,0,0,0,0,0,0,0,0,0,0,0,0,0,0,0,0,0,0,0,0,0,0,0,0,0,0,0,0,0,0,
1419,1419,1419,1419,1419,1419,1419,1419,1419,1419,1419,1419,1419,1419,1419,1419,1419,1419,1419,1419,1419,0,0,0,0,0,0,0,0,0,0,0,0,0,0,0,0,0,0,0,0,0,0,0,0,3207,0,0,0,0,0,0,0,0,0,0,0,0,0,0,0,0,0,0,0,0,0,0,0,0,0,0,0,0,0,0,0,0,0,0,
1419,1419,1419,1419,1419,1419,1419,1419,1419,1419,1419,1419,1419,1419,1419,1419,1419,1419,1419,1419,1419,0,0,0,0,0,0,0,0,0,0,0,0,0,0,0,0,0,0,0,4109,4014,0,0,0,0,0,0,0,0,0,0,0,0,0,0,0,0,0,0,0,0,0,0,0,0,0,0,0,0,0,0,0,0,0,0,0,0,0,0,
1419,1419,1419,1419,1419,1419,1419,1419,1419,1419,1419,1419,1419,1419,1419,1419,1419,1419,1419,1419,1419,1419,1419,1419,1419,0,0,0,0,0,0,0,0,0,0,0,0,0,0,0,0,4109,4110,4110,4110,0,0,0,0,0,0,0,0,0,0,0,0,3157,0,0,0,0,0,0,0,0,0,0,0,0,0,0,0,0,0,0,0,0,0,0,
1419,1419,1419,1419,1419,1419,1419,1419,1419,1419,1419,1419,1419,1419,1419,1419,1419,1419,1419,1419,1419,1419,1419,1419,1419,0,0,0,0,0,0,0,0,0,0,0,0,0,0,0,0,0,0,0,0,0,0,0,0,0,0,0,0,0,0,0,0,3207,0,0,0,0,3157,0,0,0,0,0,0,0,0,0,0,0,0,0,0,0,0,0,
0,0,0,0,0,0,0,1419,1419,1419,1419,1419,1419,1419,1419,1419,1419,1419,1419,1419,1419,1419,1419,1419,1419,1419,1420,0,0,0,0,0,0,0,1379,1380,0,0,0,0,0,0,0,0,0,4009,4064,0,0,0,4061,0,0,0,0,0,0,0,0,0,0,0,3207,0,0,0,0,0,0,0,0,0,0,0,0,0,0,0,0,0,
0,0,0,0,0,0,0,0,0,0,0,0,0,0,0,1419,1419,1419,1419,1419,1419,1419,1419,1419,1419,1419,1420,0,0,0,0,0,0,819,819,1618,1379,1379,1379,1379,1380,0,0,4009,4010,4064,0,0,0,4013,4111,0,0,0,0,0,0,0,0,0,0,0,0,0,0,0,0,0,0,0,0,0,0,0,0,0,0,0,0,0,
0,0,0,0,0,0,0,0,0,0,0,0,0,0,0,1539,1539,1539,1539,1539,1539,1540,819,1419,1419,1419,1420,0,0,0,0,0,0,819,819,819,819,819,819,819,1420,4009,4010,4064,0,0,0,0,0,4061,0,0,0,0,0,0,0,0,0,0,0,0,0,0,0,0,0,0,0,0,0,0,0,0,0,0,0,0,0,0,
0,0,0,0,0,0,0,0,0,0,0,0,0,0,0,0,0,0,0,0,0,1418,819,819,1419,1419,1420,0,0,0,0,0,0,819,819,819,819,819,819,819,1420,0,0,0,0,0,0,0,0,0,0,0,0,0,4010,4011,0,0,0,0,0,0,0,0,0,0,0,0,0,0,0,0,0,0,0,0,0,0,0,0,
0,0,0,0,0,0,0,0,0,0,0,0,0,0,0,0,0,0,0,0,0,1418,819,819,819,819,1618,1379,1619,1619,1619,819,819,819,819,819,819,819,819,819,819,0,0,0,0,0,0,0,0,0,0,0,0,0,0,4063,4011,0,0,0,0,0,0,0,0,0,0,0,0,0,0,0,0,0,0,0,0,0,0,0,
0,0,0,0,0,0,0,0,0,0,0,0,0,0,0,0,0,0,0,0,0,1418,819,819,819,819,819,819,819,819,819,819,819,819,819,819,819,819,819,819,819,0,0,0,0,0,0,0,0,0,0,0,0,0,0,0,4063,4011,0,0,0,0,0,0,0,0,0,0,0,0,0,0,0,0,0,0,0,0,0,0,
0,0,0,0,0,0,0,0,0,0,0,0,0,0,0,0,0,0,0,0,0,1458,1539,1540,819,819,819,819,819,819,819,819,819,819,819,819,819,819,819,819,1420,0,0,0,0,0,0,0,0,0,0,0,0,0,0,0,0,4061,0,0,0,0,0,0,0,0,0,0,0,0,0,0,0,0,0,0,0,0,0,0,
0,0,0,0,0,0,0,0,0,0,0,0,0,0,0,0,0,0,0,0,0,0,0,1458,1459,1459,1459,1459,1540,1419,1419,819,819,819,819,819,819,819,819,819,1420,0,0,0,0,0,0,0,0,0,0,0,0,0,0,0,0,4061,0,0,0,0,0,0,0,0,0,0,0,0,0,0,0,0,0,0,0,0,0,0,
0,0,0,0,0,0,0,0,0,0,0,0,0,0,0,0,0,0,0,0,0,0,0,0,0,0,0,0,1458,1459,1540,1419,1419,1419,1419,1419,1419,1419,819,819,1420,0,0,0,0,0,0,0,0,0,0,0,0,0,0,0,4013,4111,0,0,0,0,0,0,0,0,0,0,0,0,0,0,0,0,0,0,0,0,0,0,
0,0,0,0,0,0,0,0,0,0,0,0,0,0,0,0,0,0,0,0,0,0,0,0,0,0,0,0,0,0,1458,1459,1459,1540,1419,1419,1419,1419,1419,1419,1420,0,0,0,0,0,0,0,0,0,0,0,0,4109,4110,4110,4111,0,0,0,0,0,0,0,0,0,0,0,0,0,0,0,0,0,0,0,0,0,0,0,
0,0,0,0,0,0,0,0,0,0,0,0,0,0,0,0,0,0,0,0,4096,4000,4046,0,0,4095,0,0,0,0,0,0,0,1458,1540,1419,1419,1419,1419,1419,1420,0,0,0,0,0,0,0,0,0,0,0,0,0,0,0,0,0,0,0,0,0,0,0,0,0,0,0,0,0,0,0,0,0,0,0,0,0,0,0,
0,0,0,0,0,0,0,0,0,0,0,0,0,0,0,0,0,0,0,0,0,0,0,0,0,0,0,0,0,0,0,0,0,0,1418,1419,1419,1419,1419,1419,1618,1380,0,0,0,0,0,0,0,0,0,0,0,0,0,0,0,0,0,0,0,0,0,0,0,0,0,0,0,0,0,0,0,0,0,0,0,0,0,0,
0,0,0,0,0,0,0,0,0,0,0,0,0,0,0,0,0,0,0,0,0,0,0,0,0,0,0,0,0,0,0,0,0,0,1458,1539,1539,1540,1419,1419,1419,1420,0,0,0,0,0,0,0,0,0,0,0,0,0,0,0,0,0,0,0,0,0,0,0,0,0,0,0,0,0,0,0,0,0,0,0,0,0,0,
0,0,0,0,0,0,0,0,0,0,0,0,0,0,0,0,0,0,0,0,0,0,0,0,0,0,0,0,0,0,0,0,0,0,0,0,0,1580,1419,1419,1419,1420,0,0,0,0,0,0,0,0,0,0,0,0,0,0,0,0,0,0,0,0,0,0,0,0,0,0,0,0,0,0,0,0,0,0,0,0,0,0,
0,0,0,0,0,0,0,0,0,0,0,0,0,4014,0,0,0,0,0,0,0,0,0,0,0,0,0,0,0,0,0,0,0,0,0,0,0,1580,1419,1419,1419,1420,0,0,0,0,0,0,0,0,0,0,0,0,0,0,0,0,0,0,0,0,0,0,0,0,0,0,0,0,0,0,0,0,0,0,0,0,0,0,
0,0,0,0,0,0,0,0,0,0,0,0,0,0,0,0,0,0,0,0,0,0,0,0,0,0,0,0,0,0,0,0,0,0,0,0,0,1580,1419,1419,1419,1618,1619,1380,0,0,0,0,0,0,0,0,0,0,0,0,0,0,0,0,0,0,0,0,0,0,0,0,0,0,0,0,0,0,0,0,0,0,0,0,
0,0,0,0,0,0,0,0,0,0,0,0,0,0,0,0,0,0,0,0,0,0,0,0,0,0,0,0,0,0,0,0,0,0,0,0,0,1580,1419,1419,1419,1419,1419,1618,1380,0,0,0,0,0,0,0,0,0,0,0,0,0,0,0,0,0,0,0,0,0,0,0,0,0,0,0,0,0,0,0,0,0,0,0,
0,0,0,0,0,0,0,0,0,0,0,0,0,0,0,0,0,0,0,0,0,0,0,0,0,0,0,0,0,0,0,0,0,0,0,0,0,0,1419,1419,1419,1419,1419,1419,1618,1619,1619,0,0,0,0,0,0,0,0,0,0,0,0,0,0,0,0,0,0,0,0,0,0,0,0,0,0,0,0,0,0,0,0,0,
0,0,0,0,0,0,0,0,0,0,0,4063,4011,0,0,0,0,0,0,0,0,0,0,0,0,0,0,0,0,0,0,0,0,0,0,0,0,0,0,0,1419,1419,1419,1419,1419,1419,1419,0,0,0,0,0,0,0,0,0,0,0,0,0,0,0,0,0,0,0,0,0,0,0,0,0,0,0,0,0,0,0,0,0,
0,0,0,0,0,0,0,0,0,0,0,0,4063,4011,0,0,0,0,0,0,0,0,0,0,0,0,0,0,0,0,0,0,0,0,0,0,0,0,0,0,0,0,1419,1419,1419,1419,1419,0,0,0,0,0,0,0,0,0,0,0,0,0,0,0,0,0,0,0,0,0,0,0,0,0,0,0,0,0,0,0,0,0,
0,0,0,0,0,0,0,0,0,0,0,0,0,4061,0,0,0,0,0,0,0,0,0,0,0,0,0,0,0,0,0,0,0,0,0,0,0,0,0,0,0,0,1419,1419,1419,1419,1419,0,0,0,0,0,0,0,0,0,0,0,0,0,0,0,0,0,0,0,0,0,0,0,0,0,0,0,0,0,0,0,0,0,
0,0,0,0,0,0,0,0,0,0,0,0,0,4063,4010,4010,4010,4010,0,0,0,0,0,0,0,0,0,0,0,0,0,0,0,0,0,0,0,0,0,0,0,0,1419,1419,1419,1419,1419,0,0,0,0,0,0,0,0,0,0,0,0,0,0,0,0,0,0,0,0,0,0,0,0,0,0,0,0,0,0,0,0,0,
0,0,0,0,0,0,0,0,0,0,0,0,0,0,0,0,0,0,0,0,0,0,0,0,0,0,0,0,0,0,0,0,0,0,0,0,0,0,0,0,0,1419,1419,1419,1419,1419,1419,0,0,0,0,0,0,0,0,0,0,0,0,0,0,0,0,0,0,0,0,0,0,0,0,0,0,0,0,0,0,0,0,0
</data>
 </layer>
 <layer id="15" name="Environment" width="80" height="50">
  <data encoding="csv">
0,0,0,0,0,0,0,0,0,0,0,0,0,0,0,0,0,0,0,0,0,0,0,0,0,0,0,0,0,0,0,0,0,0,0,0,0,0,0,0,0,0,0,0,0,0,0,0,0,0,0,0,0,0,0,0,0,0,0,0,0,0,0,0,0,0,0,0,0,0,0,0,0,0,0,0,0,0,0,0,
0,0,0,0,0,0,0,0,0,0,0,0,0,0,0,0,0,0,0,0,0,0,0,0,0,0,0,0,0,0,0,0,0,0,0,0,0,0,0,0,0,0,0,0,0,0,0,0,0,0,0,0,0,0,0,0,0,0,0,0,0,0,0,0,0,0,0,0,0,0,0,0,0,0,0,0,0,0,0,0,
0,0,0,0,0,0,0,0,0,0,0,0,0,0,0,0,0,0,0,0,0,0,0,0,0,0,0,0,0,0,0,0,0,0,0,0,0,0,0,0,0,0,0,0,0,0,0,0,0,0,0,0,0,0,0,0,0,0,0,0,0,0,0,0,0,0,0,0,0,0,0,0,0,0,0,0,0,0,0,0,
0,0,0,0,0,0,0,0,0,0,0,0,0,0,0,0,0,0,0,0,0,0,0,0,0,0,0,0,0,0,0,0,0,0,0,0,0,0,0,0,0,0,0,0,0,0,0,0,0,0,0,0,0,0,0,0,0,0,0,0,0,0,0,0,0,0,0,0,0,0,0,0,0,0,0,0,0,0,0,0,
0,0,0,0,0,0,0,0,0,0,0,0,0,0,0,0,0,0,0,0,0,0,0,0,0,0,0,0,0,0,0,0,0,0,0,0,0,0,0,0,0,0,0,0,0,0,0,0,0,0,0,0,0,0,0,0,0,0,0,0,0,0,0,0,0,0,0,0,0,0,0,0,0,0,0,0,0,0,0,0,
0,0,0,0,0,0,0,0,0,0,0,0,0,0,0,0,0,0,0,0,0,0,0,0,0,0,0,0,0,0,0,0,0,0,0,0,0,0,0,0,0,0,0,0,0,0,0,0,0,0,0,0,0,0,0,0,0,0,0,0,0,0,0,0,0,0,0,0,0,0,0,0,0,0,0,0,0,0,0,0,
0,0,0,0,0,0,0,0,0,0,0,0,0,0,0,0,0,0,0,0,0,0,0,0,0,0,0,0,0,0,0,0,0,0,0,0,0,0,0,0,0,0,0,0,0,0,0,0,0,0,0,0,0,0,0,0,0,0,0,0,0,0,0,0,0,0,0,0,0,0,0,0,0,0,0,0,0,0,0,0,
0,0,0,0,0,0,0,0,0,0,0,0,0,0,0,0,0,0,0,0,0,0,0,0,0,0,0,0,0,0,0,0,0,0,0,0,0,0,0,0,0,0,0,0,0,0,0,0,0,0,0,0,0,0,0,0,0,0,0,0,0,0,0,0,0,0,0,0,0,0,0,0,0,0,0,0,0,0,0,0,
0,0,0,0,0,0,0,0,0,0,0,0,0,0,0,0,0,0,0,0,0,0,2989,2989,2989,2989,2989,2989,2989,2989,0,0,0,0,0,2989,2989,2989,2989,2989,2989,2989,2989,0,0,2989,0,2989,2989,2989,2989,2989,2989,2989,2989,2989,2989,2989,2989,2989,2989,2989,2989,2989,2989,2989,2989,2989,2989,0,0,2989,2989,2989,2989,2989,0,0,0,0,
0,0,0,0,0,0,0,0,0,0,0,0,0,0,0,0,0,0,0,0,0,0,0,0,81,81,81,81,81,81,0,0,0,0,0,0,0,0,0,0,0,0,0,0,0,0,0,0,0,0,0,0,0,0,0,0,0,0,0,0,0,0,0,0,0,0,0,0,0,0,0,0,0,0,0,0,0,0,0,0,
0,0,0,0,0,0,0,0,0,0,0,0,0,0,0,0,0,0,0,2989,2989,0,0,0,104,104,104,104,104,104,0,0,0,0,0,0,0,0,0,0,0,0,0,0,0,0,0,0,0,0,0,0,0,0,0,0,0,0,0,0,0,0,0,0,0,0,0,0,0,0,0,0,0,0,0,0,0,0,0,0,
0,0,0,0,0,0,0,0,0,0,0,0,0,0,0,0,0,0,0,81,81,0,0,0,0,0,0,0,0,0,0,0,0,0,0,0,0,0,0,0,0,0,0,0,0,0,0,0,0,0,0,0,0,0,0,0,0,0,0,0,0,0,0,0,0,0,0,0,0,0,0,0,0,0,0,0,0,0,0,0,
0,0,0,0,0,0,0,0,0,0,0,0,0,0,0,0,0,0,0,104,104,0,0,0,0,0,0,0,0,0,0,0,0,0,0,0,0,0,0,0,0,0,0,0,0,0,0,0,0,0,0,0,0,0,0,0,0,0,0,0,0,0,0,0,0,0,0,0,0,0,0,0,0,0,0,0,0,0,0,0,
0,0,0,0,0,0,0,0,0,0,0,0,0,0,0,0,0,0,0,0,0,0,0,0,0,0,0,0,0,0,0,0,0,0,0,0,0,0,0,0,0,0,0,0,0,0,0,0,0,0,0,0,0,0,0,0,0,0,0,0,0,0,0,0,0,0,0,0,0,0,0,0,0,0,0,0,0,0,0,0,
0,0,0,0,0,0,0,0,0,0,0,0,0,0,0,0,0,0,0,0,0,0,0,0,0,0,0,0,0,0,0,0,0,0,0,0,0,0,0,0,0,0,0,0,0,0,0,0,0,0,0,0,0,0,0,0,0,0,0,0,0,0,0,0,0,0,0,0,0,0,0,0,0,0,0,0,0,0,0,0,
0,0,0,0,0,0,0,0,0,0,0,0,0,0,0,0,0,0,0,0,0,0,0,0,0,0,0,0,0,0,0,0,0,0,0,0,0,0,0,0,0,0,0,0,0,0,0,0,0,0,0,0,0,0,0,0,0,0,0,0,0,0,0,0,0,0,0,0,0,0,0,0,0,0,0,0,0,0,0,0,
0,0,0,0,0,0,0,0,0,0,0,0,0,0,0,0,0,0,0,0,0,0,0,0,0,0,0,0,0,0,0,0,0,0,0,0,0,0,0,0,0,0,0,0,0,0,0,0,0,0,0,0,0,0,0,0,0,0,0,0,0,0,0,0,0,0,0,0,0,0,0,0,0,0,0,0,0,0,0,0,
0,0,0,0,0,0,0,0,0,0,0,0,0,0,0,0,0,0,0,0,0,0,0,0,0,0,0,0,0,0,0,0,0,0,0,0,0,0,0,0,0,0,0,0,0,0,0,0,0,0,0,0,0,0,0,0,0,0,0,0,0,0,0,0,0,0,0,0,0,0,0,0,0,0,0,0,0,0,0,0,
0,0,0,0,0,0,0,0,0,0,0,0,0,0,0,0,0,0,0,0,0,0,0,0,0,0,0,0,0,0,0,0,0,0,0,0,0,0,0,0,0,0,0,0,0,0,0,0,0,0,0,0,0,0,0,0,0,0,0,0,0,0,0,0,0,0,0,0,0,0,0,0,0,0,0,0,0,0,0,0,
0,0,0,0,0,0,0,0,0,0,0,0,0,0,0,0,0,0,0,0,0,0,0,0,0,0,0,0,0,0,0,0,0,0,0,0,0,0,0,0,0,0,0,0,0,0,0,0,0,0,0,0,0,0,0,0,0,0,0,0,0,0,0,0,0,0,0,0,0,0,0,0,0,0,0,0,0,0,0,0,
0,0,0,0,0,0,0,0,0,0,0,0,0,0,0,0,0,0,0,0,0,0,0,0,0,0,0,0,0,0,0,0,0,0,0,0,0,0,0,0,0,0,0,0,0,0,0,0,0,0,0,0,0,0,0,0,0,0,0,0,0,0,0,0,0,0,0,0,0,0,0,0,0,0,0,0,0,0,0,0,
0,0,0,0,0,0,0,0,0,0,0,0,0,0,0,0,0,0,0,0,0,0,0,0,0,0,0,0,0,0,0,0,0,0,0,0,0,0,0,0,0,0,0,0,0,0,0,0,0,0,0,0,0,0,0,0,0,0,0,0,0,0,0,0,0,0,0,0,0,0,0,0,0,0,0,0,0,0,0,0,
0,0,0,0,0,0,0,0,0,0,0,0,0,0,0,0,0,0,0,0,0,0,0,0,0,0,0,0,0,0,0,0,0,0,0,0,0,0,0,0,0,0,0,0,0,0,0,0,0,0,0,0,0,0,0,0,0,0,0,0,0,0,0,0,0,0,0,0,0,0,0,0,0,0,0,0,0,0,0,0,
0,0,0,0,0,0,0,0,0,0,0,0,0,0,0,0,0,0,0,0,0,0,0,0,0,0,0,0,0,0,0,0,0,0,0,0,0,0,0,0,0,0,0,0,0,0,0,0,0,0,0,0,0,0,0,0,0,0,0,0,0,0,0,0,0,0,0,0,0,0,0,0,0,0,0,0,0,0,0,0,
0,0,0,0,0,0,0,0,0,0,0,0,0,0,0,0,0,0,0,0,0,0,0,0,0,0,0,0,0,0,0,0,0,0,0,0,0,0,0,0,0,0,0,0,0,0,0,0,0,0,0,0,0,0,0,0,0,0,0,0,0,0,0,0,0,0,0,0,0,0,0,0,0,0,0,0,0,0,0,0,
0,0,0,0,0,0,0,0,0,0,0,0,0,0,0,0,0,0,0,0,0,0,0,0,0,0,0,0,0,0,0,0,0,0,0,0,0,0,0,0,0,0,0,0,0,0,0,0,0,0,0,0,0,0,0,0,0,0,0,0,0,0,0,0,0,0,0,0,0,0,0,0,0,0,0,0,0,0,0,0,
0,0,0,0,0,0,0,0,0,0,0,0,0,0,0,0,0,0,0,0,0,0,0,0,0,0,0,0,0,0,0,0,0,0,0,0,0,0,0,0,0,0,0,0,0,0,0,0,0,0,0,0,0,0,0,0,0,0,0,0,0,0,0,0,0,0,0,0,0,0,0,0,0,0,0,0,0,0,0,0,
0,0,0,0,0,0,0,0,0,0,0,0,0,0,0,0,0,0,0,0,0,0,0,0,0,0,0,0,0,0,0,0,0,0,0,0,0,0,0,0,0,0,0,0,0,0,0,0,0,0,0,0,0,0,0,0,0,0,0,0,0,0,0,0,0,0,0,0,0,0,0,0,0,0,0,0,0,0,0,0,
0,0,0,0,0,0,0,0,0,0,0,0,0,0,0,0,0,0,0,0,0,0,0,0,0,0,0,0,0,0,0,0,0,0,0,0,0,0,0,0,0,0,0,0,0,0,0,0,0,0,0,0,0,0,0,0,0,0,0,0,0,0,0,0,0,0,0,0,0,0,0,0,0,0,0,0,0,0,0,0,
0,0,0,0,0,0,0,0,0,0,0,0,0,0,0,0,0,0,0,0,0,0,0,0,0,0,0,0,0,0,0,0,0,0,0,0,0,0,0,0,0,0,0,0,0,0,0,0,0,0,0,0,0,0,0,0,0,0,0,0,0,0,0,0,0,0,0,0,0,0,0,0,0,0,0,0,0,0,0,0,
0,0,0,0,0,0,0,0,0,0,0,0,0,0,0,0,0,0,0,0,0,0,0,0,0,0,0,0,0,0,0,0,0,0,0,0,0,0,0,0,0,0,0,0,0,0,0,0,0,0,0,0,0,0,0,0,0,0,0,0,0,0,0,0,0,0,0,0,0,0,0,0,0,0,0,0,0,0,0,0,
0,0,0,0,0,0,0,0,0,0,0,0,0,0,0,0,0,0,0,0,0,0,0,0,0,0,0,0,0,0,0,0,0,0,0,0,0,0,0,0,0,0,0,0,0,0,0,0,0,0,0,0,0,0,0,0,0,0,0,0,0,0,0,0,0,0,0,0,0,0,0,0,0,0,0,0,0,0,0,0,
0,0,0,0,0,0,0,0,0,0,0,0,0,0,0,0,0,0,0,0,0,0,0,0,0,0,0,0,0,0,0,0,0,0,0,0,0,0,0,0,0,0,0,0,0,0,0,0,0,0,0,0,0,0,0,0,0,0,0,0,0,0,0,0,0,0,0,0,0,0,0,0,0,0,0,0,0,0,0,0,
0,0,0,0,0,0,0,0,0,0,0,0,0,0,0,0,0,0,0,0,0,0,0,0,0,0,0,0,0,0,0,0,0,0,0,0,0,0,0,0,0,0,0,0,0,0,0,0,0,0,0,0,0,0,0,0,0,0,0,0,0,0,0,0,0,0,0,0,0,0,0,0,0,0,0,0,0,0,0,0,
0,0,0,0,0,0,0,0,0,0,0,0,0,0,0,0,0,0,0,0,0,0,0,0,0,0,0,0,0,0,0,0,0,0,0,0,0,0,0,0,0,0,0,0,0,0,0,0,0,0,0,0,0,0,0,0,0,0,0,0,0,0,0,0,0,0,0,0,0,0,0,0,0,0,0,0,0,0,0,0,
0,0,0,0,0,0,0,0,0,0,0,0,0,0,0,0,0,0,0,0,0,0,0,0,0,0,0,0,0,0,0,0,0,0,0,0,0,0,0,0,0,0,0,0,0,0,0,0,0,0,0,0,0,0,0,0,0,0,0,0,0,0,0,0,0,0,0,0,0,0,0,0,0,0,0,0,0,0,0,0,
0,0,0,0,0,0,0,0,0,0,0,0,0,0,0,0,0,0,0,0,0,0,0,0,0,0,0,0,0,0,0,0,0,0,0,0,0,0,0,0,0,0,0,0,0,0,0,0,0,0,0,0,0,0,0,0,0,0,0,0,0,0,0,0,0,0,0,0,0,0,0,0,0,0,0,0,0,0,0,0,
0,0,0,0,0,0,0,0,0,0,0,0,0,0,0,0,0,0,0,0,0,0,0,0,0,0,0,0,0,0,0,0,0,0,0,0,0,0,0,0,0,0,0,0,0,0,0,0,0,0,0,0,0,0,0,0,0,0,0,0,0,0,0,0,0,0,0,0,0,0,0,0,0,0,0,0,0,0,0,0,
0,0,0,0,0,0,0,0,0,0,0,0,0,0,0,0,0,0,0,0,0,0,0,0,0,0,0,0,0,0,0,0,0,0,0,0,0,0,0,0,0,0,0,0,0,0,0,0,0,0,0,0,0,0,0,0,0,0,0,0,0,0,0,0,0,0,0,0,0,0,0,0,0,0,0,0,0,0,0,0,
0,0,0,0,0,0,0,0,0,0,0,0,0,0,0,0,0,0,0,0,0,0,0,0,0,0,0,0,0,0,0,0,0,0,0,0,0,0,0,0,0,0,0,0,0,0,0,0,0,0,0,0,0,0,0,0,0,0,0,0,0,0,0,0,0,0,0,0,0,0,0,0,0,0,0,0,0,0,0,0,
0,0,0,0,0,0,0,0,0,0,0,0,0,0,0,0,0,0,0,0,0,0,0,0,0,0,0,0,0,0,0,0,0,0,0,0,0,0,0,0,0,0,0,0,0,0,0,0,0,0,0,0,0,0,0,0,0,0,0,0,0,0,0,0,0,0,0,0,0,0,0,0,0,0,0,0,0,0,0,0,
0,0,0,0,0,0,0,0,0,0,0,0,0,0,0,0,0,0,0,0,0,0,0,0,0,0,0,0,0,0,0,0,0,0,0,0,0,0,0,0,0,0,0,0,0,0,0,0,0,0,0,0,0,0,0,0,0,0,0,0,0,0,0,0,0,0,0,0,0,0,0,0,0,0,0,0,0,0,0,0,
0,0,0,0,0,0,0,0,0,0,0,0,0,0,0,0,0,0,0,0,0,0,0,0,0,0,0,0,0,0,0,0,0,0,0,0,0,0,0,0,0,0,0,0,0,0,0,0,0,0,0,0,0,0,0,0,0,0,0,0,0,0,0,0,0,0,0,0,0,0,0,0,0,0,0,0,0,0,0,0,
0,0,0,0,0,0,0,0,0,0,0,0,0,0,0,0,0,0,0,0,0,0,0,0,0,0,0,0,0,0,0,0,0,0,0,0,0,0,0,0,0,0,0,0,0,0,0,0,0,0,0,0,0,0,0,0,0,0,0,0,0,0,0,0,0,0,0,0,0,0,0,0,0,0,0,0,0,0,0,0,
0,0,0,0,0,0,0,0,0,0,0,0,0,0,0,0,0,0,0,0,0,0,0,0,0,0,0,0,0,0,0,0,0,0,0,0,0,0,0,0,0,0,0,0,0,0,0,0,0,0,0,0,0,0,0,0,0,0,0,0,0,0,0,0,0,0,0,0,0,0,0,0,0,0,0,0,0,0,0,0,
0,0,0,0,0,0,0,0,0,0,0,0,0,0,0,0,0,0,0,0,0,0,0,0,0,0,0,0,0,0,0,0,0,0,0,0,0,0,0,0,0,0,0,0,0,0,0,0,0,0,0,0,0,0,0,0,0,0,0,0,0,0,0,0,0,0,0,0,0,0,0,0,0,0,0,0,0,0,0,0,
0,0,0,0,0,0,0,0,0,0,0,0,0,0,0,0,0,0,0,0,0,0,0,0,0,0,0,0,0,0,0,0,0,0,0,0,0,0,0,0,0,0,0,0,0,0,0,0,0,0,0,0,0,0,0,0,0,0,0,0,0,0,0,0,0,0,0,0,0,0,0,0,0,0,0,0,0,0,0,0,
0,0,0,0,0,0,0,0,0,0,0,0,0,0,0,0,0,0,0,0,0,0,0,0,0,0,0,0,0,0,0,0,0,0,0,0,0,0,0,0,0,0,0,0,0,0,0,0,0,0,0,0,0,0,0,0,0,0,0,0,0,0,0,0,0,0,0,0,0,0,0,0,0,0,0,0,0,0,0,0,
0,0,0,0,0,0,0,0,0,0,0,0,0,0,0,0,0,0,0,0,0,0,0,0,0,0,0,0,0,0,0,0,0,0,0,0,0,0,0,0,0,0,0,0,0,0,0,0,0,0,0,0,0,0,0,0,0,0,0,0,0,0,0,0,0,0,0,0,0,0,0,0,0,0,0,0,0,0,0,0,
0,0,0,0,0,0,0,0,0,0,0,0,0,0,0,0,0,0,0,0,0,0,0,0,0,0,0,0,0,0,0,0,0,0,0,0,0,0,0,0,0,0,0,0,0,0,0,0,0,0,0,0,0,0,0,0,0,0,0,0,0,0,0,0,0,0,0,0,0,0,0,0,0,0,0,0,0,0,0,0
</data>
 </layer>
 <layer id="20" name="Elevation" width="80" height="50">
  <data encoding="csv">
0,0,0,0,0,0,0,0,0,0,0,0,0,0,0,0,0,0,0,0,0,0,0,0,0,0,0,0,0,0,0,0,0,0,0,0,0,0,0,0,0,0,0,0,0,0,0,0,0,0,0,0,0,0,0,0,0,0,0,0,0,0,0,0,0,0,0,0,0,0,0,0,0,0,0,0,0,0,0,0,
0,0,0,0,0,0,0,0,0,0,0,0,0,0,0,0,0,0,0,0,0,0,0,0,0,0,0,0,0,0,0,0,0,0,0,0,0,0,0,0,0,0,0,0,0,0,0,0,0,0,0,0,0,0,0,0,0,0,0,0,0,0,0,0,0,0,0,0,0,0,0,0,0,0,0,0,0,0,0,0,
0,0,0,0,0,0,0,0,0,0,0,0,0,0,0,0,0,0,0,0,0,0,0,0,0,0,0,0,0,0,0,0,0,0,0,0,0,0,0,0,0,0,0,0,0,0,0,0,0,0,0,0,0,0,0,0,0,0,0,0,0,0,0,0,0,0,0,0,0,0,0,0,0,0,0,0,0,0,0,0,
0,0,0,0,0,0,0,0,0,0,0,0,0,0,0,0,0,0,0,0,0,0,0,0,0,0,0,0,0,0,0,0,0,0,0,0,0,0,0,0,0,0,0,0,0,0,0,0,0,0,0,0,0,0,0,0,0,0,0,0,0,0,0,0,0,0,0,0,0,0,0,0,0,0,0,0,0,0,0,0,
0,0,0,0,0,0,0,0,0,0,0,0,0,0,0,0,0,0,0,0,0,0,0,0,0,0,0,0,0,0,0,0,0,0,0,0,0,0,0,0,0,0,0,0,0,0,0,0,0,0,0,0,0,0,0,0,0,0,0,0,0,0,0,0,0,0,0,0,0,0,0,0,0,0,0,0,0,0,0,0,
0,0,0,0,0,0,0,0,0,0,0,0,0,0,0,0,0,0,0,0,0,0,0,0,0,0,0,0,0,0,0,0,0,0,0,0,0,0,0,0,0,0,0,0,0,0,0,0,0,0,0,0,0,0,0,0,0,0,0,0,0,0,0,0,0,0,0,0,0,0,0,0,0,0,0,0,0,0,0,0,
0,0,0,0,0,0,0,0,0,0,0,0,0,0,0,0,0,0,0,0,0,0,0,0,0,0,0,0,0,0,0,0,0,0,0,0,0,0,0,0,0,0,0,0,0,0,0,0,0,0,0,0,0,0,0,0,0,0,0,0,0,0,0,0,0,0,0,0,0,0,0,0,0,0,0,0,0,0,0,0,
0,0,0,0,0,0,0,0,0,0,0,0,0,0,0,0,0,0,0,0,0,0,0,0,0,0,0,0,0,0,0,0,0,0,0,0,0,0,0,0,0,0,0,0,0,0,0,0,0,0,0,0,0,0,0,0,0,0,0,0,0,0,0,0,0,0,0,0,0,0,0,0,0,0,0,0,0,0,0,0,
0,0,0,0,0,0,0,0,0,0,0,0,0,0,0,0,0,0,0,0,0,0,0,0,3018,3024,3024,3024,3024,3024,3172,0,0,0,3171,3024,3024,3024,3024,3020,0,0,0,0,0,0,0,0,0,0,0,0,0,0,0,0,0,0,0,0,0,0,0,0,0,0,0,0,0,0,0,0,0,0,0,0,0,0,0,0,
0,0,0,0,0,0,0,0,0,0,0,0,0,0,0,0,0,0,0,0,0,0,0,0,3068,3060,3060,3060,3060,3060,1123,0,0,0,1122,3060,3060,3060,3060,3070,0,0,0,0,0,0,0,0,0,0,0,0,0,0,0,0,0,0,0,0,0,0,0,0,0,0,0,0,0,0,0,0,0,0,0,0,0,0,0,0,
0,0,0,0,0,0,0,0,0,0,0,0,0,0,0,0,0,0,0,3018,3024,3116,3116,3116,3108,3060,3060,3060,3060,3060,1123,0,0,0,1122,3060,3060,3060,3060,3056,0,0,0,0,0,0,0,0,0,0,0,0,0,0,0,0,0,0,0,0,0,0,0,0,0,0,0,0,0,0,0,0,0,0,0,0,0,0,0,0,
0,0,0,0,0,0,0,0,0,0,0,0,0,0,0,0,0,0,0,3068,3060,3157,3157,3157,3158,1126,1126,1126,1126,1126,1127,0,0,0,1125,1126,1126,1126,1126,3056,0,0,0,0,0,0,0,0,0,0,0,0,0,0,0,0,0,0,0,0,0,0,0,0,0,0,0,0,0,0,0,0,0,0,0,0,0,0,0,0,
3116,3116,3116,3116,3116,3116,3116,3116,3116,3116,3116,3116,3116,3116,3116,3116,3116,3116,3116,3108,3060,3157,3157,3157,1123,0,0,0,0,0,0,0,0,0,0,0,0,0,0,1116,0,0,0,0,0,0,0,0,0,0,0,0,0,0,0,0,0,0,0,0,0,0,0,0,0,0,0,0,0,0,0,0,0,0,0,0,0,0,0,0,
3157,3157,3157,3157,3157,3157,3157,3157,3157,3157,3157,3157,3157,3157,3157,3157,3157,3157,3157,3158,1126,1126,1126,1126,1127,0,0,0,0,0,0,0,0,0,0,0,0,0,0,1116,0,0,0,0,0,0,0,0,0,0,0,0,0,0,0,0,0,0,0,0,0,0,0,0,0,0,0,0,0,0,0,0,0,0,0,0,0,0,0,0,
3157,3157,3157,3157,3157,3157,3157,3157,3157,3157,3157,3157,3157,3157,3157,3157,3157,3157,3157,1123,0,0,0,0,0,0,0,0,0,0,0,0,0,0,0,0,0,0,0,1116,0,0,0,0,0,0,0,0,0,0,0,0,0,0,0,0,0,0,0,0,0,0,0,0,0,0,0,0,0,0,0,0,0,0,0,0,0,0,0,0,
3157,3157,3157,3157,3157,3157,3157,3157,3157,3157,3157,3157,3157,3157,3157,3157,3157,1126,1126,1127,0,0,0,0,0,0,0,0,0,0,0,0,0,0,0,0,0,0,3006,3220,0,0,0,0,0,0,0,0,0,0,0,0,0,0,0,0,0,0,0,0,0,0,0,0,0,0,0,0,0,0,0,0,0,0,0,0,0,0,0,0,
0,0,0,0,0,0,0,0,0,0,0,0,0,0,0,0,0,2440,0,0,0,0,0,0,0,0,0,0,0,0,0,0,0,0,0,0,0,0,3056,0,0,0,0,0,0,0,0,0,0,0,0,0,0,0,0,0,0,0,0,0,0,0,0,0,0,0,0,0,0,0,0,0,0,0,0,0,0,0,0,0,
0,0,0,0,0,0,0,0,0,0,0,0,0,0,0,0,0,2440,0,0,0,0,2388,282,282,282,284,0,0,0,0,0,0,0,0,0,0,0,3056,0,0,0,0,0,0,0,0,0,0,0,0,0,0,0,0,0,0,0,0,0,0,0,0,0,0,0,0,0,0,0,0,0,0,0,0,0,0,0,0,0,
0,0,0,0,0,0,0,0,0,0,0,0,0,0,0,0,0,2440,0,0,0,0,2438,0,0,0,307,0,0,0,0,0,0,0,0,0,0,0,3056,0,0,0,0,0,0,0,0,0,0,0,0,0,0,0,0,0,0,0,0,0,0,0,0,0,0,0,0,0,0,0,0,0,0,0,0,0,0,0,0,0,
0,0,0,0,0,0,0,0,0,0,0,0,0,0,0,0,2392,2490,0,0,0,0,2438,0,0,0,307,0,0,0,0,0,0,0,0,0,0,0,3106,3107,3020,0,0,0,0,0,0,0,0,0,0,0,0,0,0,0,0,0,0,0,0,0,0,0,0,0,0,0,0,0,0,0,0,0,0,0,0,0,0,0,
0,0,0,0,0,0,0,0,0,0,0,0,0,0,0,0,2440,0,0,0,0,2388,2443,0,0,0,2440,0,0,0,0,0,0,0,0,0,0,0,3156,3157,3121,3107,3107,3107,3107,3020,0,0,0,0,0,0,0,0,0,0,0,0,0,0,0,0,0,0,0,0,0,0,0,0,0,0,0,0,0,0,0,0,0,0,
2489,2489,2489,2489,2489,2393,0,0,0,0,0,0,0,0,0,0,2440,0,0,0,0,2438,0,0,0,0,2440,0,0,0,0,0,0,0,0,0,0,0,3156,3157,3156,3157,3157,3157,3157,3070,0,0,0,0,0,0,0,0,0,0,0,0,0,0,0,0,0,0,0,0,0,0,0,0,0,0,0,0,0,0,0,0,0,0,
0,0,0,0,0,2488,2489,2489,2489,2489,2393,2439,0,0,2392,2489,2490,0,0,0,0,2438,0,0,0,0,308,284,0,0,0,0,0,0,0,0,0,0,3206,3207,3156,3157,3157,3157,3157,3056,0,0,0,0,0,0,0,0,0,0,0,0,0,0,0,0,0,0,0,0,0,0,0,0,0,0,0,0,0,0,0,0,0,0,
0,0,0,0,0,0,0,0,0,0,2488,2489,2489,2489,2490,0,0,0,0,0,2388,2443,0,0,0,0,0,2440,0,0,0,0,0,0,0,0,0,0,0,0,3206,3207,3207,3207,3207,3106,3107,3107,3107,3107,3107,3107,3107,3107,3107,3107,3107,3020,0,0,0,0,0,0,0,0,0,0,0,0,0,0,0,0,0,0,0,0,0,0,
0,0,0,0,0,0,0,0,0,0,0,0,0,0,0,0,0,0,0,0,2438,0,0,0,0,0,0,308,282,282,282,282,282,284,0,0,0,0,0,0,0,0,0,0,0,3156,3157,3157,3157,3157,3157,3157,3157,3157,3157,3157,3157,3121,3107,3107,3107,3107,3020,0,0,0,0,0,0,0,0,0,0,0,0,0,0,0,0,0,
0,0,0,0,0,0,0,0,0,0,0,0,0,0,0,0,0,0,0,0,2488,2489,2489,2489,2393,0,0,0,0,0,0,0,0,307,0,0,0,0,0,0,0,0,0,0,0,3156,3157,3157,3157,3157,3157,3157,3157,3157,3157,3157,3157,3156,3157,3157,3157,3157,3070,0,0,0,0,0,0,0,0,0,0,0,0,0,0,0,0,0,
2389,2389,2389,2389,2389,2389,2390,0,0,0,0,0,0,0,0,0,0,0,0,0,0,0,0,0,2438,0,0,0,0,0,0,0,0,307,0,0,0,0,0,0,0,0,0,0,0,3206,3207,3207,3207,3207,3207,3207,3207,3207,3207,3207,3207,3156,3157,3157,3157,3157,3056,0,0,0,0,0,0,0,0,0,0,0,0,0,0,0,0,0,
0,0,0,0,0,0,2442,2389,2389,2389,2389,2389,2389,2389,2389,2390,0,0,0,0,0,0,0,0,2488,2489,2489,2489,2489,2489,2393,0,0,307,0,0,0,0,0,0,0,0,0,0,0,0,0,0,0,0,0,0,0,0,0,0,0,3206,3207,3207,3207,3207,3056,0,0,0,0,0,0,0,0,0,0,0,0,0,0,0,0,0,
0,0,0,0,0,0,0,0,0,0,0,0,0,0,0,2440,0,0,0,0,0,0,0,0,0,0,0,0,0,0,2438,0,0,2440,0,0,0,0,0,0,0,0,0,0,0,0,0,0,0,0,0,0,0,0,0,0,0,0,0,0,0,0,3056,0,0,0,0,0,0,0,0,0,0,0,0,0,0,0,0,0,
0,0,0,0,0,0,0,0,0,2439,0,0,0,0,0,307,0,0,0,0,0,0,0,0,0,0,0,0,0,0,2438,0,0,2440,0,0,0,0,0,0,0,0,0,0,0,0,0,0,0,0,0,0,0,0,0,0,0,0,0,0,0,0,3056,0,0,0,0,0,0,0,0,0,0,0,0,0,0,0,0,0,
0,0,0,0,0,0,0,0,0,0,0,0,0,0,0,307,0,0,0,0,0,0,0,0,0,0,0,0,0,0,2438,0,0,2440,0,0,0,0,0,0,281,282,282,282,282,282,282,282,282,282,282,282,282,284,0,0,0,0,0,0,0,0,3056,0,0,0,0,0,0,0,0,0,0,0,0,0,0,0,0,0,
0,0,0,0,0,0,0,0,0,0,0,0,0,0,0,307,0,0,0,0,0,0,0,0,0,0,0,0,0,0,2488,2489,2489,2490,0,0,0,0,0,0,304,0,0,0,0,0,0,0,0,0,0,0,0,307,0,0,0,0,0,0,0,0,3056,0,0,0,0,0,0,0,0,0,0,0,0,0,0,0,0,0,
0,0,0,0,0,0,0,0,0,0,0,0,0,285,328,330,0,0,0,0,0,0,0,0,0,0,0,0,0,0,0,0,0,0,0,0,0,0,0,0,304,0,0,0,0,0,0,0,0,0,0,0,0,308,284,0,0,0,0,0,0,0,3056,0,0,0,0,0,0,0,0,0,0,0,0,0,0,0,0,0,
0,0,0,0,0,0,0,0,0,0,0,0,0,307,0,0,0,0,0,0,0,0,0,0,0,0,0,0,0,0,0,0,0,0,0,0,0,0,0,0,2488,2489,2393,2439,2439,0,0,0,0,0,0,0,0,0,307,0,0,0,0,0,0,0,3056,0,0,0,0,0,0,0,0,0,0,0,0,0,0,0,0,0,
0,0,0,0,0,0,0,0,0,0,0,0,0,307,0,0,0,0,0,0,0,0,0,0,0,0,0,0,0,0,0,0,0,0,0,0,0,0,0,0,0,0,2488,2489,2489,2489,328,328,328,328,328,286,0,0,307,0,0,0,0,0,0,0,3220,0,0,0,0,0,0,0,0,0,0,0,0,0,0,0,0,0,
0,0,0,0,0,0,0,0,0,0,0,0,0,307,0,0,0,0,0,0,0,0,0,0,0,0,0,0,0,0,0,0,0,0,0,0,0,0,0,0,0,0,0,0,0,0,0,0,0,0,0,327,328,328,330,0,0,0,0,0,0,3056,0,0,0,0,0,0,0,0,0,0,0,0,0,0,0,0,0,0,
0,0,0,0,0,0,0,0,0,0,0,0,0,307,0,0,0,0,0,0,0,0,0,0,0,0,0,0,0,0,0,0,0,0,0,0,0,0,0,0,0,0,0,0,0,0,0,0,0,0,0,0,0,0,0,0,0,0,0,0,0,3056,0,0,0,0,0,0,0,0,0,0,0,0,0,0,0,0,0,0,
0,0,0,0,0,0,0,0,0,0,0,0,0,307,0,0,0,0,0,2388,282,282,282,282,282,282,284,0,0,0,0,0,0,0,0,0,0,0,0,0,0,0,0,0,0,0,0,0,0,0,0,0,0,0,0,0,0,0,0,0,0,3056,0,0,0,0,0,0,0,0,0,0,0,0,0,0,0,0,0,0,
0,0,0,0,0,0,0,0,0,0,0,0,0,307,0,0,0,0,0,2438,0,0,0,0,0,0,307,0,0,0,0,0,0,0,0,0,0,0,0,0,0,0,0,0,0,0,0,0,0,0,0,0,0,0,0,0,0,0,0,0,0,3220,0,0,0,0,0,0,0,0,0,0,0,0,0,0,0,0,0,0,
0,0,0,0,0,0,0,0,0,0,0,0,0,307,0,0,0,0,0,2438,0,0,0,0,0,0,2442,2389,2389,2390,0,0,0,0,0,0,0,0,0,0,0,0,0,0,0,0,0,0,0,0,0,0,0,0,0,3056,0,0,0,0,0,0,0,0,0,0,0,0,0,0,0,0,0,0,0,0,0,0,0,0,
0,0,0,0,0,0,0,0,0,0,0,0,0,307,0,0,0,0,2388,2443,0,0,0,0,0,0,0,0,0,2440,0,0,0,0,0,0,0,313,314,314,314,315,0,0,0,0,0,0,0,0,0,0,0,0,0,3056,0,0,0,0,0,0,0,0,0,0,0,0,0,0,0,0,0,0,0,0,0,0,0,0,
0,0,0,0,0,0,0,0,0,0,0,0,0,307,0,0,0,0,2438,0,0,0,0,0,0,0,0,0,0,2440,0,0,0,0,0,0,0,359,360,360,360,361,0,0,0,0,0,0,0,0,0,0,0,0,0,3056,0,0,0,0,0,0,0,0,0,0,0,0,0,0,0,0,0,0,0,0,0,0,0,0,
0,0,0,0,0,0,0,0,0,0,0,0,0,307,0,0,0,0,2438,0,0,0,0,0,0,0,0,0,0,2440,0,0,0,0,0,0,0,0,0,0,0,0,0,0,0,0,0,0,0,0,0,0,0,0,0,3225,0,0,0,0,0,0,0,0,0,0,0,0,0,0,0,0,0,0,0,0,0,0,0,0,
0,0,0,0,0,0,0,0,0,0,0,0,2392,2490,0,0,0,0,2438,0,0,0,0,0,0,0,0,0,0,2442,2389,2389,2390,0,0,0,0,0,0,0,0,0,0,0,0,0,0,0,3220,0,0,0,0,0,0,0,0,0,0,0,0,0,0,0,0,0,0,0,0,0,0,0,0,0,0,0,0,0,0,0,
0,0,0,0,0,0,0,0,0,0,0,0,2440,0,0,0,0,0,2438,0,0,0,0,0,0,0,0,0,0,0,0,2439,2442,2389,2389,2389,2389,2389,2389,2390,0,0,0,0,0,0,3056,0,0,0,0,0,0,0,0,0,0,0,0,0,0,0,0,0,0,0,0,0,0,0,0,0,0,0,0,0,0,0,0,0,
0,0,0,0,0,0,0,0,0,0,0,2392,2490,0,0,0,0,2388,2443,0,0,0,0,0,0,0,0,0,0,0,0,0,0,0,0,0,0,0,0,2442,2389,2390,0,0,0,0,3056,0,0,0,0,0,0,0,0,0,0,0,0,0,0,0,0,0,0,0,0,0,0,0,0,0,0,0,0,0,0,0,0,0,
0,0,0,0,0,0,0,0,0,0,0,2440,0,0,0,0,0,2438,0,0,0,0,0,0,0,0,0,0,0,0,0,0,0,0,0,0,0,0,0,0,0,2440,0,0,0,0,3056,0,0,0,0,0,0,0,0,0,0,0,0,0,0,0,0,0,0,0,0,0,0,0,0,0,0,0,0,0,0,0,0,0,
0,0,0,0,0,0,0,0,0,0,0,2440,0,0,0,0,0,2438,0,0,0,0,0,0,0,0,0,0,0,0,0,0,0,0,0,0,0,0,0,0,0,2440,0,0,0,0,3056,0,0,0,0,0,0,0,0,0,0,0,0,0,0,0,0,0,0,0,0,0,0,0,0,0,0,0,0,0,0,0,0,0,
0,0,0,0,0,0,0,0,0,0,0,307,0,0,0,0,0,2438,0,0,0,0,0,0,0,0,0,0,0,0,0,0,0,0,0,0,0,0,0,0,0,2440,0,0,0,0,3056,0,0,0,0,0,0,0,0,0,0,0,0,0,0,0,0,0,0,0,0,0,0,0,0,0,0,0,0,0,0,0,0,0,
0,0,0,0,0,0,0,0,0,0,0,307,0,0,0,0,0,2438,0,0,0,0,0,0,0,0,0,0,0,0,0,0,0,0,0,0,0,0,0,0,0,2440,0,0,0,0,3056,0,0,0,0,0,0,0,0,0,0,0,0,0,0,0,0,0,0,0,0,0,0,0,0,0,0,0,0,0,0,0,0,0
</data>
 </layer>
 <layer id="22" name="Medium" width="80" height="50">
  <data encoding="csv">
0,0,0,0,0,0,0,0,0,0,0,0,0,0,0,0,0,0,0,0,0,0,0,0,0,0,0,0,0,0,0,0,0,0,0,0,0,0,0,0,0,0,0,0,0,0,0,0,0,0,0,0,0,0,0,0,0,0,0,0,0,0,0,0,0,0,0,0,0,0,0,0,0,0,0,0,0,0,0,0,
0,0,0,0,0,0,0,0,0,0,0,0,0,0,0,0,0,0,0,0,0,0,0,0,0,0,0,0,0,0,0,0,0,0,0,0,0,0,0,0,0,0,0,0,0,0,0,0,0,0,0,0,0,0,0,0,0,0,0,0,0,0,0,0,0,0,0,0,0,0,0,0,0,0,0,0,0,0,0,0,
0,0,0,0,0,0,0,0,0,0,0,0,0,0,0,0,0,0,0,0,0,0,0,0,0,0,0,0,0,0,0,0,0,0,0,0,0,0,0,0,0,0,0,0,0,0,0,0,0,0,0,0,0,0,0,0,0,0,0,0,0,0,0,0,0,0,0,0,0,0,0,0,0,0,0,0,0,0,0,0,
0,0,0,0,0,0,0,0,0,0,0,0,0,0,0,0,0,0,0,0,0,0,0,0,0,0,0,0,0,0,0,0,0,0,0,0,0,0,0,0,0,0,0,0,0,0,0,0,0,0,0,0,0,0,0,0,0,0,0,0,0,0,0,0,0,0,0,0,0,0,0,0,0,0,0,0,0,0,0,0,
0,0,0,0,0,0,0,0,0,0,0,0,0,0,0,0,0,0,0,0,0,0,0,0,0,0,0,0,0,0,0,0,0,0,0,0,0,0,0,0,0,0,0,0,0,0,0,0,0,0,0,0,0,0,0,0,0,0,0,0,0,0,0,0,0,0,0,0,0,0,0,0,0,0,0,0,0,0,0,0,
0,0,0,0,0,0,0,0,0,0,0,0,0,0,0,0,0,0,0,0,0,0,0,0,0,0,0,0,0,0,0,0,0,0,0,0,0,0,0,0,0,0,0,0,0,0,0,0,0,0,0,0,0,0,0,0,0,0,0,0,0,0,0,0,0,0,0,0,0,0,0,0,0,0,0,0,0,0,0,0,
0,0,0,0,0,0,0,0,0,0,0,0,0,0,0,0,0,0,0,0,0,0,0,0,0,0,0,0,0,0,0,0,0,0,0,0,0,0,0,0,0,0,0,0,0,0,0,0,0,0,0,0,0,0,0,0,0,0,0,0,0,0,0,0,0,0,0,0,0,0,0,0,0,0,0,0,0,0,0,0,
0,0,0,0,0,0,0,0,0,0,0,0,0,0,0,0,0,0,0,0,0,0,0,0,0,0,0,0,0,0,0,0,0,0,0,0,0,0,0,0,0,0,0,0,0,0,0,0,0,0,0,0,0,0,0,0,0,0,0,0,0,0,0,0,0,0,0,0,0,0,0,0,0,0,0,0,0,0,0,0,
0,0,0,0,0,0,0,0,0,0,0,0,0,0,0,0,0,0,0,0,0,0,0,0,0,0,0,0,0,0,0,803,803,803,0,0,0,0,0,0,0,0,0,0,0,0,0,0,0,0,0,0,0,0,0,0,0,0,0,0,0,0,0,0,0,0,0,0,0,0,0,0,0,0,0,0,0,0,0,0,
0,0,0,0,0,0,0,0,0,0,0,0,0,0,0,0,0,0,0,0,0,0,0,0,0,0,0,0,0,0,0,0,0,0,0,0,0,0,0,0,0,0,0,0,0,0,0,0,0,0,0,0,0,0,0,0,0,0,0,0,0,0,0,0,0,0,0,0,0,0,0,0,0,0,0,0,0,0,0,0,
0,0,0,0,0,0,0,0,0,0,0,0,0,0,0,0,0,0,0,0,0,0,0,0,0,0,0,0,0,0,0,0,0,0,0,0,0,0,0,0,0,0,0,0,0,0,0,0,0,0,0,0,0,0,0,0,0,0,0,0,0,0,0,0,0,0,0,0,0,0,0,0,0,0,0,0,0,0,0,0,
0,0,0,0,0,0,0,0,0,0,0,0,0,0,0,0,0,0,0,0,0,0,0,0,0,0,0,0,0,0,0,0,0,0,0,0,0,0,0,0,0,0,0,0,0,0,0,0,0,0,0,0,0,0,0,0,0,0,0,0,0,0,0,0,0,0,0,0,0,0,0,0,0,0,0,0,0,0,0,0,
0,0,0,0,0,0,0,0,0,0,0,0,0,0,0,0,0,0,0,0,0,0,0,0,0,0,0,0,0,923,924,924,924,924,924,925,0,0,0,0,0,0,0,0,0,0,0,0,0,0,0,0,0,0,0,0,0,0,0,0,0,0,0,0,0,0,0,0,0,0,0,0,0,0,0,0,0,0,0,0,
0,0,0,0,0,0,0,0,0,0,0,0,0,0,0,0,0,0,0,0,0,0,0,0,0,0,0,0,0,0,0,0,0,0,0,0,0,0,0,0,0,0,0,0,0,0,0,0,0,0,0,0,0,0,0,0,0,0,0,0,0,0,0,0,0,0,0,0,0,0,0,0,0,0,0,0,0,0,0,0,
0,0,0,0,0,0,0,0,0,0,0,0,0,0,0,0,0,0,0,0,0,0,0,0,0,0,0,0,0,0,0,0,0,0,0,0,0,0,0,0,0,0,0,0,0,0,0,0,0,0,0,0,0,0,0,0,0,0,0,0,0,0,0,0,0,0,0,0,0,0,0,0,0,0,0,0,0,0,0,0,
2389,2389,2389,2389,2389,2389,2389,2389,2389,2389,2389,2389,2389,2389,2389,2389,2389,2390,0,0,0,0,0,0,0,0,0,0,0,0,0,0,0,0,0,0,0,0,0,0,0,0,0,0,0,0,0,0,0,0,0,0,0,0,0,0,0,0,0,0,0,0,0,0,0,0,0,0,0,0,0,0,0,0,0,0,0,0,0,0,
0,0,0,0,0,0,0,0,0,0,0,0,0,0,0,0,0,0,0,0,0,0,0,0,0,0,0,0,0,0,0,0,0,0,0,0,0,0,0,0,0,0,0,0,0,0,0,0,0,0,0,0,0,0,0,0,0,0,0,0,0,0,0,0,0,0,0,0,0,0,0,0,0,0,0,0,0,0,0,0,
0,0,0,0,0,0,0,0,0,0,0,0,0,0,0,0,0,0,0,0,0,0,0,0,0,0,0,0,0,0,0,0,0,0,0,0,0,0,0,0,0,0,0,0,0,0,0,0,0,0,0,0,0,0,0,0,0,0,0,0,0,0,0,0,0,0,0,0,0,0,0,0,0,0,0,0,0,0,0,0,
0,0,0,0,0,0,0,0,0,0,0,0,0,0,0,0,0,0,0,0,0,0,0,0,0,0,0,0,0,0,0,0,0,0,0,0,0,0,0,0,0,0,0,0,0,0,0,0,0,0,0,0,0,0,0,0,0,0,0,0,0,0,0,0,0,0,0,0,0,0,0,0,0,0,0,0,0,0,0,0,
0,0,0,0,0,0,0,0,0,0,0,0,0,0,0,0,0,0,0,0,0,0,0,0,0,0,0,0,0,0,0,0,0,0,0,0,0,0,0,0,0,0,0,0,0,0,0,0,0,0,0,0,0,0,0,0,0,0,0,0,0,0,0,0,0,0,0,0,0,0,0,0,0,0,0,0,0,0,0,0,
0,0,0,0,0,0,0,0,0,0,0,0,0,0,0,0,0,0,0,0,0,0,0,0,0,0,0,0,0,0,0,0,0,0,0,0,0,0,0,0,0,0,0,0,0,0,0,0,0,0,0,0,0,0,0,0,0,0,0,0,0,0,0,0,0,0,0,0,0,0,0,0,0,0,0,0,0,0,0,0,
0,0,0,0,0,0,0,0,0,0,0,0,0,0,0,0,0,0,0,0,0,0,0,0,0,0,0,0,0,0,0,0,0,0,0,0,0,0,0,0,0,0,0,0,0,0,0,0,0,0,0,0,0,0,0,0,0,0,0,0,0,0,0,0,0,0,0,0,0,0,0,0,0,0,0,0,0,0,0,0,
0,0,0,0,0,0,0,0,0,0,0,0,0,0,0,0,0,0,0,0,0,0,0,0,0,0,0,0,0,0,0,0,0,0,0,0,0,0,0,0,0,0,0,0,0,0,0,0,0,0,0,0,0,0,0,0,0,0,0,0,0,0,0,0,0,0,0,0,0,0,0,0,0,0,0,0,0,0,0,0,
0,0,0,0,0,0,0,0,0,0,0,0,0,0,0,0,0,0,0,0,0,0,0,0,0,0,0,0,0,0,0,0,0,0,0,0,0,0,0,0,0,0,0,0,0,0,0,0,0,0,0,0,0,0,0,0,0,0,0,0,0,0,0,0,0,0,0,0,0,0,0,0,0,0,0,0,0,0,0,0,
0,0,0,0,0,0,0,0,0,0,0,0,0,0,0,0,0,0,0,0,0,0,0,0,0,0,0,0,0,0,0,0,0,0,0,0,0,0,0,0,0,0,0,0,0,0,0,0,0,0,0,0,0,0,0,0,0,0,0,0,0,0,0,0,0,0,0,0,0,0,0,0,0,0,0,0,0,0,0,0,
0,0,0,0,0,0,0,0,0,0,0,0,0,0,0,0,0,0,0,0,0,0,0,0,0,0,0,0,0,0,0,0,0,0,0,0,0,0,0,0,0,0,0,0,0,0,0,0,0,0,0,0,0,0,0,0,0,0,0,0,0,0,0,0,0,0,0,0,0,0,0,0,0,0,0,0,0,0,0,0,
0,0,0,0,0,0,0,0,0,0,0,0,0,0,0,0,0,0,0,0,0,0,0,0,0,0,0,0,0,0,0,0,0,0,0,0,0,0,0,0,0,0,0,0,0,0,0,0,0,0,0,0,0,0,0,0,0,0,0,0,0,0,0,0,0,0,0,0,0,0,0,0,0,0,0,0,0,0,0,0,
0,0,0,0,0,0,0,0,0,0,0,0,0,0,0,0,0,0,0,0,0,0,0,0,0,0,0,0,0,0,0,0,0,0,0,0,0,0,0,0,0,0,0,0,0,0,0,0,0,0,0,0,0,0,0,0,0,0,0,0,0,0,0,0,0,0,0,0,0,0,0,0,0,0,0,0,0,0,0,0,
0,0,0,0,0,0,0,0,0,0,0,0,0,0,0,0,0,0,0,0,0,0,0,0,0,0,0,0,0,0,0,0,0,0,0,0,0,0,0,0,0,0,0,0,0,0,0,0,0,0,0,0,0,0,0,0,0,0,0,0,0,0,0,0,0,0,0,0,0,0,0,0,0,0,0,0,0,0,0,0,
0,0,0,0,0,0,0,0,0,0,0,0,0,0,0,0,0,0,0,0,0,0,0,0,0,0,0,0,0,0,0,0,0,0,0,0,0,0,0,0,0,0,0,0,0,0,0,0,0,0,0,0,0,0,0,0,0,0,0,0,0,0,0,0,0,0,0,0,0,0,0,0,0,0,0,0,0,0,0,0,
0,0,0,0,0,0,0,0,0,0,0,0,0,0,0,0,0,0,0,0,0,0,0,0,0,0,0,0,0,0,0,0,0,0,0,0,0,0,0,0,0,0,0,0,0,0,0,0,0,0,0,0,0,0,0,0,0,0,0,0,0,0,0,0,0,0,0,0,0,0,0,0,0,0,0,0,0,0,0,0,
0,0,0,0,0,0,0,0,0,0,0,0,0,0,0,0,0,0,0,0,0,0,0,0,0,0,0,0,0,0,0,0,0,0,0,0,0,0,0,0,0,0,0,0,0,0,0,0,0,0,0,0,0,0,0,0,0,0,0,0,0,0,0,0,0,0,0,0,0,0,0,0,0,0,0,0,0,0,0,0,
0,0,0,0,0,0,0,0,0,0,0,0,0,0,0,0,0,0,0,0,0,0,0,0,0,0,0,0,0,0,0,0,0,0,0,0,0,0,0,0,0,0,0,0,0,0,0,0,0,0,0,0,0,0,0,0,0,0,0,0,0,0,0,0,0,0,0,0,0,0,0,0,0,0,0,0,0,0,0,0,
0,0,0,0,0,0,0,0,0,0,0,0,0,0,0,0,0,0,0,0,0,0,0,0,0,0,0,0,0,0,0,0,0,0,0,0,0,0,0,0,0,0,0,0,0,0,0,0,0,0,0,0,0,0,0,0,0,0,0,0,0,0,0,0,0,0,0,0,0,0,0,0,0,0,0,0,0,0,0,0,
0,0,0,0,0,0,0,0,0,0,0,0,0,0,0,0,0,0,0,0,0,0,0,0,0,0,0,0,0,0,0,0,0,0,0,0,0,0,0,0,0,0,0,0,0,0,0,0,0,0,0,0,0,0,0,0,0,0,0,0,0,0,0,0,0,0,0,0,0,0,0,0,0,0,0,0,0,0,0,0,
0,0,0,0,0,0,0,0,0,0,0,0,0,0,0,0,0,0,0,0,0,0,0,0,0,0,0,0,0,0,0,0,0,0,0,0,0,0,0,0,0,0,0,0,0,0,0,0,0,0,0,0,0,0,0,0,0,0,0,0,0,0,0,0,0,0,0,0,0,0,0,0,0,0,0,0,0,0,0,0,
0,0,0,0,0,0,0,0,0,0,0,0,0,0,0,0,0,0,0,0,0,0,0,0,0,0,0,0,0,0,0,0,0,0,0,0,0,0,0,0,0,0,0,0,0,0,0,0,0,0,0,0,0,0,0,0,0,0,0,0,0,0,0,0,0,0,0,0,0,0,0,0,0,0,0,0,0,0,0,0,
0,0,0,0,0,0,0,0,0,0,0,0,0,0,0,0,0,0,0,0,0,0,0,0,0,0,0,0,0,0,0,0,0,0,0,0,0,0,0,0,0,0,0,0,0,0,0,0,0,0,0,0,0,0,0,0,0,0,0,0,0,0,0,0,0,0,0,0,0,0,0,0,0,0,0,0,0,0,0,0,
0,0,0,0,0,0,0,0,0,0,0,0,0,0,0,0,0,0,0,0,0,0,0,0,0,0,0,0,0,0,0,0,0,0,0,0,0,0,0,0,0,0,0,0,0,0,0,0,0,0,0,0,0,0,0,0,0,0,0,0,0,0,0,0,0,0,0,0,0,0,0,0,0,0,0,0,0,0,0,0,
0,0,0,0,0,0,0,0,0,0,0,0,0,0,0,0,0,0,0,0,0,0,0,0,0,0,0,0,0,0,0,0,0,0,0,0,0,0,0,0,0,0,0,0,0,0,0,0,0,0,0,0,0,0,0,0,0,0,0,0,0,0,0,0,0,0,0,0,0,0,0,0,0,0,0,0,0,0,0,0,
0,0,0,0,0,0,0,0,0,0,0,0,0,0,0,0,0,0,0,0,0,0,0,0,0,0,0,0,0,0,0,0,0,0,0,0,0,0,0,0,0,0,0,0,0,0,0,0,0,0,0,0,0,0,0,0,0,0,0,0,0,0,0,0,0,0,0,0,0,0,0,0,0,0,0,0,0,0,0,0,
0,0,0,0,0,0,0,0,0,0,0,0,0,0,0,0,0,0,0,0,0,0,0,0,0,0,0,0,0,0,0,0,0,0,0,0,0,0,0,0,0,0,0,0,0,0,0,0,0,0,0,0,0,0,0,0,0,0,0,0,0,0,0,0,0,0,0,0,0,0,0,0,0,0,0,0,0,0,0,0,
0,0,0,0,0,0,0,0,0,0,0,0,0,0,0,0,0,0,0,0,0,0,0,0,0,0,0,0,0,0,0,0,0,0,0,0,0,0,0,0,0,0,0,0,0,0,0,0,0,0,0,0,0,0,0,0,0,0,0,0,0,0,0,0,0,0,0,0,0,0,0,0,0,0,0,0,0,0,0,0,
0,0,0,0,0,0,0,0,0,0,0,0,0,0,0,0,0,0,0,0,0,0,0,0,0,0,0,0,0,0,0,0,0,0,0,0,0,0,0,0,0,0,0,0,0,0,0,0,0,0,0,0,0,0,0,0,0,0,0,0,0,0,0,0,0,0,0,0,0,0,0,0,0,0,0,0,0,0,0,0,
0,0,0,0,0,0,0,0,0,0,0,0,0,0,0,0,0,0,0,0,0,0,0,0,0,0,0,0,0,0,0,0,0,0,0,0,0,0,0,0,0,0,0,0,0,0,0,0,0,0,0,0,0,0,0,0,0,0,0,0,0,0,0,0,0,0,0,0,0,0,0,0,0,0,0,0,0,0,0,0,
0,0,0,0,0,0,0,0,0,0,0,0,0,0,0,0,0,0,0,0,0,0,0,0,0,0,0,0,0,0,0,0,0,0,0,0,0,0,0,0,0,0,0,0,0,0,0,0,0,0,0,0,0,0,0,0,0,0,0,0,0,0,0,0,0,0,0,0,0,0,0,0,0,0,0,0,0,0,0,0,
0,0,0,0,0,0,0,0,0,0,0,0,0,0,0,0,0,0,0,0,0,0,0,0,0,0,0,0,0,0,0,0,0,0,0,0,0,0,0,0,0,0,0,0,0,0,0,0,0,0,0,0,0,0,0,0,0,0,0,0,0,0,0,0,0,0,0,0,0,0,0,0,0,0,0,0,0,0,0,0,
0,0,0,0,0,0,0,0,0,0,0,0,0,0,0,0,0,0,0,0,0,0,0,0,0,0,0,0,0,0,0,0,0,0,0,0,0,0,0,0,0,0,0,0,0,0,0,0,0,0,0,0,0,0,0,0,0,0,0,0,0,0,0,0,0,0,0,0,0,0,0,0,0,0,0,0,0,0,0,0,
0,0,0,0,0,0,0,0,0,0,0,0,0,0,0,0,0,0,0,0,0,0,0,0,0,0,0,0,0,0,0,0,0,0,0,0,0,0,0,0,0,0,0,0,0,0,0,0,0,0,0,0,0,0,0,0,0,0,0,0,0,0,0,0,0,0,0,0,0,0,0,0,0,0,0,0,0,0,0,0,
0,0,0,0,0,0,0,0,0,0,0,0,0,0,0,0,0,0,0,0,0,0,0,0,0,0,0,0,0,0,0,0,0,0,0,0,0,0,0,0,0,0,0,0,0,0,0,0,0,0,0,0,0,0,0,0,0,0,0,0,0,0,0,0,0,0,0,0,0,0,0,0,0,0,0,0,0,0,0,0
</data>
 </layer>
 <layer id="2" name="Objects" width="80" height="50">
  <data encoding="csv">
0,0,0,0,0,0,0,0,0,0,0,0,0,0,0,0,0,0,0,0,0,0,0,0,0,0,0,0,0,0,0,0,0,0,0,0,0,0,0,0,0,0,0,0,0,0,0,0,0,0,0,0,0,0,0,0,0,0,0,0,0,0,0,0,0,0,0,0,0,0,0,0,0,0,0,0,0,0,0,0,
0,0,0,0,0,0,0,0,0,0,0,0,0,0,0,0,0,0,0,0,0,0,0,0,0,0,0,0,0,0,0,0,0,0,0,0,0,0,0,0,0,0,0,0,0,0,0,0,0,0,0,0,0,0,0,0,0,0,0,0,0,0,0,0,0,0,0,0,0,0,0,0,0,0,0,0,0,0,0,0,
0,0,0,0,0,0,0,0,0,0,0,0,0,0,0,0,0,0,0,0,0,0,0,0,0,0,0,0,0,0,0,0,0,0,0,0,0,0,0,0,0,0,0,0,0,0,0,0,0,0,0,0,0,0,0,0,0,0,0,0,0,0,0,0,0,0,0,0,0,0,0,0,0,0,0,0,0,0,0,0,
0,0,0,0,0,0,0,0,0,0,0,0,0,0,0,0,0,0,0,0,0,0,0,0,0,0,0,0,0,0,0,0,0,0,0,0,0,0,0,0,0,0,0,0,0,0,0,0,0,0,0,0,0,0,0,0,0,0,0,0,0,0,0,0,0,0,0,0,0,0,0,0,0,0,0,0,0,0,0,0,
0,0,0,0,0,0,0,0,0,0,0,0,0,0,0,0,0,0,0,0,0,0,0,0,0,0,0,0,0,0,0,0,0,0,0,0,0,0,0,0,0,0,0,0,0,0,0,0,0,0,0,0,0,0,0,0,0,0,0,0,0,0,0,0,0,0,0,0,0,0,0,0,0,0,0,0,0,0,0,0,
0,0,0,0,0,0,0,0,0,0,0,0,0,0,0,0,0,0,0,0,0,0,0,0,0,0,0,0,0,0,0,0,0,0,0,0,0,0,0,0,0,0,0,0,0,0,0,0,0,0,0,0,0,0,0,0,0,0,0,0,0,0,0,0,0,0,0,0,0,0,0,0,0,0,0,0,0,0,0,0,
0,0,0,0,0,0,0,0,0,0,0,0,0,0,0,0,0,0,0,0,0,0,0,0,0,0,0,0,0,0,0,0,0,0,0,0,0,0,0,0,0,0,0,0,0,0,0,0,0,0,0,0,0,0,0,0,0,0,0,0,0,0,0,0,0,0,0,0,0,0,0,0,0,0,0,0,0,0,0,0,
0,0,0,0,0,0,0,0,0,0,0,0,0,0,0,0,0,0,0,0,0,0,0,0,0,0,0,0,0,0,0,0,0,0,0,0,0,0,0,0,0,0,0,0,0,0,0,0,0,0,0,0,0,0,0,0,0,0,0,0,0,0,0,0,0,0,0,0,0,0,0,0,0,0,0,0,0,0,0,0,
0,0,0,0,0,0,0,0,0,0,0,0,0,0,0,0,0,0,0,0,0,0,0,0,0,0,0,0,0,0,0,0,0,0,0,0,0,0,0,0,0,0,0,0,0,0,0,0,0,0,0,0,0,0,0,0,0,0,0,0,0,0,0,0,0,0,0,0,0,0,0,0,0,0,0,0,0,0,0,0,
0,0,0,0,0,0,0,0,0,0,0,0,0,0,0,0,0,0,0,0,0,0,0,0,0,0,0,0,0,0,0,0,0,0,0,0,0,0,0,0,0,0,0,0,0,0,0,0,0,0,0,0,0,0,0,0,0,0,0,0,0,0,0,0,0,0,0,0,0,0,0,0,0,0,0,0,0,0,0,0,
0,0,0,0,0,0,0,0,0,0,0,0,0,0,0,0,0,0,0,0,0,0,0,0,0,0,0,0,0,0,0,0,0,0,0,0,0,0,0,0,0,0,0,0,0,0,0,0,0,0,0,0,0,0,0,0,0,0,0,0,0,0,0,0,0,0,0,0,0,0,0,0,0,0,0,0,0,0,0,0,
0,0,0,0,0,0,0,0,0,0,0,0,0,0,0,0,0,0,0,0,0,0,0,0,0,0,0,0,0,0,0,0,0,0,0,0,0,0,0,0,0,0,0,0,0,0,0,0,0,0,0,0,0,0,0,0,0,0,0,0,0,0,0,0,0,0,0,0,0,0,0,0,0,0,0,0,0,0,0,0,
0,0,0,0,0,0,0,0,0,0,0,0,0,0,0,0,0,0,0,0,0,0,0,0,0,0,0,0,0,0,0,0,0,0,0,0,0,0,0,0,0,0,0,0,0,0,0,0,0,0,0,0,0,0,0,0,0,0,0,0,0,0,0,0,0,0,0,0,0,0,0,0,0,0,0,0,0,0,0,0,
0,0,0,0,0,0,0,0,0,0,0,0,0,0,0,0,0,0,0,0,0,0,0,0,0,0,0,0,0,0,0,0,0,0,0,0,0,0,0,0,0,0,0,0,0,0,0,0,0,0,0,0,0,0,0,0,0,0,0,0,0,0,0,0,0,0,0,0,0,0,0,0,0,0,0,0,0,0,0,0,
0,0,0,0,0,0,0,0,0,0,0,0,0,0,0,0,0,0,0,0,0,0,0,0,0,0,0,0,0,0,0,0,0,0,0,0,0,0,0,0,0,0,0,0,0,0,0,0,0,0,0,0,0,0,0,0,0,0,0,0,0,0,0,0,0,0,0,0,0,0,0,0,0,0,0,0,0,0,0,0,
0,0,0,0,0,0,0,0,0,0,0,0,0,0,0,0,0,0,0,0,0,0,0,0,0,0,0,0,0,0,0,0,0,0,0,0,0,0,0,0,0,0,0,0,0,0,0,0,0,0,0,0,0,0,0,0,0,0,0,0,0,0,0,0,0,0,0,0,0,0,0,0,0,0,0,0,0,0,0,0,
0,0,0,0,0,0,0,0,0,0,0,0,0,0,0,0,0,0,0,0,0,0,0,0,0,0,0,0,0,0,0,0,0,0,0,0,0,0,0,0,0,0,0,0,0,0,0,0,0,0,0,0,0,0,0,0,0,0,0,0,0,0,0,0,0,0,0,0,0,0,0,0,0,0,0,0,0,0,0,0,
0,0,0,0,0,0,0,0,0,0,0,0,0,0,0,0,0,0,0,0,0,0,0,0,0,0,0,0,0,0,0,0,0,0,0,0,0,0,0,0,0,0,0,0,0,0,0,0,0,0,0,0,0,0,0,0,0,0,0,0,0,0,0,0,0,0,0,0,0,0,0,0,0,0,0,0,0,0,0,0,
0,0,0,0,0,0,0,0,0,0,0,0,0,0,0,0,0,0,0,0,0,0,0,0,0,0,0,0,0,0,0,0,0,0,0,0,0,0,0,0,0,0,0,0,0,0,0,0,0,0,0,0,0,0,0,0,0,0,0,0,0,0,0,0,0,0,0,0,0,0,0,0,0,0,0,0,0,0,0,0,
0,0,0,0,0,0,0,0,0,0,0,0,0,0,0,0,0,0,0,0,0,0,0,0,0,0,0,0,0,0,0,0,0,0,0,0,0,0,0,0,0,0,0,0,0,0,0,0,0,0,0,0,0,0,0,0,0,0,0,0,0,0,0,0,0,0,0,0,0,0,0,0,0,0,0,0,0,0,0,0,
0,0,0,0,0,0,0,0,0,0,0,0,0,0,0,0,0,0,0,0,0,0,0,0,0,0,0,0,0,0,0,0,0,0,0,0,0,0,0,0,0,0,0,0,0,0,0,0,0,0,0,0,0,0,0,0,0,0,0,0,0,0,0,0,0,0,0,0,0,0,0,0,0,0,0,0,0,0,0,0,
0,0,0,0,0,0,0,0,0,0,0,0,0,0,0,0,0,0,0,0,0,0,0,0,0,0,0,0,0,0,0,0,0,0,0,0,0,0,0,0,0,0,0,0,0,0,0,0,0,0,0,0,0,0,0,0,0,0,0,0,0,0,0,0,0,0,0,0,0,0,0,0,0,0,0,0,0,0,0,0,
0,0,0,0,0,0,0,0,0,0,0,0,0,0,0,0,0,0,0,0,0,0,0,0,0,0,0,0,0,0,0,0,0,0,0,0,0,0,0,0,0,0,0,0,0,0,0,0,0,0,0,0,0,0,0,0,0,0,0,0,0,0,0,0,0,0,0,0,0,0,0,0,0,0,0,0,0,0,0,0,
0,0,0,0,0,0,0,0,0,0,0,0,0,0,0,0,0,0,0,0,0,0,0,0,0,0,0,0,0,0,0,0,0,0,0,0,0,0,0,0,0,0,0,0,0,0,0,0,0,0,0,0,0,0,0,0,0,0,0,0,0,0,0,0,0,0,0,0,0,0,0,0,0,0,0,0,0,0,0,0,
0,0,0,0,0,0,0,0,0,0,0,0,0,0,0,0,0,0,0,0,0,0,0,0,0,0,0,0,0,0,0,0,0,0,0,0,0,0,0,0,0,0,0,0,0,0,0,0,0,0,0,0,0,0,0,0,0,0,0,0,0,0,0,0,0,0,0,0,0,0,0,0,0,0,0,0,0,0,0,0,
0,0,0,0,0,0,0,0,0,0,0,0,0,0,0,0,0,0,0,0,0,0,0,0,0,0,0,0,0,0,0,0,0,0,0,0,0,0,0,0,0,0,0,0,0,0,0,0,0,0,0,0,0,0,0,0,0,0,0,0,0,0,0,0,0,0,0,0,0,0,0,0,0,0,0,0,0,0,0,0,
0,0,0,0,0,0,0,0,0,0,0,0,0,0,0,0,0,0,0,0,0,0,0,0,0,0,0,0,0,0,0,0,0,0,0,0,0,0,0,0,0,0,0,0,0,0,0,0,0,0,0,0,0,0,0,0,0,0,0,0,0,0,0,0,0,0,0,0,0,0,0,0,0,0,0,0,0,0,0,0,
0,0,0,0,0,0,0,0,0,0,0,0,0,0,0,0,0,0,0,0,0,0,0,0,0,0,0,0,0,0,0,0,0,0,0,0,0,0,0,0,0,0,0,0,0,0,0,0,0,0,0,0,0,0,0,0,0,0,0,0,0,0,0,0,0,0,0,0,0,0,0,0,0,0,0,0,0,0,0,0,
0,0,0,0,0,0,0,0,0,0,0,0,0,0,0,0,0,0,0,0,0,0,0,0,0,0,0,0,0,0,0,0,0,0,0,0,0,0,0,0,0,0,0,0,0,0,0,0,0,0,0,0,0,0,0,0,0,0,0,0,0,0,0,0,0,0,0,0,0,0,0,0,0,0,0,0,0,0,0,0,
0,0,0,0,0,0,0,0,0,0,0,0,0,0,0,0,0,0,0,0,0,0,0,0,0,0,0,0,0,0,0,0,0,0,0,0,0,0,0,0,0,0,0,0,0,0,0,0,0,0,0,0,0,0,0,0,0,0,0,0,0,0,0,0,0,0,0,0,0,0,0,0,0,0,0,0,0,0,0,0,
0,0,0,0,0,0,0,0,0,0,0,0,0,0,0,0,0,0,0,0,0,0,0,0,0,0,0,0,0,0,0,0,0,0,0,0,0,0,0,0,0,0,0,0,0,0,0,0,0,0,0,0,0,0,0,0,0,0,0,0,0,0,0,0,0,0,0,0,0,0,0,0,0,0,0,0,0,0,0,0,
0,0,0,0,0,0,0,0,0,0,0,0,0,0,0,0,0,0,0,0,0,0,0,0,0,0,0,0,0,0,0,0,0,0,0,0,0,0,0,0,0,0,0,0,0,0,0,0,0,0,0,0,0,0,0,0,0,0,0,0,0,0,0,0,0,0,0,0,0,0,0,0,0,0,0,0,0,0,0,0,
0,0,0,0,0,0,0,0,0,0,0,0,0,0,0,0,0,0,0,0,0,0,0,0,0,0,0,0,0,0,0,0,0,0,0,0,0,0,0,0,0,0,0,0,0,0,0,0,0,0,0,0,0,0,0,0,0,0,0,0,0,0,0,0,0,0,0,0,0,0,0,0,0,0,0,0,0,0,0,0,
0,0,0,0,0,0,0,0,0,0,0,0,0,0,0,0,0,0,0,0,0,0,0,0,0,0,0,0,0,0,0,0,0,0,0,0,0,0,0,0,0,0,0,0,0,0,0,0,0,0,0,0,0,0,0,0,0,0,0,0,0,0,0,0,0,0,0,0,0,0,0,0,0,0,0,0,0,0,0,0,
0,0,0,0,0,0,0,0,0,0,0,0,0,0,0,0,0,0,0,0,0,0,0,0,0,0,0,0,0,0,0,0,0,0,0,0,0,0,0,0,0,0,0,0,0,0,0,0,0,0,0,0,0,0,0,0,0,0,0,0,0,0,0,0,0,0,0,0,0,0,0,0,0,0,0,0,0,0,0,0,
0,0,0,0,0,0,0,0,0,0,0,0,0,0,0,0,0,0,0,0,0,0,0,0,0,0,0,0,0,0,0,0,0,0,0,0,0,0,0,0,0,0,0,0,0,0,0,0,0,0,0,0,0,0,0,0,0,0,0,0,0,0,0,0,0,0,0,0,0,0,0,0,0,0,0,0,0,0,0,0,
0,0,0,0,0,0,0,0,0,0,0,0,0,0,0,0,0,0,0,0,0,0,0,0,0,0,0,0,0,0,0,0,0,0,0,0,0,0,0,0,0,0,0,0,0,0,0,0,0,0,0,0,0,0,0,0,0,0,0,0,0,0,0,0,0,0,0,0,0,0,0,0,0,0,0,0,0,0,0,0,
0,0,0,0,0,0,0,0,0,0,0,0,0,0,0,0,0,0,0,0,0,0,0,0,0,0,0,0,0,0,0,0,0,0,0,0,0,0,0,0,0,0,0,0,0,0,0,0,0,0,0,0,0,0,0,0,0,0,0,0,0,0,0,0,0,0,0,0,0,0,0,0,0,0,0,0,0,0,0,0,
0,0,0,0,0,0,0,0,0,0,0,0,0,0,0,0,0,0,0,0,0,0,0,0,0,0,0,0,0,0,0,0,0,0,0,0,0,0,0,0,0,0,0,0,0,0,0,0,0,0,0,0,0,0,0,0,0,0,0,0,0,0,0,0,0,0,0,0,0,0,0,0,0,0,0,0,0,0,0,0,
0,0,0,0,0,0,0,0,0,0,0,0,0,0,0,0,0,0,0,0,0,0,0,0,0,0,0,0,0,0,0,0,0,0,0,0,0,0,0,0,0,0,0,0,0,0,0,0,0,0,0,0,0,0,0,0,0,0,0,0,0,0,0,0,0,0,0,0,0,0,0,0,0,0,0,0,0,0,0,0,
0,0,0,0,0,0,0,0,0,0,0,0,0,0,0,0,0,0,0,0,0,0,0,0,0,0,0,0,0,0,0,0,0,0,0,0,0,0,0,0,0,0,0,0,0,0,0,0,0,0,0,0,0,0,0,0,0,0,0,0,0,0,0,0,0,0,0,0,0,0,0,0,0,0,0,0,0,0,0,0,
0,0,0,0,0,0,0,0,0,0,0,0,0,0,0,0,0,0,0,0,0,0,0,0,0,0,0,0,0,0,0,0,0,0,0,0,0,0,0,0,0,0,0,0,0,0,0,0,0,0,0,0,0,0,0,0,0,0,0,0,0,0,0,0,0,0,0,0,0,0,0,0,0,0,0,0,0,0,0,0,
0,0,0,0,0,0,0,0,0,0,0,0,0,0,0,0,0,0,0,0,0,0,0,0,0,0,0,0,0,0,0,0,0,0,0,0,0,0,0,0,0,0,0,0,0,0,0,0,0,0,0,0,0,0,0,0,0,0,0,0,0,0,0,0,0,0,0,0,0,0,0,0,0,0,0,0,0,0,0,0,
0,0,0,0,0,0,0,0,0,0,0,0,0,0,0,0,0,0,0,0,0,0,0,0,0,0,0,0,0,0,0,0,0,0,0,0,0,0,0,0,0,0,0,0,0,0,0,0,0,0,0,0,0,0,0,0,0,0,0,0,0,0,0,0,0,0,0,0,0,0,0,0,0,0,0,0,0,0,0,0,
0,0,0,0,0,0,0,0,0,0,0,0,0,0,0,0,0,0,0,0,0,0,0,0,0,0,0,0,0,0,0,0,0,0,0,0,0,0,0,0,0,0,0,0,0,0,0,0,0,0,0,0,0,0,0,0,0,0,0,0,0,0,0,0,0,0,0,0,0,0,0,0,0,0,0,0,0,0,0,0,
0,0,0,0,0,0,0,0,0,0,0,0,0,0,0,0,0,0,0,0,0,0,0,0,0,0,0,0,0,0,0,0,0,0,0,0,0,0,0,0,0,0,0,0,0,0,0,0,0,0,0,0,0,0,0,0,0,0,0,0,0,0,0,0,0,0,0,0,0,0,0,0,0,0,0,0,0,0,0,0,
0,0,0,0,0,0,0,0,0,0,0,0,0,0,0,0,0,0,0,0,0,0,0,0,0,0,0,0,0,0,0,0,0,0,0,0,0,0,0,0,0,0,0,0,0,0,0,0,0,0,0,0,0,0,0,0,0,0,0,0,0,0,0,0,0,0,0,0,0,0,0,0,0,0,0,0,0,0,0,0,
0,0,0,0,0,0,0,0,0,0,0,0,0,0,0,0,0,0,0,0,0,0,0,0,0,0,0,0,0,0,0,0,0,0,0,0,0,0,0,0,0,0,0,0,0,0,0,0,0,0,0,0,0,0,0,0,0,0,0,0,0,0,0,0,0,0,0,0,0,0,0,0,0,0,0,0,0,0,0,0,
0,0,0,0,0,0,0,0,0,0,0,0,0,0,0,0,0,0,0,0,0,0,0,0,0,0,0,0,0,0,0,0,0,0,0,0,0,0,0,0,0,0,0,0,0,0,0,0,0,0,0,0,0,0,0,0,0,0,0,0,0,0,0,0,0,0,0,0,0,0,0,0,0,0,0,0,0,0,0,0,
0,0,0,0,0,0,0,0,0,0,0,0,0,0,0,0,0,0,0,0,0,0,0,0,0,0,0,0,0,0,0,0,0,0,0,0,0,0,0,0,0,0,0,0,0,0,0,0,0,0,0,0,0,0,0,0,0,0,0,0,0,0,0,0,0,0,0,0,0,0,0,0,0,0,0,0,0,0,0,0
</data>
 </layer>
 <layer id="11" name="Objects2" width="80" height="50">
  <data encoding="csv">
0,0,0,0,0,0,0,0,0,0,0,0,0,0,0,0,0,0,0,0,0,0,0,0,0,0,0,0,0,0,0,0,0,0,0,0,0,0,0,0,0,0,0,0,0,0,0,0,0,0,0,0,0,0,0,0,0,0,0,0,0,0,0,0,0,0,0,0,0,0,0,0,0,0,0,0,0,0,0,0,
0,0,0,0,0,0,0,0,0,0,0,0,0,0,0,0,0,0,0,0,0,0,0,0,0,0,0,0,0,0,0,0,0,0,0,0,0,0,0,0,0,0,0,0,0,0,0,0,0,0,0,0,0,0,0,0,0,0,0,0,0,0,0,0,0,0,0,0,0,0,0,0,0,0,0,0,0,0,0,0,
0,0,0,0,0,0,0,0,0,0,0,0,0,0,0,0,0,0,0,0,0,0,0,0,0,0,0,0,0,0,0,0,0,0,0,0,0,0,0,0,0,0,0,0,0,0,0,0,0,0,0,0,0,0,0,0,0,0,0,0,0,0,0,0,0,0,0,0,0,0,0,0,0,0,0,0,0,0,0,0,
0,0,0,0,0,0,0,0,0,0,0,0,0,0,0,0,0,0,0,0,0,0,0,0,0,0,0,0,0,0,0,0,0,0,0,0,0,0,0,0,0,0,0,0,0,0,0,0,0,0,0,0,0,0,0,0,0,0,0,0,0,0,0,0,0,0,0,0,0,0,0,0,0,0,0,0,0,0,0,0,
0,0,0,0,0,0,0,0,0,0,0,0,0,0,0,0,0,0,0,0,0,0,0,0,0,0,0,0,0,0,0,0,0,0,0,0,0,0,0,0,0,0,0,0,0,0,0,0,0,0,0,0,0,0,0,0,0,0,0,0,0,0,0,0,0,0,0,0,0,0,0,0,0,0,0,0,0,0,0,0,
0,0,0,0,0,0,0,0,0,0,0,0,0,0,0,0,0,0,0,0,0,0,0,0,0,0,0,0,0,0,0,0,0,0,0,0,0,0,0,0,0,0,0,0,0,0,0,0,0,0,0,0,0,0,0,0,0,0,0,0,0,0,0,0,0,0,0,0,0,0,0,0,0,0,0,0,0,0,0,0,
0,0,0,0,0,0,0,0,0,0,0,0,0,0,0,0,0,0,0,0,0,0,0,0,0,0,0,0,0,0,0,0,0,0,0,0,0,0,0,0,0,0,0,0,0,0,0,0,0,0,0,0,0,0,0,0,0,0,0,0,0,0,0,0,0,0,0,0,0,0,0,0,0,0,0,0,0,0,0,0,
0,0,0,0,0,0,0,0,0,0,0,0,0,0,0,0,0,0,0,0,0,0,0,0,0,0,0,0,0,0,0,0,0,0,0,0,0,0,0,0,0,0,0,0,0,0,0,0,0,0,0,0,0,0,0,0,0,0,0,0,0,0,0,0,0,0,0,0,0,0,0,0,0,0,0,0,0,0,0,0,
0,0,0,0,0,0,0,0,0,0,0,0,0,0,0,0,0,0,0,0,0,0,0,0,0,0,0,0,0,0,0,0,0,0,0,0,0,0,0,0,0,0,0,0,0,0,0,0,0,0,0,0,0,0,0,0,0,0,0,0,0,0,0,0,0,0,0,0,0,0,0,0,0,0,0,0,0,0,0,0,
0,0,0,0,0,0,0,0,0,0,0,0,0,0,0,0,0,0,0,0,0,0,0,0,0,0,0,0,0,0,0,0,0,0,0,0,0,0,0,0,0,0,0,0,0,0,0,0,0,0,0,0,0,0,0,0,0,0,0,0,0,0,0,0,0,0,0,0,0,0,0,0,0,0,0,0,0,0,0,0,
0,0,0,0,0,0,0,0,0,0,0,0,0,0,0,0,0,0,0,0,0,0,0,0,0,0,0,0,0,0,0,0,0,0,0,0,0,0,0,0,0,0,0,0,0,0,0,0,0,0,0,0,0,0,0,0,0,0,0,0,0,0,0,0,0,0,0,0,0,0,0,0,0,0,0,0,0,0,0,0,
0,0,0,0,0,0,0,0,0,0,0,0,0,0,0,0,0,0,0,0,0,0,0,0,0,0,0,0,0,0,0,0,0,0,0,0,0,0,0,0,0,0,0,0,0,0,0,0,0,0,0,0,0,0,0,0,0,0,0,0,0,0,0,0,0,0,0,0,0,0,0,0,0,0,0,0,0,0,0,0,
0,0,0,0,0,0,0,0,0,0,0,0,0,0,0,0,0,0,0,0,0,0,0,0,0,0,0,0,0,0,0,0,0,0,0,0,0,0,0,0,0,0,0,0,0,0,0,0,0,0,0,0,0,0,0,0,0,0,0,0,0,0,0,0,0,0,0,0,0,0,0,0,0,0,0,0,0,0,0,0,
0,0,0,0,0,0,0,0,0,0,0,0,0,0,0,0,0,0,0,0,0,0,0,0,0,0,0,0,0,0,0,0,0,0,0,0,0,0,0,0,0,0,0,0,0,0,0,0,0,0,0,0,0,0,0,0,0,0,0,0,0,0,0,0,0,0,0,0,0,0,0,0,0,0,0,0,0,0,0,0,
0,0,0,0,0,0,0,0,0,0,0,0,0,0,0,0,0,0,0,0,0,0,0,0,0,0,0,0,0,0,0,0,0,0,0,0,0,0,0,0,0,0,0,0,0,0,0,0,0,0,0,0,0,0,0,0,0,0,0,0,0,0,0,0,0,0,0,0,0,0,0,0,0,0,0,0,0,0,0,0,
0,0,0,0,0,0,0,0,0,0,0,0,0,0,0,0,0,0,0,0,0,0,0,0,0,0,0,0,0,0,0,0,0,0,0,0,0,0,0,0,0,0,0,0,0,0,0,0,0,0,0,0,0,0,0,0,0,0,0,0,0,0,0,0,0,0,0,0,0,0,0,0,0,0,0,0,0,0,0,0,
0,0,0,0,0,0,0,0,0,0,0,0,0,0,0,0,0,0,0,0,0,0,0,0,0,0,0,0,0,0,0,0,0,0,0,0,0,0,0,0,0,0,0,0,0,0,0,0,0,0,0,0,0,0,0,0,0,0,0,0,0,0,0,0,0,0,0,0,0,0,0,0,0,0,0,0,0,0,0,0,
0,0,0,0,0,0,0,0,0,0,0,0,0,0,0,0,0,0,0,0,0,0,0,0,0,0,0,0,0,0,0,0,0,0,0,0,0,0,0,0,0,0,0,0,0,0,0,0,0,0,0,0,0,0,0,0,0,0,0,0,0,0,0,0,0,0,0,0,0,0,0,0,0,0,0,0,0,0,0,0,
0,0,0,0,0,0,0,0,0,0,0,0,0,0,0,0,0,0,0,0,0,0,0,0,0,0,0,0,0,0,0,0,0,0,0,0,0,0,0,0,0,0,0,0,0,0,0,0,0,0,0,0,0,0,0,0,0,0,0,0,0,0,0,0,0,0,0,0,0,0,0,0,0,0,0,0,0,0,0,0,
0,0,0,0,0,0,0,0,0,0,0,0,0,0,0,0,0,0,0,0,0,0,0,0,0,0,0,0,0,0,0,0,0,0,0,0,0,0,0,0,0,0,0,0,0,0,0,0,0,0,0,0,0,0,0,0,0,0,0,0,0,0,0,0,0,0,0,0,0,0,0,0,0,0,0,0,0,0,0,0,
0,0,0,0,0,0,0,0,0,0,0,0,0,0,0,0,0,0,0,0,0,0,0,0,0,0,0,0,0,0,0,0,0,0,0,0,0,0,0,0,0,0,0,0,0,0,0,0,0,0,0,0,0,0,0,0,0,0,0,0,0,0,0,0,0,0,0,0,0,0,0,0,0,0,0,0,0,0,0,0,
0,0,0,0,0,0,0,0,0,0,0,0,0,0,0,0,0,0,0,0,0,0,0,0,0,0,0,0,0,0,0,0,0,0,0,0,0,0,0,0,0,0,0,0,0,0,0,0,0,0,0,0,0,0,0,0,0,0,0,0,0,0,0,0,0,0,0,0,0,0,0,0,0,0,0,0,0,0,0,0,
0,0,0,0,0,0,0,0,0,0,0,0,0,0,0,0,0,0,0,0,0,0,0,0,0,0,0,0,0,0,0,0,0,0,0,0,0,0,0,0,0,0,0,0,0,0,0,0,0,0,0,0,0,0,0,0,0,0,0,0,0,0,0,0,0,0,0,0,0,0,0,0,0,0,0,0,0,0,0,0,
0,0,0,0,0,0,0,0,0,0,0,0,0,0,0,0,0,0,0,0,0,0,0,0,0,0,0,0,0,0,0,0,0,0,0,0,0,0,0,0,0,0,0,0,0,0,0,0,0,0,0,0,0,0,0,0,0,0,0,0,0,0,0,0,0,0,0,0,0,0,0,0,0,0,0,0,0,0,0,0,
0,0,0,0,0,0,0,0,0,0,0,0,0,0,0,0,0,0,0,0,0,0,0,0,0,0,0,0,0,0,0,0,0,0,0,0,0,0,0,0,0,0,0,0,0,0,0,0,0,0,0,0,0,0,0,0,0,0,0,0,0,0,0,0,0,0,0,0,0,0,0,0,0,0,0,0,0,0,0,0,
0,0,0,0,0,0,0,0,0,0,0,0,0,0,0,0,0,0,0,0,0,0,0,0,0,0,0,0,0,0,0,0,0,0,0,0,0,0,0,0,0,0,0,0,0,0,0,0,0,0,0,0,0,0,0,0,0,0,0,0,0,0,0,0,0,0,0,0,0,0,0,0,0,0,0,0,0,0,0,0,
0,0,0,0,0,0,0,0,0,0,0,0,0,0,0,0,0,0,0,0,0,0,0,0,0,0,0,0,0,0,0,0,0,0,0,0,0,0,0,0,0,0,0,0,0,0,0,0,0,0,0,0,0,0,0,0,0,0,0,0,0,0,0,0,0,0,0,0,0,0,0,0,0,0,0,0,0,0,0,0,
0,0,0,0,0,0,0,0,0,0,0,0,0,0,0,0,0,0,0,0,0,0,0,0,0,0,0,0,0,0,0,0,0,0,0,0,0,0,0,0,0,0,0,0,0,0,0,0,0,0,0,0,0,0,0,0,0,0,0,0,0,0,0,0,0,0,0,0,0,0,0,0,0,0,0,0,0,0,0,0,
0,0,0,0,0,0,0,0,0,0,0,0,0,0,0,0,0,0,0,0,0,0,0,0,0,0,0,0,0,0,0,0,0,0,0,0,0,0,0,0,0,0,0,0,0,0,0,0,0,0,0,0,0,0,0,0,0,0,0,0,0,0,0,0,0,0,0,0,0,0,0,0,0,0,0,0,0,0,0,0,
0,0,0,0,0,0,0,0,0,0,0,0,0,0,0,0,0,0,0,0,0,0,0,0,0,0,0,0,0,0,0,0,0,0,0,0,0,0,0,0,0,0,0,0,0,0,0,0,0,0,0,0,0,0,0,0,0,0,0,0,0,0,0,0,0,0,0,0,0,0,0,0,0,0,0,0,0,0,0,0,
0,0,0,0,0,0,0,0,0,0,0,0,0,0,0,0,0,0,0,0,0,0,0,0,0,0,0,0,0,0,0,0,0,0,0,0,0,0,0,0,0,0,0,0,0,0,0,0,0,0,0,0,0,0,0,0,0,0,0,0,0,0,0,0,0,0,0,0,0,0,0,0,0,0,0,0,0,0,0,0,
0,0,0,0,0,0,0,0,0,0,0,0,0,0,0,0,0,0,0,0,0,0,0,0,0,0,0,0,0,0,0,0,0,0,0,0,0,0,0,0,0,0,0,0,0,0,0,0,0,0,0,0,0,0,0,0,0,0,0,0,0,0,0,0,0,0,0,0,0,0,0,0,0,0,0,0,0,0,0,0,
0,0,0,0,0,0,0,0,0,0,0,0,0,0,0,0,0,0,0,0,0,0,0,0,0,0,0,0,0,0,0,0,0,0,0,0,0,0,0,0,0,0,0,0,0,0,0,0,0,0,0,0,0,0,0,0,0,0,0,0,0,0,0,0,0,0,0,0,0,0,0,0,0,0,0,0,0,0,0,0,
0,0,0,0,0,0,0,0,0,0,0,0,0,0,0,0,0,0,0,0,0,0,0,0,0,0,0,0,0,0,0,0,0,0,0,0,0,0,0,0,0,0,0,0,0,0,0,0,0,0,0,0,0,0,0,0,0,0,0,0,0,0,0,0,0,0,0,0,0,0,0,0,0,0,0,0,0,0,0,0,
0,0,0,0,0,0,0,0,0,0,0,0,0,0,0,0,0,0,0,0,0,0,0,0,0,0,0,0,0,0,0,0,0,0,0,0,0,0,0,0,0,0,0,0,0,0,0,0,0,0,0,0,0,0,0,0,0,0,0,0,0,0,0,0,0,0,0,0,0,0,0,0,0,0,0,0,0,0,0,0,
0,0,0,0,0,0,0,0,0,0,0,0,0,0,0,0,0,0,0,0,0,0,0,0,0,0,0,0,0,0,0,0,0,0,0,0,0,0,0,0,0,0,0,0,0,0,0,0,0,0,0,0,0,0,0,0,0,0,0,0,0,0,0,0,0,0,0,0,0,0,0,0,0,0,0,0,0,0,0,0,
0,0,0,0,0,0,0,0,0,0,0,0,0,0,0,0,0,0,0,0,0,0,0,0,0,0,0,0,0,0,0,0,0,0,0,0,0,0,0,0,0,0,0,0,0,0,0,0,0,0,0,0,0,0,0,0,0,0,0,0,0,0,0,0,0,0,0,0,0,0,0,0,0,0,0,0,0,0,0,0,
0,0,0,0,0,0,0,0,0,0,0,0,0,0,0,0,0,0,0,0,0,0,0,0,0,0,0,0,0,0,0,0,0,0,0,0,0,0,0,0,0,0,0,0,0,0,0,0,0,0,0,0,0,0,0,0,0,0,0,0,0,0,0,0,0,0,0,0,0,0,0,0,0,0,0,0,0,0,0,0,
0,0,0,0,0,0,0,0,0,0,0,0,0,0,0,0,0,0,0,0,0,0,0,0,0,0,0,0,0,0,0,0,0,0,0,0,0,0,0,0,0,0,0,0,0,0,0,0,0,0,0,0,0,0,0,0,0,0,0,0,0,0,0,0,0,0,0,0,0,0,0,0,0,0,0,0,0,0,0,0,
0,0,0,0,0,0,0,0,0,0,0,0,0,0,0,0,0,0,0,0,0,0,0,0,0,0,0,0,0,0,0,0,0,0,0,0,0,0,0,0,0,0,0,0,0,0,0,0,0,0,0,0,0,0,0,0,0,0,0,0,0,0,0,0,0,0,0,0,0,0,0,0,0,0,0,0,0,0,0,0,
0,0,0,0,0,0,0,0,0,0,0,0,0,0,0,0,0,0,0,0,0,0,0,0,0,0,0,0,0,0,0,0,0,0,0,0,0,0,0,0,0,0,0,0,0,0,0,0,0,0,0,0,0,0,0,0,0,0,0,0,0,0,0,0,0,0,0,0,0,0,0,0,0,0,0,0,0,0,0,0,
0,0,0,0,0,0,0,0,0,0,0,0,0,0,0,0,0,0,0,0,0,0,0,0,0,0,0,0,0,0,0,0,0,0,0,0,0,0,0,0,0,0,0,0,0,0,0,0,0,0,0,0,0,0,0,0,0,0,0,0,0,0,0,0,0,0,0,0,0,0,0,0,0,0,0,0,0,0,0,0,
0,0,0,0,0,0,0,0,0,0,0,0,0,0,0,0,0,0,0,0,0,0,0,0,0,0,0,0,0,0,0,0,0,0,0,0,0,0,0,0,0,0,0,0,0,0,0,0,0,0,0,0,0,0,0,0,0,0,0,0,0,0,0,0,0,0,0,0,0,0,0,0,0,0,0,0,0,0,0,0,
0,0,0,0,0,0,0,0,0,0,0,0,0,0,0,0,0,0,0,0,0,0,0,0,0,0,0,0,0,0,0,0,0,0,0,0,0,0,0,0,0,0,0,0,0,0,0,0,0,0,0,0,0,0,0,0,0,0,0,0,0,0,0,0,0,0,0,0,0,0,0,0,0,0,0,0,0,0,0,0,
0,0,0,0,0,0,0,0,0,0,0,0,0,0,0,0,0,0,0,0,0,0,0,0,0,0,0,0,0,0,0,0,0,0,0,0,0,0,0,0,0,0,0,0,0,0,0,0,0,0,0,0,0,0,0,0,0,0,0,0,0,0,0,0,0,0,0,0,0,0,0,0,0,0,0,0,0,0,0,0,
0,0,0,0,0,0,0,0,0,0,0,0,0,0,0,0,0,0,0,0,0,0,0,0,0,0,0,0,0,0,0,0,0,0,0,0,0,0,0,0,0,0,0,0,0,0,0,0,0,0,0,0,0,0,0,0,0,0,0,0,0,0,0,0,0,0,0,0,0,0,0,0,0,0,0,0,0,0,0,0,
0,0,0,0,0,0,0,0,0,0,0,0,0,0,0,0,0,0,0,0,0,0,0,0,0,0,0,0,0,0,0,0,0,0,0,0,0,0,0,0,0,0,0,0,0,0,0,0,0,0,0,0,0,0,0,0,0,0,0,0,0,0,0,0,0,0,0,0,0,0,0,0,0,0,0,0,0,0,0,0,
0,0,0,0,0,0,0,0,0,0,0,0,0,0,0,0,0,0,0,0,0,0,0,0,0,0,0,0,0,0,0,0,0,0,0,0,0,0,0,0,0,0,0,0,0,0,0,0,0,0,0,0,0,0,0,0,0,0,0,0,0,0,0,0,0,0,0,0,0,0,0,0,0,0,0,0,0,0,0,0,
0,0,0,0,0,0,0,0,0,0,0,0,0,0,0,0,0,0,0,0,0,0,0,0,0,0,0,0,0,0,0,0,0,0,0,0,0,0,0,0,0,0,0,0,0,0,0,0,0,0,0,0,0,0,0,0,0,0,0,0,0,0,0,0,0,0,0,0,0,0,0,0,0,0,0,0,0,0,0,0,
0,0,0,0,0,0,0,0,0,0,0,0,0,0,0,0,0,0,0,0,0,0,0,0,0,0,0,0,0,0,0,0,0,0,0,0,0,0,0,0,0,0,0,0,0,0,0,0,0,0,0,0,0,0,0,0,0,0,0,0,0,0,0,0,0,0,0,0,0,0,0,0,0,0,0,0,0,0,0,0
</data>
 </layer>
 <layer id="4" name="Test" width="80" height="50">
  <data encoding="csv">
0,0,0,0,0,0,0,0,0,0,0,0,0,0,0,0,0,0,0,0,0,0,0,0,0,0,0,0,0,0,0,0,0,0,0,0,0,0,0,0,0,0,0,0,0,0,0,0,0,0,0,0,0,0,0,0,0,0,0,0,0,0,0,0,0,0,0,0,0,0,0,0,0,0,0,0,0,0,0,0,
0,0,0,0,0,0,0,0,0,0,0,0,0,0,0,0,0,0,0,0,0,0,0,0,0,0,0,0,0,0,0,0,0,0,0,0,0,0,0,0,0,0,0,0,0,0,0,0,0,0,0,0,0,0,0,0,0,0,0,0,0,0,0,0,0,0,0,0,0,0,0,0,0,0,0,0,0,0,0,0,
0,0,0,0,0,0,0,0,0,0,0,0,0,0,0,0,0,0,0,0,0,0,0,0,0,0,0,0,0,0,0,0,0,0,0,0,0,0,0,0,0,0,0,0,0,0,0,0,0,0,0,0,0,0,0,0,0,0,0,0,0,0,0,0,0,0,0,0,0,0,0,0,0,0,0,0,0,0,0,0,
0,0,0,0,0,0,0,0,0,0,0,0,0,0,0,0,0,0,0,0,0,0,0,0,0,0,0,0,0,0,0,0,0,0,0,0,0,0,0,0,0,0,0,0,0,0,0,0,0,0,0,0,0,0,0,0,0,0,0,0,0,0,0,0,0,0,0,0,0,0,0,0,0,0,0,0,0,0,0,0,
0,0,0,0,0,0,0,0,0,0,0,0,0,0,0,0,0,0,0,0,0,0,0,0,0,0,0,0,0,0,0,0,0,0,0,0,0,0,0,0,0,0,0,0,0,0,0,0,0,0,0,0,0,0,0,0,0,0,0,0,0,0,0,0,0,0,0,0,0,0,0,0,0,0,0,0,0,0,0,0,
0,0,0,0,0,0,0,0,0,0,0,0,0,0,0,0,0,0,0,0,0,0,0,0,0,0,0,0,0,0,0,0,0,0,0,0,0,0,0,0,0,0,0,0,0,0,0,0,0,0,0,0,0,0,0,0,0,0,0,0,0,0,0,0,0,0,0,0,0,0,0,0,0,0,0,0,0,0,0,0,
0,0,0,0,0,0,0,0,0,0,0,0,0,0,0,0,0,0,0,0,0,0,0,0,0,0,0,0,0,0,0,0,0,0,0,0,0,0,0,0,0,0,0,0,0,0,0,0,0,0,0,0,0,0,0,0,0,0,0,0,0,0,0,0,0,0,0,0,0,0,0,0,0,0,0,0,0,0,0,0,
0,0,0,0,0,0,0,0,0,0,0,0,0,0,0,0,0,0,0,0,0,0,0,0,0,0,0,0,0,0,0,0,0,0,0,0,0,0,0,0,0,0,0,0,0,0,0,0,0,0,0,0,0,0,0,0,0,0,0,0,0,0,0,0,0,0,0,0,0,0,0,0,0,0,0,0,0,0,0,0,
0,0,0,0,0,0,0,0,0,0,0,0,0,0,0,0,0,0,0,0,0,0,0,0,0,0,0,0,0,0,0,0,0,0,0,0,0,0,0,0,0,0,0,0,0,0,0,0,0,0,0,0,0,0,0,0,0,0,0,0,0,0,0,0,0,0,0,0,0,0,0,0,0,0,0,0,0,0,0,0,
0,0,0,0,0,0,0,0,0,0,0,0,0,0,0,0,0,0,0,0,0,0,0,0,0,0,0,0,0,0,0,0,0,0,0,0,0,0,0,0,0,0,0,0,0,0,0,0,0,0,0,0,0,0,0,0,0,0,0,0,0,0,0,0,0,0,0,0,0,0,0,0,0,0,0,0,0,0,0,0,
0,0,0,0,0,0,0,0,0,0,0,0,0,0,0,0,0,0,0,0,0,0,0,0,0,0,0,0,0,0,0,0,0,0,0,0,0,0,0,0,0,0,0,0,0,0,0,0,0,0,0,0,0,0,0,0,0,0,0,0,0,0,0,0,0,0,0,0,0,0,0,0,0,0,0,0,0,0,0,0,
0,0,0,0,0,0,0,0,0,0,0,0,0,0,0,0,0,0,0,0,0,0,0,0,0,0,0,0,0,0,0,0,0,0,0,0,0,0,0,0,0,0,0,0,0,0,0,0,0,0,0,0,0,0,0,0,0,0,0,0,0,0,0,0,0,0,0,0,0,0,0,0,0,0,0,0,0,0,0,0,
0,0,0,0,0,0,0,0,0,0,0,0,0,0,0,0,0,0,0,0,0,0,0,0,0,0,0,0,0,0,0,0,0,0,0,0,0,0,0,0,0,0,0,0,0,0,0,0,0,0,0,0,0,0,0,0,0,0,0,0,0,0,0,0,0,0,0,0,0,0,0,0,0,0,0,0,0,0,0,0,
0,0,0,0,0,0,0,0,0,0,0,0,0,0,0,0,0,0,0,0,0,0,0,0,0,0,0,0,0,0,0,0,0,0,0,0,0,0,0,0,0,0,0,0,0,0,0,0,0,0,0,0,0,0,0,0,0,0,0,0,0,0,0,0,0,0,0,0,0,0,0,0,0,0,0,0,0,0,0,0,
0,0,0,0,0,0,0,0,0,0,0,0,0,0,0,0,0,0,0,0,0,0,0,0,0,0,0,0,0,0,0,0,0,0,0,0,0,0,0,0,0,0,0,0,0,0,0,0,0,0,0,0,0,0,0,0,0,0,0,0,0,0,0,0,0,0,0,0,0,0,0,0,0,0,0,0,0,0,0,0,
0,0,0,0,0,0,0,0,0,0,0,0,0,0,0,0,0,0,0,0,0,0,0,0,0,0,0,0,0,0,0,0,0,0,0,0,0,0,0,0,0,0,0,0,0,0,0,0,0,0,0,0,0,0,0,0,0,0,0,0,0,0,0,0,0,0,0,0,0,0,0,0,0,0,0,0,0,0,0,0,
0,0,0,0,0,0,0,0,0,0,0,0,0,0,0,0,0,0,0,0,0,0,0,0,0,0,0,0,0,0,0,0,0,0,0,0,0,0,0,0,0,0,0,0,0,0,0,0,0,0,0,0,0,0,0,0,0,0,0,0,0,0,0,0,0,0,0,0,0,0,0,0,0,0,0,0,0,0,0,0,
0,0,0,0,0,0,0,0,0,0,0,0,0,0,0,0,0,0,0,0,0,0,0,0,0,0,0,0,0,0,0,0,0,0,0,0,0,0,0,0,0,0,0,0,0,0,0,0,0,0,0,0,0,0,0,0,0,0,0,0,0,0,0,0,0,0,0,0,0,0,0,0,0,0,0,0,0,0,0,0,
0,0,0,0,0,0,0,0,0,0,0,0,0,0,0,0,0,0,0,0,0,0,0,0,0,0,0,0,0,0,0,0,0,0,0,0,0,0,0,0,0,0,0,0,0,0,0,0,0,0,0,0,0,0,0,0,0,0,0,0,0,0,0,0,0,0,0,0,0,0,0,0,0,0,0,0,0,0,0,0,
0,0,0,0,0,0,0,0,0,0,0,0,0,0,0,0,0,0,0,0,0,0,0,0,0,0,0,0,0,0,0,0,0,0,0,0,0,0,0,0,0,0,0,0,0,0,0,0,0,0,0,0,0,0,0,0,0,0,0,0,0,0,0,0,0,0,0,0,0,0,0,0,0,0,0,0,0,0,0,0,
0,0,0,0,0,0,0,0,0,0,0,0,0,0,0,0,0,0,0,0,0,0,0,0,0,0,0,0,0,0,0,0,0,0,0,0,0,0,0,0,0,0,0,0,0,0,0,0,0,0,0,0,0,0,0,0,0,0,0,0,0,0,0,0,0,0,0,0,0,0,0,0,0,0,0,0,0,0,0,0,
0,0,0,0,0,0,0,0,0,0,0,0,0,0,0,0,0,0,0,0,0,0,0,0,0,0,0,0,0,0,0,0,0,0,0,0,0,0,0,0,0,0,0,0,0,0,0,0,0,0,0,0,0,0,0,0,0,0,0,0,0,0,0,0,0,0,0,0,0,0,0,0,0,0,0,0,0,0,0,0,
0,0,0,0,0,0,0,0,0,0,0,0,0,0,0,0,0,0,0,0,0,0,0,0,0,0,0,0,0,0,0,0,0,0,0,0,0,0,0,0,0,0,0,0,0,0,0,0,0,0,0,0,0,0,0,0,0,0,0,0,0,0,0,0,0,0,0,0,0,0,0,0,0,0,0,0,0,0,0,0,
0,0,0,0,0,0,0,0,0,0,0,0,0,0,0,0,0,0,0,0,0,0,0,0,0,0,0,0,0,0,0,0,0,0,0,0,0,0,0,0,0,0,0,0,0,0,0,0,0,0,0,0,0,0,0,0,0,0,0,0,0,0,0,0,0,0,0,0,0,0,0,0,0,0,0,0,0,0,0,0,
0,0,0,0,0,0,0,0,0,0,0,0,0,0,0,0,0,0,0,0,0,0,0,0,0,0,0,0,0,0,0,0,0,0,0,0,0,0,0,0,0,0,0,0,0,0,0,0,0,0,0,0,0,0,0,0,0,0,0,0,0,0,0,0,0,0,0,0,0,0,0,0,0,0,0,0,0,0,0,0,
0,0,0,0,0,0,0,0,0,0,0,0,0,0,0,0,0,0,0,0,0,0,0,0,0,0,0,0,0,0,0,0,0,0,0,0,0,0,0,0,0,0,0,0,0,0,0,0,0,0,0,0,0,0,0,0,0,0,0,0,0,0,0,0,0,0,0,0,0,0,0,0,0,0,0,0,0,0,0,0,
0,0,0,0,0,0,0,0,0,0,0,0,0,0,0,0,0,0,0,0,0,0,0,0,0,0,0,0,0,0,0,0,0,0,0,0,0,0,0,0,0,0,0,0,0,0,0,0,0,0,0,0,0,0,0,0,0,0,0,0,0,0,0,0,0,0,0,0,0,0,0,0,0,0,0,0,0,0,0,0,
0,0,0,0,0,0,0,0,0,0,0,0,0,0,0,0,0,0,0,0,0,0,0,0,0,0,0,0,0,0,0,0,0,0,0,0,0,0,0,0,0,0,0,0,0,0,0,0,0,0,0,0,0,0,0,0,0,0,0,0,0,0,0,0,0,0,0,0,0,0,0,0,0,0,0,0,0,0,0,0,
0,0,0,0,0,0,0,0,0,0,0,0,0,0,0,0,0,0,0,0,0,0,0,0,0,0,0,0,0,0,0,0,0,0,0,0,0,0,0,0,0,0,0,0,0,0,0,0,0,0,0,0,0,0,0,0,0,0,0,0,0,0,0,0,0,0,0,0,0,0,0,0,0,0,0,0,0,0,0,0,
0,0,0,0,0,0,0,0,0,0,0,0,0,0,0,0,0,0,0,0,0,0,0,0,0,0,0,0,0,0,0,0,0,0,0,0,0,0,0,0,0,0,0,0,0,0,0,0,0,0,0,0,0,0,0,0,0,0,0,0,0,0,0,0,0,0,0,0,0,0,0,0,0,0,0,0,0,0,0,0,
0,0,0,0,0,0,0,0,0,0,0,0,0,0,0,0,0,0,0,0,0,0,0,0,0,0,0,0,0,0,0,0,0,0,0,0,0,0,0,0,0,0,0,0,0,0,0,0,0,0,0,0,0,0,0,0,0,0,0,0,0,0,0,0,0,0,0,0,0,0,0,0,0,0,0,0,0,0,0,0,
0,0,0,0,0,0,0,0,0,0,0,0,0,0,0,0,0,0,0,0,0,0,0,0,0,0,0,0,0,0,0,0,0,0,0,0,0,0,0,0,0,0,0,0,0,0,0,0,0,0,0,0,0,0,0,0,0,0,0,0,0,0,0,0,0,0,0,0,0,0,0,0,0,0,0,0,0,0,0,0,
0,0,0,0,0,0,0,0,0,0,0,0,0,0,0,0,0,0,0,0,0,0,0,0,0,0,0,0,0,0,0,0,0,0,0,0,0,0,0,0,0,0,0,0,0,0,0,0,0,0,0,0,0,0,0,0,0,0,0,0,0,0,0,0,0,0,0,0,0,0,0,0,0,0,0,0,0,0,0,0,
0,0,0,0,0,0,0,0,0,0,0,0,0,0,0,0,0,0,0,0,0,0,0,0,0,0,0,0,0,0,0,0,0,0,0,0,0,0,0,0,0,0,0,0,0,0,0,0,0,0,0,0,0,0,0,0,0,0,0,0,0,0,0,0,0,0,0,0,0,0,0,0,0,0,0,0,0,0,0,0,
0,0,0,0,0,0,0,0,0,0,0,0,0,0,0,0,0,0,0,0,0,0,0,0,0,0,0,0,0,0,0,0,0,0,0,0,0,0,0,0,0,0,0,0,0,0,0,0,0,0,0,0,0,0,0,0,0,0,0,0,0,0,0,0,0,0,0,0,0,0,0,0,0,0,0,0,0,0,0,0,
0,0,0,0,0,0,0,0,0,0,0,0,0,0,0,0,0,0,0,0,0,0,0,0,0,0,0,0,0,0,0,0,0,0,0,0,0,0,0,0,0,0,0,0,0,0,0,0,0,0,0,0,0,0,0,0,0,0,0,0,0,0,0,0,0,0,0,0,0,0,0,0,0,0,0,0,0,0,0,0,
0,0,0,0,0,0,0,0,0,0,0,0,0,0,0,0,0,0,0,0,0,0,0,0,0,0,0,0,0,0,0,0,0,0,0,0,0,0,0,0,0,0,0,0,0,0,0,0,0,0,0,0,0,0,0,0,0,0,0,0,0,0,0,0,0,0,0,0,0,0,0,0,0,0,0,0,0,0,0,0,
0,0,0,0,0,0,0,0,0,0,0,0,0,0,0,0,0,0,0,0,0,0,0,0,0,0,0,0,0,0,0,0,0,0,0,0,0,0,0,0,0,0,0,0,0,0,0,0,0,0,0,0,0,0,0,0,0,0,0,0,0,0,0,0,0,0,0,0,0,0,0,0,0,0,0,0,0,0,0,0,
0,0,0,0,0,0,0,0,0,0,0,0,0,0,0,0,0,0,0,0,0,0,0,0,0,0,0,0,0,0,0,0,0,0,0,0,0,0,0,0,0,0,0,0,0,0,0,0,0,0,0,0,0,0,0,0,0,0,0,0,0,0,0,0,0,0,0,0,0,0,0,0,0,0,0,0,0,0,0,0,
0,0,0,0,0,0,0,0,0,0,0,0,0,0,0,0,0,0,0,0,0,0,0,0,0,0,0,0,0,0,0,0,0,0,0,0,0,0,0,0,0,0,0,0,0,0,0,0,0,0,0,0,0,0,0,0,0,0,0,0,0,0,0,0,0,0,0,0,0,0,0,0,0,0,0,0,0,0,0,0,
0,0,0,0,0,0,0,0,0,0,0,0,0,0,0,0,0,0,0,0,0,0,0,0,0,0,0,0,0,0,0,0,0,0,0,0,0,0,0,0,0,0,0,0,0,0,0,0,0,0,0,0,0,0,0,0,0,0,0,0,0,0,0,0,0,0,0,0,0,0,0,0,0,0,0,0,0,0,0,0,
0,0,0,0,0,0,0,0,0,0,0,0,0,0,0,0,0,0,0,0,0,0,0,0,0,0,0,0,0,0,0,0,0,0,0,0,0,0,0,0,0,0,0,0,0,0,0,0,0,0,0,0,0,0,0,0,0,0,0,0,0,0,0,0,0,0,0,0,0,0,0,0,0,0,0,0,0,0,0,0,
0,0,0,0,0,0,0,0,0,0,0,0,0,0,0,0,0,0,0,0,0,0,0,0,0,0,0,0,0,0,0,0,0,0,0,0,0,0,0,0,0,0,0,0,0,0,0,0,0,0,0,0,0,0,0,0,0,0,0,0,0,0,0,0,0,0,0,0,0,0,0,0,0,0,0,0,0,0,0,0,
0,0,0,0,0,0,0,0,0,0,0,0,0,0,0,0,0,0,0,0,0,0,0,0,0,0,0,0,0,0,0,0,0,0,0,0,0,0,0,0,0,0,0,0,0,0,0,0,0,0,0,0,0,0,0,0,0,0,0,0,0,0,0,0,0,0,0,0,0,0,0,0,0,0,0,0,0,0,0,0,
0,0,0,0,0,0,0,0,0,0,0,0,0,0,0,0,0,0,0,0,0,0,0,0,0,0,0,0,0,0,0,0,0,0,0,0,0,0,0,0,0,0,0,0,0,0,0,0,0,0,0,0,0,0,0,0,0,0,0,0,0,0,0,0,0,0,0,0,0,0,0,0,0,0,0,0,0,0,0,0,
0,0,0,0,0,0,0,0,0,0,0,0,0,0,0,0,0,0,0,0,0,0,0,0,0,0,0,0,0,0,0,0,0,0,0,0,0,0,0,0,0,0,0,0,0,0,0,0,0,0,0,0,0,0,0,0,0,0,0,0,0,0,0,0,0,0,0,0,0,0,0,0,0,0,0,0,0,0,0,0,
0,0,0,0,0,0,0,0,0,0,0,0,0,0,0,0,0,0,0,0,0,0,0,0,0,0,0,0,0,0,0,0,0,0,0,0,0,0,0,0,0,0,0,0,0,0,0,0,0,0,0,0,0,0,0,0,0,0,0,0,0,0,0,0,0,0,0,0,0,0,0,0,0,0,0,0,0,0,0,0,
0,0,0,0,0,0,0,0,0,0,0,0,0,0,0,0,0,0,0,0,0,0,0,0,0,0,0,0,0,0,0,0,0,0,0,0,0,0,0,0,0,0,0,0,0,0,0,0,0,0,0,0,0,0,0,0,0,0,0,0,0,0,0,0,0,0,0,0,0,0,0,0,0,0,0,0,0,0,0,0,
0,0,0,0,0,0,0,0,0,0,0,0,0,0,0,0,0,0,0,0,0,0,0,0,0,0,0,0,0,0,0,0,0,0,0,0,0,0,0,0,0,0,0,0,0,0,0,0,0,0,0,0,0,0,0,0,0,0,0,0,0,0,0,0,0,0,0,0,0,0,0,0,0,0,0,0,0,0,0,0,
0,0,0,0,0,0,0,0,0,0,0,0,0,0,0,0,0,0,0,0,0,0,0,0,0,0,0,0,0,0,0,0,0,0,0,0,0,0,0,0,0,0,0,0,0,0,0,0,0,0,0,0,0,0,0,0,0,0,0,0,0,0,0,0,0,0,0,0,0,0,0,0,0,0,0,0,0,0,0,0
</data>
 </layer>
 <layer id="23" name="Top" width="80" height="50">
  <data encoding="csv">
0,0,0,0,0,0,0,0,0,0,0,0,0,0,0,0,0,0,0,0,0,0,0,0,0,0,0,0,0,0,0,0,0,0,0,0,0,0,0,0,0,0,0,0,0,0,0,0,0,0,0,0,0,0,0,0,0,0,0,0,0,0,0,0,0,0,0,0,0,0,0,0,0,0,0,0,0,0,0,0,
0,0,0,0,0,0,0,0,0,0,0,0,0,0,0,0,0,0,0,0,0,0,0,0,0,0,0,0,0,0,0,0,0,0,0,0,0,0,0,0,0,0,0,0,0,0,0,0,0,0,0,0,0,0,0,0,0,0,0,0,0,0,0,0,0,0,0,0,0,0,0,0,0,0,0,0,0,0,0,0,
0,0,0,0,0,0,0,0,0,0,0,0,0,0,0,0,0,0,0,0,0,0,0,0,0,0,0,0,0,0,0,0,0,0,0,0,0,0,0,0,0,0,0,0,0,0,0,0,0,0,0,0,0,0,0,0,0,0,0,0,0,0,0,0,0,0,0,0,0,0,0,0,0,0,0,0,0,0,0,0,
0,0,0,0,0,0,0,0,0,0,0,0,0,0,0,0,0,0,0,0,0,0,0,0,0,0,0,0,0,0,0,0,0,0,0,0,0,0,0,0,0,0,0,0,0,0,0,0,0,0,0,0,0,0,0,0,0,0,0,0,0,0,0,0,0,0,0,0,0,0,0,0,0,0,0,0,0,0,0,0,
0,0,0,0,0,0,0,0,0,0,0,0,0,0,0,0,0,0,0,0,0,0,0,0,0,0,0,0,0,0,0,0,0,0,0,0,0,0,0,0,0,0,0,0,0,0,0,0,0,0,0,0,0,0,0,0,0,0,0,0,0,0,0,0,0,0,0,0,0,0,0,0,0,0,0,0,0,0,0,0,
0,0,0,0,0,0,0,0,0,0,0,0,0,0,0,0,0,0,0,0,0,0,0,0,0,0,0,0,0,0,0,0,0,0,0,0,0,0,0,0,0,0,0,0,0,0,0,0,0,0,0,0,0,0,0,0,0,0,0,0,0,0,0,0,0,0,0,0,0,0,0,0,0,0,0,0,0,0,0,0,
0,0,0,0,0,0,0,0,0,0,0,0,0,0,0,0,0,0,0,0,0,0,0,0,0,0,0,0,0,0,0,0,0,0,0,0,0,0,0,0,0,0,0,0,0,0,0,0,0,0,0,0,0,0,0,0,0,0,0,0,0,0,0,0,0,0,0,0,0,0,0,0,0,0,0,0,0,0,0,0,
0,0,0,0,0,0,0,0,0,0,0,0,0,0,0,0,0,0,0,0,0,0,0,0,0,0,0,0,0,0,0,0,0,0,0,0,0,0,0,0,0,0,0,0,0,0,0,0,0,0,0,0,0,0,0,0,0,0,0,0,0,0,0,0,0,0,0,0,0,0,0,0,0,0,0,0,0,0,0,0,
0,0,0,0,0,0,0,0,0,0,0,0,0,0,0,0,0,0,0,0,0,0,0,0,0,0,0,0,0,0,0,0,0,0,0,0,0,0,0,0,0,0,0,0,0,0,0,0,0,0,0,0,0,0,0,0,0,0,0,0,0,0,0,0,0,0,0,0,0,0,0,0,0,0,0,0,0,0,0,0,
0,0,0,0,0,0,0,0,0,0,0,0,0,0,0,0,0,0,0,0,0,0,0,0,0,0,0,0,0,0,0,0,0,0,0,0,0,0,0,0,0,0,0,0,0,0,0,0,0,0,0,0,0,0,0,0,0,0,0,0,0,0,0,0,0,0,0,0,0,0,0,0,0,0,0,0,0,0,0,0,
0,0,0,0,0,0,0,0,0,0,0,0,0,0,0,0,0,0,0,0,0,0,0,0,0,0,0,0,0,0,0,0,0,0,0,0,0,0,0,0,0,0,0,0,0,0,0,0,0,0,0,0,0,0,0,0,0,0,0,0,0,0,0,0,0,0,0,0,0,0,0,0,0,0,0,0,0,0,0,0,
0,0,0,0,0,0,0,0,0,0,0,0,0,0,0,0,0,0,0,0,0,0,0,0,0,0,0,0,0,0,0,0,0,0,0,0,0,0,0,0,0,0,0,0,0,0,0,0,0,0,0,0,0,0,0,0,0,0,0,0,0,0,0,0,0,0,0,0,0,0,0,0,0,0,0,0,0,0,0,0,
0,0,0,0,0,0,0,0,0,0,0,0,0,0,0,0,0,0,0,0,0,0,0,0,0,0,0,0,0,0,0,0,0,0,0,0,0,0,0,0,0,0,0,0,0,0,0,0,0,0,0,0,0,0,0,0,0,0,0,0,0,0,0,0,0,0,0,0,0,0,0,0,0,0,0,0,0,0,0,0,
0,0,0,0,0,0,0,0,0,0,0,0,0,0,0,0,0,0,0,0,0,0,0,0,0,0,0,0,0,0,0,0,0,0,0,0,0,0,0,0,0,0,0,0,0,0,0,0,0,0,0,0,0,0,0,0,0,0,0,0,0,0,0,0,0,0,0,0,0,0,0,0,0,0,0,0,0,0,0,0,
0,0,0,0,0,0,0,0,0,0,0,0,0,0,0,0,0,0,0,0,0,0,0,0,0,0,0,0,0,0,0,0,0,0,0,0,0,0,0,0,0,0,0,0,0,0,0,0,0,0,0,0,0,0,0,0,0,0,0,0,0,0,0,0,0,0,0,0,0,0,0,0,0,0,0,0,0,0,0,0,
0,0,0,0,0,0,0,0,0,0,0,0,0,0,0,0,0,0,0,0,0,0,0,0,0,0,0,0,0,0,0,0,0,0,0,0,0,0,0,0,0,0,0,0,0,0,0,0,0,0,0,0,0,0,0,0,0,0,0,0,0,0,0,0,0,0,0,0,0,0,0,0,0,0,0,0,0,0,0,0,
0,0,0,0,0,0,0,0,0,0,0,0,0,0,0,0,0,0,0,0,0,0,0,0,0,0,0,0,0,0,0,0,0,0,0,0,0,0,0,0,0,0,0,0,0,0,0,0,0,0,0,0,0,0,0,0,0,0,0,0,0,0,0,0,0,0,0,0,0,0,0,0,0,0,0,0,0,0,0,0,
0,0,0,0,0,0,0,0,0,0,0,0,0,0,0,0,0,0,0,0,0,0,0,0,0,0,0,0,0,0,0,0,0,0,0,0,0,0,0,0,0,0,0,0,0,0,0,0,0,0,0,0,0,0,0,0,0,0,0,0,0,0,0,0,0,0,0,0,0,0,0,0,0,0,0,0,0,0,0,0,
0,0,0,0,0,0,0,0,0,0,0,0,0,0,0,0,0,0,0,0,0,0,0,0,0,0,0,0,0,0,0,0,0,0,0,0,0,0,0,0,0,0,0,0,0,0,0,0,0,0,0,0,0,0,0,0,0,0,0,0,0,0,0,0,0,0,0,0,0,0,0,0,0,0,0,0,0,0,0,0,
0,0,0,0,0,0,0,0,0,0,0,0,0,0,0,0,0,0,0,0,0,0,0,0,0,0,0,0,0,0,0,0,0,0,0,0,0,0,0,0,0,0,0,0,0,0,0,0,0,0,0,0,0,0,0,0,0,0,0,0,0,0,0,0,0,0,0,0,0,0,0,0,0,0,0,0,0,0,0,0,
0,0,0,0,0,0,0,0,0,0,0,0,0,0,0,0,0,0,0,0,0,0,0,0,0,0,0,0,0,0,0,0,0,0,0,0,0,0,0,0,0,0,0,0,0,0,0,0,0,0,0,0,0,0,0,0,0,0,0,0,0,0,0,0,0,0,0,0,0,0,0,0,0,0,0,0,0,0,0,0,
0,0,0,0,0,0,0,0,0,0,0,0,0,0,0,0,0,0,0,0,0,0,0,0,0,0,0,0,0,0,0,0,0,0,0,0,0,0,0,0,0,0,0,0,0,0,0,0,0,0,0,0,0,0,0,0,0,0,0,0,0,0,0,0,0,0,0,0,0,0,0,0,0,0,0,0,0,0,0,0,
0,0,0,0,0,0,0,0,0,0,0,0,0,0,0,0,0,0,0,0,0,0,0,0,0,0,0,0,0,0,0,0,0,0,0,0,0,0,0,0,0,0,0,0,0,0,0,0,0,0,0,0,0,0,0,0,0,0,0,0,0,0,0,0,0,0,0,0,0,0,0,0,0,0,0,0,0,0,0,0,
0,0,0,0,0,0,0,0,0,0,0,0,0,0,0,0,0,0,0,0,0,0,0,0,0,0,0,0,0,0,0,0,0,0,0,0,0,0,0,0,0,0,0,0,0,0,0,0,0,0,0,0,0,0,0,0,0,0,0,0,0,0,0,0,0,0,0,0,0,0,0,0,0,0,0,0,0,0,0,0,
0,0,0,0,0,0,0,0,0,0,0,0,0,0,0,0,0,0,0,0,0,0,0,0,0,0,0,0,0,0,0,0,0,0,0,0,0,0,0,0,0,0,0,0,0,0,0,0,0,0,0,0,0,0,0,0,0,0,0,0,0,0,0,0,0,0,0,0,0,0,0,0,0,0,0,0,0,0,0,0,
0,0,0,0,0,0,0,0,0,0,0,0,0,0,0,0,0,0,0,0,0,0,0,0,0,0,0,0,0,0,0,0,0,0,0,0,0,0,0,0,0,0,0,0,0,0,0,0,0,0,0,0,0,0,0,0,0,0,0,0,0,0,0,0,0,0,0,0,0,0,0,0,0,0,0,0,0,0,0,0,
0,0,0,0,0,0,0,0,0,0,0,0,0,0,0,0,0,0,0,0,0,0,0,0,0,0,0,0,0,0,0,0,0,0,0,0,0,0,0,0,0,0,0,0,0,0,0,0,0,0,0,0,0,0,0,0,0,0,0,0,0,0,0,0,0,0,0,0,0,0,0,0,0,0,0,0,0,0,0,0,
0,0,0,0,0,0,0,0,0,0,0,0,0,0,0,0,0,0,0,0,0,0,0,0,0,0,0,0,0,0,0,0,0,0,0,0,0,0,0,0,0,0,0,0,0,0,0,0,0,0,0,0,0,0,0,0,0,0,0,0,0,0,0,0,0,0,0,0,0,0,0,0,0,0,0,0,0,0,0,0,
0,0,0,0,0,0,0,0,0,0,0,0,0,0,0,0,0,0,0,0,0,0,0,0,0,0,0,0,0,0,0,0,0,0,0,0,0,0,0,0,0,0,0,0,0,0,0,0,0,0,0,0,0,0,0,0,0,0,0,0,0,0,0,0,0,0,0,0,0,0,0,0,0,0,0,0,0,0,0,0,
0,0,0,0,0,0,0,0,0,0,0,0,0,0,0,0,0,0,0,0,0,0,0,0,0,0,0,0,0,0,0,0,0,0,0,0,0,0,0,0,0,0,0,0,0,0,0,0,0,0,0,0,0,0,0,0,0,0,0,0,0,0,0,0,0,0,0,0,0,0,0,0,0,0,0,0,0,0,0,0,
0,0,0,0,0,0,0,0,0,0,0,0,0,0,0,0,0,0,0,0,0,0,0,0,0,0,0,0,0,0,0,0,0,0,0,0,0,0,0,0,0,0,0,0,0,0,0,0,0,0,0,0,0,0,0,0,0,0,0,0,0,0,0,0,0,0,0,0,0,0,0,0,0,0,0,0,0,0,0,0,
0,0,0,0,0,0,0,0,0,0,0,0,0,0,0,0,0,0,0,0,0,0,0,0,0,0,0,0,0,0,0,0,0,0,0,0,0,0,0,0,0,0,0,0,0,0,0,0,0,0,0,0,0,0,0,0,0,0,0,0,0,0,0,0,0,0,0,0,0,0,0,0,0,0,0,0,0,0,0,0,
0,0,0,0,0,0,0,0,0,0,0,0,0,0,0,0,0,0,0,0,0,0,0,0,0,0,0,0,0,0,0,0,0,0,0,0,0,0,0,0,0,0,0,0,0,0,0,0,0,0,0,0,0,0,0,0,0,0,0,0,0,0,0,0,0,0,0,0,0,0,0,0,0,0,0,0,0,0,0,0,
0,0,0,0,0,0,0,0,0,0,0,0,0,0,0,0,0,0,0,0,0,0,0,0,0,0,0,0,0,0,0,0,0,0,0,0,0,0,0,0,0,0,0,0,0,0,0,0,0,0,0,0,0,0,0,0,0,0,0,0,0,0,0,0,0,0,0,0,0,0,0,0,0,0,0,0,0,0,0,0,
0,0,0,0,0,0,0,0,0,0,0,0,0,0,0,0,0,0,0,0,0,0,0,0,0,0,0,0,0,0,0,0,0,0,0,0,0,0,0,0,0,0,0,0,0,0,0,0,0,0,0,0,0,0,0,0,0,0,0,0,0,3006,0,0,0,0,0,0,0,0,0,0,0,0,0,0,0,0,0,0,
0,0,0,0,0,0,0,0,0,0,0,0,0,0,0,0,0,0,0,0,0,0,0,0,0,0,0,0,0,0,0,0,0,0,0,0,0,0,0,0,0,0,0,0,0,0,0,0,0,0,0,0,0,0,0,0,0,0,0,0,0,0,0,0,0,0,0,0,0,0,0,0,0,0,0,0,0,0,0,0,
0,0,0,0,0,0,0,0,0,0,0,0,0,0,0,0,0,0,0,0,0,0,0,0,0,0,0,0,0,0,0,0,0,0,0,0,0,0,0,0,0,0,0,0,0,0,0,0,0,0,0,0,0,0,0,0,0,0,0,0,0,0,0,0,0,0,0,0,0,0,0,0,0,0,0,0,0,0,0,0,
0,0,0,0,0,0,0,0,0,0,0,0,0,0,0,0,0,0,0,0,0,0,0,0,0,0,0,0,0,0,0,0,0,0,0,0,0,0,0,0,0,0,0,0,0,0,0,0,0,0,0,0,0,0,0,0,0,0,0,0,0,0,0,0,0,0,0,0,0,0,0,0,0,0,0,0,0,0,0,0,
0,0,0,0,0,0,0,0,0,0,0,0,0,0,0,0,0,0,0,0,0,0,0,0,0,0,0,0,0,0,0,0,0,0,0,0,0,0,0,0,0,0,0,0,0,0,0,0,0,0,0,0,0,0,0,3006,3007,3007,3007,3007,3007,0,0,0,0,0,0,0,0,0,0,0,0,0,0,0,0,0,0,0,
0,0,0,0,0,0,0,0,0,0,0,0,0,0,0,0,0,0,0,0,0,0,0,0,0,0,0,0,0,0,0,0,0,0,0,0,0,0,0,0,0,0,0,0,0,0,0,0,0,0,0,0,0,0,0,0,0,0,0,0,0,0,0,0,0,0,0,0,0,0,0,0,0,0,0,0,0,0,0,0,
0,0,0,0,0,0,0,0,0,0,0,0,0,0,0,0,0,0,0,0,0,0,0,0,0,0,0,0,0,0,0,0,0,0,0,0,0,0,0,0,0,0,0,0,0,0,0,0,0,0,0,0,0,0,0,0,0,0,0,0,0,0,0,0,0,0,0,0,0,0,0,0,0,0,0,0,0,0,0,0,
0,0,0,0,0,0,0,0,0,0,0,0,0,0,0,0,0,0,0,0,0,0,0,0,0,0,0,0,0,0,0,0,0,0,0,0,0,0,0,0,0,0,0,0,0,0,0,0,0,0,0,0,0,0,0,0,0,0,0,0,0,0,0,0,0,0,0,0,0,0,0,0,0,0,0,0,0,0,0,0,
0,0,0,0,0,0,0,0,0,0,0,0,0,0,0,0,0,0,0,0,0,0,0,0,0,0,0,0,0,0,0,0,0,0,0,0,0,0,0,0,0,0,0,0,0,0,0,0,3006,3007,3007,3007,3007,3007,3007,0,0,0,0,0,0,0,0,0,0,0,0,0,0,0,0,0,0,0,0,0,0,0,0,0,
0,0,0,0,0,0,0,0,0,0,0,0,0,0,0,0,0,0,0,0,0,0,0,0,0,0,0,0,0,0,0,0,0,0,0,0,0,0,0,0,0,0,0,0,0,0,3006,3007,0,0,0,0,0,0,0,0,0,0,0,0,0,0,0,0,0,0,0,0,0,0,0,0,0,0,0,0,0,0,0,0,
0,0,0,0,0,0,0,0,0,0,0,0,0,0,0,0,0,0,0,0,0,0,0,0,0,0,0,0,0,0,0,0,0,0,0,0,0,0,0,0,0,0,0,0,0,0,0,0,0,0,0,0,0,0,0,0,0,0,0,0,0,0,0,0,0,0,0,0,0,0,0,0,0,0,0,0,0,0,0,0,
0,0,0,0,0,0,0,0,0,0,0,0,0,0,0,0,0,0,0,0,0,0,0,0,0,0,0,0,0,0,0,0,0,0,0,0,0,0,0,0,0,0,0,0,0,0,0,0,0,0,0,0,0,0,0,0,0,0,0,0,0,0,0,0,0,0,0,0,0,0,0,0,0,0,0,0,0,0,0,0,
0,0,0,0,0,0,0,0,0,0,0,0,0,0,0,0,0,0,0,0,0,0,0,0,0,0,0,0,0,0,0,0,0,0,0,0,0,0,0,0,0,0,0,0,0,0,0,0,0,0,0,0,0,0,0,0,0,0,0,0,0,0,0,0,0,0,0,0,0,0,0,0,0,0,0,0,0,0,0,0,
0,0,0,0,0,0,0,0,0,0,0,0,0,0,0,0,0,0,0,0,0,0,0,0,0,0,0,0,0,0,0,0,0,0,0,0,0,0,0,0,0,0,0,0,0,0,0,0,0,0,0,0,0,0,0,0,0,0,0,0,0,0,0,0,0,0,0,0,0,0,0,0,0,0,0,0,0,0,0,0,
0,0,0,0,0,0,0,0,0,0,0,0,0,0,0,0,0,0,0,0,0,0,0,0,0,0,0,0,0,0,0,0,0,0,0,0,0,0,0,0,0,0,0,0,0,0,0,0,0,0,0,0,0,0,0,0,0,0,0,0,0,0,0,0,0,0,0,0,0,0,0,0,0,0,0,0,0,0,0,0,
0,0,0,0,0,0,0,0,0,0,0,0,0,0,0,0,0,0,0,0,0,0,0,0,0,0,0,0,0,0,0,0,0,0,0,0,0,0,0,0,0,0,0,0,0,0,0,0,0,0,0,0,0,0,0,0,0,0,0,0,0,0,0,0,0,0,0,0,0,0,0,0,0,0,0,0,0,0,0,0
</data>
 </layer>
 <objectgroup id="3" name="Walls">
  <object id="444" x="608" y="240" width="32" height="128"/>
  <object id="578" x="640" y="272" width="96" height="112"/>
  <object id="579" x="720" y="384" width="192" height="48"/>
  <object id="580" x="912" y="384" width="80" height="64"/>
  <object id="581" x="992" y="400" width="48" height="156"/>
  <object id="582" x="976" y="556" width="64" height="100"/>
  <object id="597" x="480" y="448" width="64" height="64"/>
  <object id="598" x="640" y="480" width="32" height="64"/>
  <object id="599" x="672" y="480" width="192" height="80"/>
  <object id="600" x="864" y="512" width="16" height="64"/>
  <object id="601" x="384" y="384" width="64" height="64"/>
  <object id="602" x="352" y="272" width="80" height="96"/>
  <object id="679" x="448" y="384" width="96" height="64"/>
  <object id="681" x="432" y="352" width="16" height="32"/>
  <object id="685" x="624" y="144" width="32" height="96"/>
  <object id="686" x="548" y="144" width="76" height="48"/>
  <object id="687" x="376" y="144" width="116" height="48"/>
  <object id="688" x="288" y="192" width="108" height="32"/>
  <object id="964" x="336" y="320" width="16" height="48"/>
  <object id="965" x="320" y="368" width="64" height="48"/>
  <object id="966" x="112" y="432" width="144" height="96"/>
  <object id="974" x="240" y="320" width="32" height="48"/>
  <object id="975" x="240" y="256" width="48" height="64"/>
  <object id="986" x="-16" y="416" width="128" height="48"/>
  <object id="987" x="-16" y="320" width="96" height="32"/>
  <object id="988" x="80" y="320" width="80" height="48"/>
  <object id="989" x="160" y="336" width="80" height="48"/>
  <object id="993" x="816" y="560" width="48" height="16"/>
  <object id="1035" x="176" y="528" width="48" height="176"/>
  <object id="1036" x="160" y="704" width="48" height="32"/>
  <object id="1037" x="144" y="736" width="48" height="80"/>
  <object id="1038" x="272" y="720" width="48" height="96"/>
  <object id="1039" x="288" y="640" width="48" height="80"/>
  <object id="1040" x="304" y="592" width="128" height="48"/>
  <object id="1042" x="432" y="624" width="48" height="64"/>
  <object id="1043" x="448" y="688" width="80" height="64"/>
  <object id="1044" x="528" y="704" width="112" height="48"/>
  <object id="1045" x="640" y="736" width="32" height="80"/>
  <object id="1046" x="736" y="704" width="32" height="112"/>
  <object id="1047" x="768" y="688" width="112" height="48"/>
  <object id="1048" x="880" y="624" width="96" height="112"/>
 </objectgroup>
 <objectgroup id="5" name="Loot"/>
 <objectgroup id="12" name="Plants">
  <object id="735" name="save" x="296" y="504">
   <point/>
  </object>
  <object id="792" name="grass" x="449.818" y="312.909">
   <point/>
  </object>
  <object id="793" name="grass" x="440" y="344">
   <point/>
  </object>
  <object id="794" name="grass" x="467.636" y="322">
   <point/>
  </object>
  <object id="795" name="grass" x="460" y="372">
   <point/>
  </object>
  <object id="796" name="grass" x="564" y="320">
   <point/>
  </object>
  <object id="797" name="grass" x="592" y="312">
   <point/>
  </object>
  <object id="798" name="grass" x="600" y="364">
   <point/>
  </object>
  <object id="799" name="grass" x="560" y="424">
   <point/>
  </object>
  <object id="800" name="grass" x="604" y="408">
   <point/>
  </object>
  <object id="801" name="grass" x="656" y="404">
   <point/>
  </object>
  <object id="802" name="grass" x="644" y="436">
   <point/>
  </object>
  <object id="803" name="grass" x="680" y="460">
   <point/>
  </object>
  <object id="804" name="grass" x="708" y="428">
   <point/>
  </object>
  <object id="805" name="grass" x="800" y="468">
   <point/>
  </object>
  <object id="806" name="grass" x="836" y="440">
   <point/>
  </object>
  <object id="807" name="grass" x="852" y="468">
   <point/>
  </object>
  <object id="808" name="grass" x="896" y="448">
   <point/>
  </object>
  <object id="809" name="grass" x="904" y="492">
   <point/>
  </object>
  <object id="810" name="grass" x="932" y="468">
   <point/>
  </object>
  <object id="811" name="grass" x="960" y="504">
   <point/>
  </object>
  <object id="812" name="grass" x="944" y="524">
   <point/>
  </object>
  <object id="813" name="grass" x="928" y="572">
   <point/>
  </object>
  <object id="814" name="grass" x="920" y="636">
   <point/>
  </object>
  <object id="815" name="grass" x="876" y="592">
   <point/>
  </object>
  <object id="816" name="grass" x="836" y="584">
   <point/>
  </object>
  <object id="817" name="grass" x="826" y="616.545">
   <point/>
  </object>
  <object id="818" name="grass" x="728" y="576">
   <point/>
  </object>
  <object id="819" name="grass" x="820" y="656">
   <point/>
  </object>
  <object id="820" name="grass" x="749.455" y="590.727">
   <point/>
  </object>
  <object id="823" name="grass" x="684" y="648">
   <point/>
  </object>
  <object id="824" name="grass" x="692" y="572">
   <point/>
  </object>
  <object id="825" name="grass" x="668" y="564">
   <point/>
  </object>
  <object id="826" name="grass" x="664" y="608">
   <point/>
  </object>
  <object id="827" name="grass" x="524" y="620">
   <point/>
  </object>
  <object id="828" name="grass" x="536" y="664">
   <point/>
  </object>
  <object id="829" name="grass" x="576" y="664">
   <point/>
  </object>
  <object id="830" name="grass" x="556" y="692">
   <point/>
  </object>
  <object id="831" name="grass" x="452" y="616">
   <point/>
  </object>
  <object id="832" name="grass" x="448" y="580">
   <point/>
  </object>
  <object id="833" name="grass" x="396" y="572">
   <point/>
  </object>
  <object id="834" name="grass" x="372" y="584">
   <point/>
  </object>
  <object id="835" name="grass" x="344" y="564">
   <point/>
  </object>
  <object id="836" name="grass" x="288" y="576">
   <point/>
  </object>
  <object id="837" name="grass" x="316" y="544">
   <point/>
  </object>
  <object id="838" name="grass" x="328" y="512">
   <point/>
  </object>
  <object id="841" name="grass" x="272" y="536">
   <point/>
  </object>
  <object id="842" name="grass" x="260" y="560">
   <point/>
  </object>
  <object id="843" name="grass" x="236" y="588">
   <point/>
  </object>
  <object id="854" name="grass" x="152" y="664">
   <point/>
  </object>
  <object id="855" name="grass" x="196" y="596">
   <point/>
  </object>
  <object id="856" name="grass" x="140" y="636">
   <point/>
  </object>
  <object id="857" name="grass" x="152" y="600">
   <point/>
  </object>
  <object id="858" name="grass" x="84" y="612">
   <point/>
  </object>
  <object id="859" name="grass" x="64" y="648">
   <point/>
  </object>
  <object id="860" name="grass" x="96" y="720">
   <point/>
  </object>
  <object id="861" name="grass" x="72" y="732">
   <point/>
  </object>
  <object id="862" name="grass" x="160" y="544">
   <point/>
  </object>
  <object id="864" name="grass" x="187.818" y="510.909">
   <point/>
  </object>
  <object id="865" name="grass" x="228" y="492">
   <point/>
  </object>
  <object id="871" name="grass" x="368" y="392">
   <point/>
  </object>
  <object id="873" name="grass" x="440" y="412">
   <point/>
  </object>
  <object id="874" name="grass" x="520" y="444">
   <point/>
  </object>
  <object id="875" name="grass" x="424" y="376">
   <point/>
  </object>
  <object id="882" name="grass" x="628" y="280">
   <point/>
  </object>
  <object id="883" name="grass" x="694.545" y="317.818">
   <point/>
  </object>
  <object id="884" name="grass" x="636" y="308">
   <point/>
  </object>
  <object id="885" name="grass" x="740" y="344">
   <point/>
  </object>
  <object id="886" name="grass" x="792" y="352">
   <point/>
  </object>
  <object id="887" name="grass" x="780" y="320">
   <point/>
  </object>
  <object id="888" name="grass" x="888" y="320">
   <point/>
  </object>
  <object id="889" name="grass" x="880" y="372">
   <point/>
  </object>
  <object id="890" name="grass" x="928" y="368">
   <point/>
  </object>
  <object id="891" name="grass" x="986.727" y="362.727">
   <point/>
  </object>
  <object id="892" name="grass" x="992" y="304">
   <point/>
  </object>
  <object id="893" name="grass" x="1008" y="392">
   <point/>
  </object>
  <object id="894" name="grass" x="1056" y="404">
   <point/>
  </object>
  <object id="895" name="grass" x="1036" y="332">
   <point/>
  </object>
  <object id="896" name="grass" x="1012" y="444">
   <point/>
  </object>
  <object id="897" name="grass" x="1072" y="468">
   <point/>
  </object>
  <object id="898" name="grass" x="1120" y="496">
   <point/>
  </object>
  <object id="899" name="grass" x="1060" y="516">
   <point/>
  </object>
  <object id="900" name="grass" x="1132" y="544">
   <point/>
  </object>
  <object id="901" name="grass" x="1016" y="544">
   <point/>
  </object>
  <object id="902" name="grass" x="1056" y="576">
   <point/>
  </object>
  <object id="903" name="grass" x="1108" y="548">
   <point/>
  </object>
  <object id="904" name="grass" x="1000" y="572">
   <point/>
  </object>
  <object id="905" name="grass" x="996" y="604">
   <point/>
  </object>
  <object id="906" name="grass" x="1032" y="612">
   <point/>
  </object>
  <object id="907" name="grass" x="944" y="648">
   <point/>
  </object>
  <object id="908" name="grass" x="996" y="656">
   <point/>
  </object>
  <object id="909" name="grass" x="1004" y="680">
   <point/>
  </object>
  <object id="910" name="grass" x="1040.91" y="687.091">
   <point/>
  </object>
  <object id="911" name="grass" x="984" y="720">
   <point/>
  </object>
  <object id="912" name="grass" x="868" y="624">
   <point/>
  </object>
  <object id="918" name="grass" x="760" y="672">
   <point/>
  </object>
  <object id="920" name="grass" x="724" y="704">
   <point/>
  </object>
  <object id="921" name="grass" x="748" y="692">
   <point/>
  </object>
  <object id="922" name="grass" x="692" y="672">
   <point/>
  </object>
  <object id="923" name="grass" x="648" y="748">
   <point/>
  </object>
  <object id="924" name="grass" x="612" y="724">
   <point/>
  </object>
  <object id="925" name="grass" x="544" y="796">
   <point/>
  </object>
  <object id="926" name="grass" x="568" y="724">
   <point/>
  </object>
  <object id="927" name="grass" x="612" y="780">
   <point/>
  </object>
  <object id="928" name="grass" x="472" y="756">
   <point/>
  </object>
  <object id="930" name="grass" x="424" y="712">
   <point/>
  </object>
  <object id="939" name="grass" x="421.818" y="646">
   <point/>
  </object>
  <object id="941" name="grass" x="664" y="524">
   <point/>
  </object>
  <object id="942" name="grass" x="704" y="508">
   <point/>
  </object>
  <object id="943" name="grass" x="764" y="512">
   <point/>
  </object>
  <object id="945" name="grass" x="852" y="552">
   <point/>
  </object>
  <object id="946" name="grass" x="832" y="512">
   <point/>
  </object>
  <object id="947" name="grass" x="648" y="232">
   <point/>
  </object>
  <object id="948" name="grass" x="678.333" y="250.333">
   <point/>
  </object>
  <object id="949" name="grass" x="688" y="172">
   <point/>
  </object>
  <object id="950" name="grass" x="652" y="168">
   <point/>
  </object>
  <object id="951" name="grass" x="688" y="132">
   <point/>
  </object>
  <object id="952" name="grass" x="647.455" y="132.727">
   <point/>
  </object>
  <object id="953" name="grass" x="597.455" y="40.545">
   <point/>
  </object>
  <object id="954" name="grass" x="587.273" y="84.727">
   <point/>
  </object>
  <object id="955" name="grass" x="583.636" y="19.8182">
   <point/>
  </object>
  <object id="956" name="grass" x="448" y="36">
   <point/>
  </object>
  <object id="957" name="grass" x="450" y="68.182">
   <point/>
  </object>
  <object id="958" name="grass" x="456" y="132">
   <point/>
  </object>
  <object id="959" name="grass" x="392" y="136">
   <point/>
  </object>
  <object id="960" name="grass" x="340.182" y="130.909">
   <point/>
  </object>
  <object id="961" name="grass" x="416.727" y="-9.4545">
   <point/>
  </object>
  <object id="962" name="grass" x="428" y="40">
   <point/>
  </object>
  <object id="963" name="grass" x="456" y="96">
   <point/>
  </object>
  <object id="1001" name="grass" x="908" y="664">
   <point/>
  </object>
  <object id="1002" name="grass" x="924" y="724">
   <point/>
  </object>
  <object id="1003" name="grass" x="1008" y="764">
   <point/>
  </object>
  <object id="1004" name="grass" x="824" y="704">
   <point/>
  </object>
  <object id="1005" name="grass" x="768" y="732">
   <point/>
  </object>
  <object id="1007" name="grass" x="488" y="604">
   <point/>
  </object>
  <object id="1012" name="grass" x="276" y="680">
   <point/>
  </object>
  <object id="1013" name="grass" x="236" y="704">
   <point/>
  </object>
  <object id="1014" name="grass" x="264" y="764">
   <point/>
  </object>
  <object id="1015" name="grass" x="221.667" y="737.333">
   <point/>
  </object>
  <object id="1016" name="grass" x="256" y="724">
   <point/>
  </object>
  <object id="1017" name="grass" x="328" y="612">
   <point/>
  </object>
  <object id="1018" name="grass" x="364" y="644">
   <point/>
  </object>
  <object id="1019" name="grass" x="356" y="704">
   <point/>
  </object>
  <object id="1020" name="grass" x="296" y="744">
   <point/>
  </object>
  <object id="1021" name="grass" x="360" y="768">
   <point/>
  </object>
  <object id="1022" name="grass" x="384" y="672">
   <point/>
  </object>
  <object id="1023" name="grass" x="504" y="724">
   <point/>
  </object>
  <object id="1024" name="grass" x="760" y="768">
   <point/>
  </object>
  <object id="1025" name="grass" x="884" y="700">
   <point/>
  </object>
  <object id="1026" name="grass" x="908" y="744">
   <point/>
  </object>
  <object id="1027" name="grass" x="968" y="756">
   <point/>
  </object>
  <object id="1028" name="grass" x="524" y="404">
   <point/>
  </object>
  <object id="1029" name="grass" x="404" y="340">
   <point/>
  </object>
  <object id="1030" name="grass" x="360" y="344">
   <point/>
  </object>
  <object id="1032" name="grass" x="473.667" y="477">
   <point/>
  </object>
  <object id="1033" name="grass" x="439.667" y="489.333">
   <point/>
  </object>
  <object id="1034" name="grass" x="268" y="488">
   <point/>
  </object>
  <object id="1062" name="sink_bone" x="200" y="408">
   <point/>
  </object>
 </objectgroup>
 <objectgroup id="9" name="Trees">
  <object id="738" name="big" type="fake" x="200" y="484">
   <point/>
  </object>
  <object id="740" name="big" type="fake" x="664" y="300">
   <point/>
  </object>
  <object id="741" name="big" type="fake" x="363.75" y="154.25">
   <point/>
  </object>
  <object id="742" name="big" type="fake" x="621.932" y="83.523">
   <point/>
  </object>
  <object id="743" name="big" type="fake" x="755.75" y="366.25">
   <point/>
  </object>
  <object id="744" name="big" type="fake" x="1032" y="528">
   <point/>
  </object>
  <object id="745" name="big" type="fake" x="882" y="816.75">
   <point/>
  </object>
  <object id="746" name="big" type="fake" x="644" y="856">
   <point/>
  </object>
  <object id="748" name="blossom" type="fake" x="580" y="764">
   <point/>
  </object>
  <object id="749" name="blossom" type="fake" x="1024" y="588">
   <point/>
  </object>
  <object id="750" name="blossom" type="fake" x="956" y="384">
   <point/>
  </object>
  <object id="751" name="blossom" type="fake" x="840" y="368">
   <point/>
  </object>
  <object id="752" name="blossom" type="fake" x="816" y="276">
   <point/>
  </object>
  <object id="753" name="blossom" type="fake" x="720" y="196">
   <point/>
  </object>
  <object id="754" name="blossom" type="fake" x="600" y="124">
   <point/>
  </object>
  <object id="755" name="blossom" type="fake" x="427" y="126.5">
   <point/>
  </object>
  <object id="756" name="blossom" type="fake" x="400" y="72">
   <point/>
  </object>
  <object id="757" name="blossom" type="fake" x="436" y="9.5">
   <point/>
  </object>
  <object id="758" name="blossom" type="fake" x="600" y="0">
   <point/>
  </object>
  <object id="759" name="blossom" type="fake" x="396" y="316">
   <point/>
  </object>
  <object id="760" name="blossom" type="fake" x="512" y="480">
   <point/>
  </object>
  <object id="761" name="blossom" type="fake" x="492" y="412">
   <point/>
  </object>
  <object id="762" name="blossom" x="692" y="396">
   <point/>
  </object>
  <object id="763" name="blossom" type="fake" x="670.545" y="504.182">
   <point/>
  </object>
  <object id="765" name="blossom" type="fake" x="800" y="504">
   <point/>
  </object>
  <object id="767" name="blossom" type="fake" x="1088" y="452">
   <point/>
  </object>
  <object id="768" name="blossom" type="fake" x="1136" y="344">
   <point/>
  </object>
  <object id="769" name="blossom" type="fake" x="1052" y="284">
   <point/>
  </object>
  <object id="770" name="blossom" type="fake" x="928" y="304">
   <point/>
  </object>
  <object id="771" name="blossom" type="fake" x="1056" y="364">
   <point/>
  </object>
  <object id="772" name="blossom" type="fake" x="1140" y="596">
   <point/>
  </object>
  <object id="773" name="blossom" type="fake" x="1084" y="708">
   <point/>
  </object>
  <object id="774" name="blossom" type="fake" x="952" y="676">
   <point/>
  </object>
  <object id="775" name="blossom" type="fake" x="392" y="628">
   <point/>
  </object>
  <object id="777" name="blossom" type="fake" x="448.545" y="653.455">
   <point/>
  </object>
  <object id="781" name="blossom" type="fake" x="116" y="616">
   <point/>
  </object>
  <object id="782" name="blossom" type="fake" x="116" y="748">
   <point/>
  </object>
  <object id="783" name="blossom" type="fake" x="189.667" y="568.667">
   <point/>
  </object>
  <object id="784" name="blossom" type="fake" x="136" y="496">
   <point/>
  </object>
  <object id="994" name="blossom" type="fake" x="144" y="816">
   <point/>
  </object>
  <object id="995" name="blossom" type="fake" x="323.5" y="668.25">
   <point/>
  </object>
  <object id="996" name="big" type="fake" x="320.75" y="846.75">
   <point/>
  </object>
  <object id="997" name="blossom" type="fake" x="390" y="734.5">
   <point/>
  </object>
  <object id="998" name="blossom" type="fake" x="516" y="776">
   <point/>
  </object>
  <object id="999" name="blossom" type="fake" x="813" y="737.75">
   <point/>
  </object>
  <object id="1000" name="blossom" type="fake" x="777" y="808.25">
   <point/>
  </object>
  <object id="1006" name="blossom" type="fake" x="64" y="792">
   <point/>
  </object>
  <object id="1011" name="blossom" type="fake" x="188.667" y="666.667">
   <point/>
  </object>
  <object id="1031" name="blossom" type="fake" x="380" y="367.333">
   <point/>
  </object>
  <object id="1059" name="blossom" type="fake" x="640" y="812">
   <point/>
  </object>
  <object id="1060" name="blossom" x="503.273" y="674.727">
   <point/>
  </object>
  <object id="1061" name="big" type="fake" x="470.023" y="827.659">
   <point/>
  </object>
 </objectgroup>
 <objectgroup id="8" name="Chests">
  <object id="1063" name="meadowGold" type="small" x="456" y="456">
   <properties>
    <property name="lootClass" value="resource"/>
    <property name="lootCount" type="int" value="6"/>
    <property name="lootId" value="gold"/>
   </properties>
   <point/>
  </object>
 </objectgroup>
 <objectgroup id="6" name="Enemies">
  <object id="603" name="slimeRed" x="928" y="496">
   <point/>
  </object>
  <object id="604" name="slimeRed" x="736" y="636">
   <point/>
  </object>
 </objectgroup>
 <objectgroup id="17" name="Rocks"/>
 <objectgroup id="14" name="NPC"/>
 <objectgroup id="13" name="Portals"/>
 <objectgroup id="10" name="Water">
  <object id="455" type="still" x="440" y="272" width="160" height="16"/>
  <object id="638" type="solid" x="604" y="668" width="56" height="16"/>
  <object id="666" x="540" y="440" width="20" height="156"/>
  <object id="667" x="556" y="456" width="88" height="188"/>
  <object id="670" x="560" y="448" width="8" height="8"/>
  <object id="673" x="448" y="272" width="144" height="20"/>
  <object id="722" x="432" y="272" width="8" height="8"/>
  <object id="723" x="600" y="272" width="8" height="8"/>
  <object id="724" x="396" y="192" width="228" height="48"/>
  <object id="725" x="396" y="240" width="212" height="32"/>
  <object id="726" x="240" y="224" width="76" height="32"/>
  <object id="727" x="492" y="144" width="56" height="48"/>
  <object id="977" x="348" y="504" width="144" height="28"/>
  <object id="979" x="348" y="416" width="72" height="88"/>
  <object id="980" x="240" y="368" width="108" height="100"/>
  <object id="983" x="272" y="272" width="80" height="96"/>
  <object id="984" x="288" y="256" width="28" height="16"/>
  <object id="985" x="316" y="224" width="80" height="48"/>
  <object id="990" x="160" y="384" width="80" height="48"/>
  <object id="991" x="112" y="368" width="48" height="64"/>
  <object id="992" x="0" y="352" width="112" height="64"/>
  <object id="1008" x="492" y="512" width="48" height="68"/>
  <object id="1009" x="460" y="548" width="32" height="16"/>
  <object id="1010" x="380" y="532" width="112" height="16"/>
  <object id="1050" x="644" y="620" width="16" height="24"/>
  <object id="1051" x="604" y="684" width="56" height="36"/>
  <object id="1052" x="660" y="680" width="28" height="56"/>
  <object id="1053" x="640" y="720" width="20" height="16"/>
  <object id="1054" x="672" y="736" width="64" height="64"/>
  <object id="1055" x="688" y="712" width="48" height="24"/>
  <object id="1056" x="688" y="696" width="16" height="16"/>
 </objectgroup>
 <objectgroup id="18" name="Tutorials">
  <object id="640" name="walk" x="520" y="268">
   <point/>
  </object>
  <object id="641" name="sword" x="776" y="456">
   <point/>
  </object>
  <object id="732" name="pickup" x="839.068" y="610.113">
   <point/>
  </object>
 </objectgroup>
 <objectgroup id="19" name="Weapons">
  <object id="608" name="torch" x="794.318" y="575.045">
   <properties>
    <property name="readyToMark" type="bool" value="true"/>
   </properties>
   <point/>
  </object>
 </objectgroup>
 <objectgroup id="7" name="Transitions">
  <object id="1057" name="2_forest" type="down" x="192" y="800" width="80" height="16">
   <properties>
    <property name="destX" type="int" value="-1"/>
    <property name="destY" type="int" value="12"/>
   </properties>
  </object>
  <object id="1058" name="2_forest" type="down" x="672" y="800" width="64" height="16">
   <properties>
    <property name="destX" type="int" value="-1"/>
    <property name="destY" type="int" value="12"/>
   </properties>
  </object>
  <object id="1065" name="c_waterfall" x="488" y="160" width="64" height="16">
   <properties>
    <property name="destX" type="int" value="504"/>
    <property name="destY" type="int" value="370"/>
   </properties>
  </object>
  <object id="1066" name="4_camp" type="left" x="-16" y="352" width="16" height="64">
   <properties>
    <property name="destX" type="int" value="1460"/>
    <property name="destY" type="int" value="416"/>
   </properties>
  </object>
 </objectgroup>
 <objectgroup id="25" name="Pins">
  <object id="1067" name="start" x="520" y="312">
   <point/>
  </object>
 </objectgroup>
</map>
