<?xml version="1.0" encoding="UTF-8"?>
<map version="1.10" tiledversion="1.10.2" orientation="orthogonal" renderorder="right-down" width="80" height="52" tilewidth="16" tileheight="16" infinite="0" nextlayerid="27" nextobjectid="2653">
 <editorsettings>
  <export target="2_forest.lua" format="lua"/>
 </editorsettings>
 <properties>
  <property name="ambience" value="wind"/>
  <property name="background" value="fog"/>
  <property name="dark" type="int" value="25"/>
  <property name="darkType" value="parallax"/>
  <property name="defaultX" type="int" value="290"/>
  <property name="defaultY" type="int" value="290"/>
  <property name="music" value="forest"/>
  <property name="shader" value="saturation"/>
  <property name="shaderVal" type="float" value="0.7"/>
  <property name="weather" value="none"/>
 </properties>
 <tileset firstgid="1" name="overworld" tilewidth="16" tileheight="16" tilecount="736" columns="23">
  <image source="_tilesets/overworld.png" width="368" height="520"/>
  <tile id="176">
   <animation>
    <frame tileid="176" duration="100"/>
    <frame tileid="177" duration="100"/>
    <frame tileid="178" duration="100"/>
   </animation>
  </tile>
  <tile id="199">
   <animation>
    <frame tileid="199" duration="100"/>
    <frame tileid="200" duration="100"/>
    <frame tileid="201" duration="100"/>
   </animation>
  </tile>
  <tile id="222">
   <animation>
    <frame tileid="222" duration="100"/>
    <frame tileid="223" duration="100"/>
    <frame tileid="224" duration="100"/>
   </animation>
  </tile>
  <tile id="245">
   <animation>
    <frame tileid="245" duration="200"/>
    <frame tileid="268" duration="200"/>
    <frame tileid="291" duration="200"/>
   </animation>
  </tile>
  <tile id="246">
   <animation>
    <frame tileid="246" duration="200"/>
    <frame tileid="269" duration="200"/>
    <frame tileid="292" duration="200"/>
   </animation>
  </tile>
  <tile id="247">
   <animation>
    <frame tileid="247" duration="200"/>
    <frame tileid="270" duration="200"/>
    <frame tileid="293" duration="200"/>
   </animation>
  </tile>
 </tileset>
 <tileset firstgid="737" name="water" tilewidth="16" tileheight="16" tilecount="1600" columns="40">
  <image source="_tilesets/water2.png" width="640" height="640"/>
  <tile id="41">
   <animation>
    <frame tileid="41" duration="150"/>
    <frame tileid="44" duration="150"/>
    <frame tileid="47" duration="150"/>
    <frame tileid="50" duration="150"/>
    <frame tileid="53" duration="150"/>
    <frame tileid="56" duration="150"/>
    <frame tileid="59" duration="150"/>
    <frame tileid="62" duration="150"/>
   </animation>
  </tile>
  <tile id="42">
   <animation>
    <frame tileid="42" duration="150"/>
    <frame tileid="45" duration="150"/>
    <frame tileid="48" duration="150"/>
    <frame tileid="51" duration="150"/>
    <frame tileid="54" duration="150"/>
    <frame tileid="57" duration="150"/>
    <frame tileid="60" duration="150"/>
    <frame tileid="63" duration="150"/>
   </animation>
  </tile>
  <tile id="43">
   <animation>
    <frame tileid="43" duration="150"/>
    <frame tileid="46" duration="150"/>
    <frame tileid="49" duration="150"/>
    <frame tileid="52" duration="150"/>
    <frame tileid="55" duration="150"/>
    <frame tileid="58" duration="150"/>
    <frame tileid="61" duration="150"/>
    <frame tileid="64" duration="150"/>
   </animation>
  </tile>
  <tile id="66">
   <animation>
    <frame tileid="66" duration="100"/>
    <frame tileid="67" duration="100"/>
    <frame tileid="68" duration="100"/>
   </animation>
  </tile>
  <tile id="70">
   <animation>
    <frame tileid="70" duration="150"/>
    <frame tileid="71" duration="150"/>
    <frame tileid="72" duration="150"/>
    <frame tileid="73" duration="150"/>
    <frame tileid="74" duration="150"/>
    <frame tileid="75" duration="150"/>
    <frame tileid="76" duration="150"/>
    <frame tileid="77" duration="150"/>
   </animation>
  </tile>
  <tile id="81">
   <animation>
    <frame tileid="81" duration="150"/>
    <frame tileid="84" duration="150"/>
    <frame tileid="87" duration="150"/>
    <frame tileid="90" duration="150"/>
    <frame tileid="93" duration="150"/>
    <frame tileid="96" duration="150"/>
    <frame tileid="99" duration="150"/>
    <frame tileid="102" duration="150"/>
   </animation>
  </tile>
  <tile id="82">
   <animation>
    <frame tileid="82" duration="150"/>
    <frame tileid="85" duration="150"/>
    <frame tileid="88" duration="150"/>
    <frame tileid="91" duration="150"/>
    <frame tileid="94" duration="150"/>
    <frame tileid="97" duration="150"/>
    <frame tileid="100" duration="150"/>
    <frame tileid="103" duration="150"/>
   </animation>
  </tile>
  <tile id="83">
   <animation>
    <frame tileid="83" duration="150"/>
    <frame tileid="86" duration="150"/>
    <frame tileid="89" duration="150"/>
    <frame tileid="92" duration="150"/>
    <frame tileid="95" duration="150"/>
    <frame tileid="101" duration="150"/>
    <frame tileid="104" duration="150"/>
   </animation>
  </tile>
  <tile id="106">
   <animation>
    <frame tileid="106" duration="100"/>
    <frame tileid="107" duration="100"/>
    <frame tileid="108" duration="100"/>
   </animation>
  </tile>
  <tile id="121">
   <animation>
    <frame tileid="121" duration="150"/>
    <frame tileid="124" duration="150"/>
    <frame tileid="127" duration="150"/>
    <frame tileid="130" duration="150"/>
    <frame tileid="133" duration="150"/>
    <frame tileid="136" duration="150"/>
    <frame tileid="139" duration="150"/>
    <frame tileid="142" duration="150"/>
   </animation>
  </tile>
  <tile id="122">
   <animation>
    <frame tileid="122" duration="150"/>
    <frame tileid="125" duration="150"/>
    <frame tileid="128" duration="150"/>
    <frame tileid="131" duration="150"/>
    <frame tileid="134" duration="150"/>
    <frame tileid="137" duration="150"/>
    <frame tileid="140" duration="150"/>
    <frame tileid="143" duration="150"/>
   </animation>
  </tile>
  <tile id="123">
   <animation>
    <frame tileid="123" duration="150"/>
    <frame tileid="126" duration="150"/>
    <frame tileid="129" duration="150"/>
    <frame tileid="132" duration="150"/>
    <frame tileid="135" duration="150"/>
    <frame tileid="138" duration="150"/>
    <frame tileid="141" duration="150"/>
    <frame tileid="144" duration="150"/>
   </animation>
  </tile>
  <tile id="146">
   <animation>
    <frame tileid="146" duration="100"/>
    <frame tileid="147" duration="100"/>
    <frame tileid="148" duration="100"/>
   </animation>
  </tile>
  <tile id="150">
   <animation>
    <frame tileid="150" duration="150"/>
    <frame tileid="151" duration="150"/>
    <frame tileid="152" duration="150"/>
    <frame tileid="153" duration="150"/>
    <frame tileid="154" duration="150"/>
    <frame tileid="155" duration="150"/>
    <frame tileid="156" duration="150"/>
    <frame tileid="157" duration="150"/>
   </animation>
  </tile>
  <tile id="186">
   <animation>
    <frame tileid="186" duration="200"/>
    <frame tileid="226" duration="200"/>
    <frame tileid="266" duration="200"/>
   </animation>
  </tile>
  <tile id="187">
   <animation>
    <frame tileid="187" duration="200"/>
    <frame tileid="227" duration="200"/>
    <frame tileid="267" duration="200"/>
   </animation>
  </tile>
  <tile id="188">
   <animation>
    <frame tileid="188" duration="200"/>
    <frame tileid="228" duration="200"/>
    <frame tileid="268" duration="200"/>
   </animation>
  </tile>
  <tile id="201">
   <animation>
    <frame tileid="201" duration="150"/>
    <frame tileid="204" duration="150"/>
    <frame tileid="207" duration="150"/>
    <frame tileid="210" duration="150"/>
    <frame tileid="213" duration="150"/>
    <frame tileid="216" duration="150"/>
    <frame tileid="219" duration="150"/>
    <frame tileid="222" duration="150"/>
   </animation>
  </tile>
  <tile id="202">
   <animation>
    <frame tileid="202" duration="150"/>
    <frame tileid="205" duration="150"/>
    <frame tileid="208" duration="150"/>
    <frame tileid="211" duration="150"/>
    <frame tileid="214" duration="150"/>
    <frame tileid="217" duration="150"/>
    <frame tileid="220" duration="150"/>
    <frame tileid="223" duration="150"/>
   </animation>
  </tile>
  <tile id="203">
   <animation>
    <frame tileid="203" duration="150"/>
    <frame tileid="206" duration="150"/>
    <frame tileid="209" duration="150"/>
    <frame tileid="212" duration="150"/>
    <frame tileid="215" duration="150"/>
    <frame tileid="218" duration="150"/>
    <frame tileid="221" duration="150"/>
    <frame tileid="224" duration="150"/>
   </animation>
  </tile>
  <tile id="241">
   <animation>
    <frame tileid="241" duration="150"/>
    <frame tileid="244" duration="150"/>
    <frame tileid="247" duration="150"/>
    <frame tileid="250" duration="150"/>
    <frame tileid="253" duration="150"/>
    <frame tileid="256" duration="150"/>
    <frame tileid="259" duration="150"/>
    <frame tileid="262" duration="150"/>
   </animation>
  </tile>
  <tile id="243">
   <animation>
    <frame tileid="243" duration="150"/>
    <frame tileid="246" duration="150"/>
    <frame tileid="249" duration="150"/>
    <frame tileid="252" duration="150"/>
    <frame tileid="255" duration="150"/>
    <frame tileid="258" duration="150"/>
    <frame tileid="261" duration="150"/>
    <frame tileid="264" duration="150"/>
   </animation>
  </tile>
  <tile id="281">
   <animation>
    <frame tileid="281" duration="150"/>
    <frame tileid="284" duration="150"/>
    <frame tileid="287" duration="150"/>
    <frame tileid="290" duration="150"/>
    <frame tileid="293" duration="150"/>
    <frame tileid="296" duration="150"/>
    <frame tileid="299" duration="150"/>
    <frame tileid="302" duration="150"/>
   </animation>
  </tile>
  <tile id="282">
   <animation>
    <frame tileid="282" duration="150"/>
    <frame tileid="285" duration="150"/>
    <frame tileid="288" duration="150"/>
    <frame tileid="291" duration="150"/>
    <frame tileid="294" duration="150"/>
    <frame tileid="297" duration="150"/>
    <frame tileid="300" duration="150"/>
    <frame tileid="303" duration="150"/>
   </animation>
  </tile>
  <tile id="283">
   <animation>
    <frame tileid="283" duration="150"/>
    <frame tileid="286" duration="150"/>
    <frame tileid="289" duration="150"/>
    <frame tileid="292" duration="150"/>
    <frame tileid="295" duration="150"/>
    <frame tileid="298" duration="150"/>
    <frame tileid="301" duration="150"/>
    <frame tileid="304" duration="150"/>
   </animation>
  </tile>
  <tile id="361">
   <animation>
    <frame tileid="361" duration="150"/>
    <frame tileid="401" duration="150"/>
    <frame tileid="441" duration="150"/>
    <frame tileid="481" duration="150"/>
   </animation>
  </tile>
  <tile id="362">
   <animation>
    <frame tileid="362" duration="150"/>
    <frame tileid="402" duration="150"/>
    <frame tileid="442" duration="150"/>
    <frame tileid="482" duration="150"/>
   </animation>
  </tile>
  <tile id="364">
   <animation>
    <frame tileid="364" duration="150"/>
    <frame tileid="404" duration="150"/>
    <frame tileid="444" duration="150"/>
    <frame tileid="484" duration="150"/>
   </animation>
  </tile>
  <tile id="365">
   <animation>
    <frame tileid="365" duration="150"/>
    <frame tileid="405" duration="150"/>
    <frame tileid="445" duration="150"/>
    <frame tileid="485" duration="150"/>
   </animation>
  </tile>
  <tile id="367">
   <animation>
    <frame tileid="367" duration="150"/>
    <frame tileid="407" duration="150"/>
    <frame tileid="447" duration="150"/>
    <frame tileid="487" duration="150"/>
   </animation>
  </tile>
  <tile id="368">
   <animation>
    <frame tileid="368" duration="150"/>
    <frame tileid="408" duration="150"/>
    <frame tileid="448" duration="150"/>
    <frame tileid="488" duration="150"/>
   </animation>
  </tile>
  <tile id="370">
   <animation>
    <frame tileid="370" duration="150"/>
    <frame tileid="410" duration="150"/>
    <frame tileid="450" duration="150"/>
    <frame tileid="490" duration="150"/>
   </animation>
  </tile>
  <tile id="371">
   <animation>
    <frame tileid="371" duration="150"/>
    <frame tileid="411" duration="150"/>
    <frame tileid="451" duration="150"/>
    <frame tileid="491" duration="150"/>
   </animation>
  </tile>
  <tile id="372">
   <animation>
    <frame tileid="372" duration="150"/>
    <frame tileid="412" duration="150"/>
    <frame tileid="452" duration="150"/>
    <frame tileid="492" duration="150"/>
   </animation>
  </tile>
  <tile id="374">
   <animation>
    <frame tileid="374" duration="150"/>
    <frame tileid="414" duration="150"/>
    <frame tileid="454" duration="150"/>
    <frame tileid="494" duration="150"/>
   </animation>
  </tile>
  <tile id="375">
   <animation>
    <frame tileid="375" duration="150"/>
    <frame tileid="415" duration="150"/>
    <frame tileid="455" duration="150"/>
    <frame tileid="495" duration="150"/>
   </animation>
  </tile>
  <tile id="379">
   <animation>
    <frame tileid="379" duration="150"/>
    <frame tileid="419" duration="150"/>
    <frame tileid="459" duration="150"/>
    <frame tileid="499" duration="150"/>
   </animation>
  </tile>
  <tile id="380">
   <animation>
    <frame tileid="380" duration="150"/>
    <frame tileid="420" duration="150"/>
    <frame tileid="460" duration="150"/>
    <frame tileid="500" duration="150"/>
   </animation>
  </tile>
  <tile id="382">
   <animation>
    <frame tileid="382" duration="150"/>
    <frame tileid="422" duration="150"/>
    <frame tileid="462" duration="150"/>
    <frame tileid="502" duration="150"/>
   </animation>
  </tile>
  <tile id="383">
   <animation>
    <frame tileid="383" duration="150"/>
    <frame tileid="423" duration="150"/>
    <frame tileid="463" duration="150"/>
    <frame tileid="503" duration="150"/>
   </animation>
  </tile>
  <tile id="385">
   <animation>
    <frame tileid="385" duration="150"/>
    <frame tileid="425" duration="150"/>
    <frame tileid="465" duration="150"/>
    <frame tileid="505" duration="150"/>
   </animation>
  </tile>
  <tile id="386">
   <animation>
    <frame tileid="386" duration="150"/>
    <frame tileid="426" duration="150"/>
    <frame tileid="466" duration="150"/>
    <frame tileid="506" duration="150"/>
   </animation>
  </tile>
  <tile id="388">
   <animation>
    <frame tileid="388" duration="150"/>
    <frame tileid="428" duration="150"/>
    <frame tileid="468" duration="150"/>
    <frame tileid="508" duration="150"/>
   </animation>
  </tile>
  <tile id="389">
   <animation>
    <frame tileid="389" duration="150"/>
    <frame tileid="429" duration="150"/>
    <frame tileid="469" duration="150"/>
    <frame tileid="509" duration="150"/>
   </animation>
  </tile>
  <tile id="390">
   <animation>
    <frame tileid="390" duration="150"/>
    <frame tileid="430" duration="150"/>
    <frame tileid="470" duration="150"/>
    <frame tileid="510" duration="150"/>
   </animation>
  </tile>
  <tile id="392">
   <animation>
    <frame tileid="392" duration="150"/>
    <frame tileid="432" duration="150"/>
    <frame tileid="472" duration="150"/>
    <frame tileid="512" duration="150"/>
   </animation>
  </tile>
  <tile id="393">
   <animation>
    <frame tileid="393" duration="150"/>
    <frame tileid="433" duration="150"/>
    <frame tileid="473" duration="150"/>
    <frame tileid="513" duration="150"/>
   </animation>
  </tile>
  <tile id="395">
   <animation>
    <frame tileid="395" duration="150"/>
    <frame tileid="435" duration="150"/>
    <frame tileid="475" duration="150"/>
    <frame tileid="515" duration="150"/>
   </animation>
  </tile>
  <tile id="396">
   <animation>
    <frame tileid="396" duration="150"/>
    <frame tileid="436" duration="150"/>
    <frame tileid="476" duration="150"/>
    <frame tileid="516" duration="150"/>
   </animation>
  </tile>
  <tile id="561">
   <animation>
    <frame tileid="561" duration="150"/>
    <frame tileid="564" duration="150"/>
    <frame tileid="567" duration="150"/>
    <frame tileid="570" duration="150"/>
   </animation>
  </tile>
  <tile id="563">
   <animation>
    <frame tileid="563" duration="150"/>
    <frame tileid="566" duration="150"/>
    <frame tileid="569" duration="150"/>
    <frame tileid="572" duration="150"/>
   </animation>
  </tile>
  <tile id="579">
   <animation>
    <frame tileid="579" duration="150"/>
    <frame tileid="582" duration="150"/>
    <frame tileid="585" duration="150"/>
    <frame tileid="588" duration="150"/>
   </animation>
  </tile>
  <tile id="581">
   <animation>
    <frame tileid="581" duration="150"/>
    <frame tileid="584" duration="150"/>
    <frame tileid="587" duration="150"/>
    <frame tileid="590" duration="150"/>
   </animation>
  </tile>
  <tile id="641">
   <animation>
    <frame tileid="641" duration="150"/>
    <frame tileid="644" duration="150"/>
    <frame tileid="647" duration="150"/>
    <frame tileid="650" duration="150"/>
    <frame tileid="653" duration="150"/>
    <frame tileid="656" duration="150"/>
    <frame tileid="659" duration="150"/>
    <frame tileid="662" duration="150"/>
   </animation>
  </tile>
  <tile id="642">
   <animation>
    <frame tileid="642" duration="150"/>
    <frame tileid="645" duration="150"/>
    <frame tileid="648" duration="150"/>
    <frame tileid="651" duration="150"/>
    <frame tileid="654" duration="150"/>
    <frame tileid="657" duration="150"/>
    <frame tileid="660" duration="150"/>
    <frame tileid="663" duration="150"/>
   </animation>
  </tile>
  <tile id="643">
   <animation>
    <frame tileid="643" duration="150"/>
    <frame tileid="646" duration="150"/>
    <frame tileid="649" duration="150"/>
    <frame tileid="652" duration="150"/>
    <frame tileid="655" duration="150"/>
    <frame tileid="658" duration="150"/>
    <frame tileid="661" duration="150"/>
    <frame tileid="664" duration="150"/>
   </animation>
  </tile>
  <tile id="681">
   <animation>
    <frame tileid="681" duration="150"/>
    <frame tileid="684" duration="150"/>
    <frame tileid="687" duration="150"/>
    <frame tileid="690" duration="150"/>
    <frame tileid="693" duration="150"/>
    <frame tileid="696" duration="150"/>
    <frame tileid="699" duration="150"/>
    <frame tileid="702" duration="150"/>
   </animation>
  </tile>
  <tile id="682">
   <animation>
    <frame tileid="682" duration="150"/>
    <frame tileid="685" duration="150"/>
    <frame tileid="688" duration="150"/>
    <frame tileid="691" duration="150"/>
    <frame tileid="694" duration="150"/>
    <frame tileid="697" duration="150"/>
    <frame tileid="700" duration="150"/>
    <frame tileid="703" duration="150"/>
   </animation>
  </tile>
  <tile id="683">
   <animation>
    <frame tileid="683" duration="150"/>
    <frame tileid="686" duration="150"/>
    <frame tileid="689" duration="150"/>
    <frame tileid="692" duration="150"/>
    <frame tileid="695" duration="150"/>
    <frame tileid="698" duration="150"/>
    <frame tileid="701" duration="150"/>
    <frame tileid="704" duration="150"/>
   </animation>
  </tile>
  <tile id="721">
   <animation>
    <frame tileid="721" duration="150"/>
    <frame tileid="724" duration="150"/>
    <frame tileid="727" duration="150"/>
    <frame tileid="730" duration="150"/>
    <frame tileid="733" duration="150"/>
    <frame tileid="736" duration="150"/>
    <frame tileid="739" duration="150"/>
    <frame tileid="742" duration="150"/>
   </animation>
  </tile>
  <tile id="722">
   <animation>
    <frame tileid="722" duration="150"/>
    <frame tileid="725" duration="150"/>
    <frame tileid="728" duration="150"/>
    <frame tileid="731" duration="150"/>
    <frame tileid="734" duration="150"/>
    <frame tileid="737" duration="150"/>
    <frame tileid="740" duration="150"/>
    <frame tileid="743" duration="150"/>
   </animation>
  </tile>
  <tile id="723">
   <animation>
    <frame tileid="723" duration="150"/>
    <frame tileid="726" duration="150"/>
    <frame tileid="729" duration="150"/>
    <frame tileid="732" duration="150"/>
    <frame tileid="735" duration="150"/>
    <frame tileid="738" duration="150"/>
    <frame tileid="741" duration="150"/>
    <frame tileid="744" duration="150"/>
   </animation>
  </tile>
  <tile id="801">
   <animation>
    <frame tileid="801" duration="150"/>
    <frame tileid="804" duration="150"/>
    <frame tileid="807" duration="150"/>
    <frame tileid="810" duration="150"/>
    <frame tileid="813" duration="150"/>
    <frame tileid="816" duration="150"/>
    <frame tileid="819" duration="150"/>
    <frame tileid="822" duration="150"/>
   </animation>
  </tile>
  <tile id="802">
   <animation>
    <frame tileid="802" duration="150"/>
    <frame tileid="805" duration="150"/>
    <frame tileid="808" duration="150"/>
    <frame tileid="811" duration="150"/>
    <frame tileid="814" duration="150"/>
    <frame tileid="817" duration="150"/>
    <frame tileid="820" duration="150"/>
    <frame tileid="823" duration="150"/>
   </animation>
  </tile>
  <tile id="803">
   <animation>
    <frame tileid="803" duration="150"/>
    <frame tileid="806" duration="150"/>
    <frame tileid="809" duration="150"/>
    <frame tileid="812" duration="150"/>
    <frame tileid="815" duration="150"/>
    <frame tileid="818" duration="150"/>
    <frame tileid="821" duration="150"/>
    <frame tileid="824" duration="150"/>
   </animation>
  </tile>
  <tile id="841">
   <animation>
    <frame tileid="841" duration="150"/>
    <frame tileid="844" duration="150"/>
    <frame tileid="847" duration="150"/>
    <frame tileid="850" duration="150"/>
    <frame tileid="853" duration="150"/>
    <frame tileid="856" duration="150"/>
    <frame tileid="859" duration="150"/>
    <frame tileid="862" duration="150"/>
   </animation>
  </tile>
  <tile id="843">
   <animation>
    <frame tileid="843" duration="150"/>
    <frame tileid="846" duration="150"/>
    <frame tileid="849" duration="150"/>
    <frame tileid="852" duration="150"/>
    <frame tileid="855" duration="150"/>
    <frame tileid="858" duration="150"/>
    <frame tileid="861" duration="150"/>
    <frame tileid="864" duration="150"/>
   </animation>
  </tile>
  <tile id="881">
   <animation>
    <frame tileid="881" duration="150"/>
    <frame tileid="884" duration="150"/>
    <frame tileid="887" duration="150"/>
    <frame tileid="890" duration="150"/>
    <frame tileid="893" duration="150"/>
    <frame tileid="896" duration="150"/>
    <frame tileid="899" duration="150"/>
    <frame tileid="902" duration="150"/>
   </animation>
  </tile>
  <tile id="882">
   <animation>
    <frame tileid="882" duration="150"/>
    <frame tileid="885" duration="150"/>
    <frame tileid="888" duration="150"/>
    <frame tileid="891" duration="150"/>
    <frame tileid="894" duration="150"/>
    <frame tileid="897" duration="150"/>
    <frame tileid="900" duration="150"/>
    <frame tileid="903" duration="150"/>
   </animation>
  </tile>
  <tile id="883">
   <animation>
    <frame tileid="883" duration="150"/>
    <frame tileid="886" duration="150"/>
    <frame tileid="889" duration="150"/>
    <frame tileid="892" duration="150"/>
    <frame tileid="895" duration="150"/>
    <frame tileid="898" duration="150"/>
    <frame tileid="901" duration="150"/>
    <frame tileid="904" duration="150"/>
   </animation>
  </tile>
  <wangsets>
   <wangset name="Water" type="corner" tile="-1">
    <wangcolor name="Dirt Edge" color="#ff0000" tile="-1" probability="1"/>
    <wangtile tileid="641" wangid="0,0,0,1,0,0,0,0"/>
    <wangtile tileid="642" wangid="0,0,0,1,0,1,0,0"/>
    <wangtile tileid="643" wangid="0,0,0,0,0,1,0,0"/>
    <wangtile tileid="681" wangid="0,1,0,1,0,0,0,0"/>
    <wangtile tileid="682" wangid="0,1,0,1,0,1,0,1"/>
    <wangtile tileid="683" wangid="0,0,0,0,0,1,0,1"/>
    <wangtile tileid="721" wangid="0,1,0,0,0,0,0,0"/>
    <wangtile tileid="722" wangid="0,1,0,0,0,0,0,1"/>
    <wangtile tileid="723" wangid="0,0,0,0,0,0,0,1"/>
    <wangtile tileid="801" wangid="0,1,0,0,0,1,0,1"/>
    <wangtile tileid="802" wangid="0,1,0,0,0,0,0,1"/>
    <wangtile tileid="803" wangid="0,1,0,1,0,0,0,1"/>
    <wangtile tileid="841" wangid="0,0,0,0,0,1,0,1"/>
    <wangtile tileid="843" wangid="0,1,0,1,0,0,0,0"/>
    <wangtile tileid="881" wangid="0,0,0,1,0,1,0,1"/>
    <wangtile tileid="882" wangid="0,0,0,1,0,1,0,0"/>
    <wangtile tileid="883" wangid="0,1,0,1,0,1,0,0"/>
   </wangset>
  </wangsets>
 </tileset>
 <tileset firstgid="2337" name="terrain" tilewidth="16" tileheight="16" tilecount="4000" columns="50">
  <image source="_tilesets/terrain.png" width="800" height="1280"/>
  <tile id="59" probability="0.015"/>
  <tile id="60" probability="0.015"/>
  <tile id="61" probability="0.015"/>
  <tile id="62" probability="0.015"/>
  <tile id="63" probability="0.015"/>
  <tile id="64" probability="0.025"/>
  <tile id="107" probability="0.015"/>
  <tile id="108" probability="0.015"/>
  <tile id="109" probability="0.015"/>
  <tile id="110" probability="0.015"/>
  <tile id="111" probability="0.015"/>
  <tile id="112" probability="0.015"/>
  <tile id="113" probability="0.015"/>
  <tile id="251">
   <animation>
    <frame tileid="251" duration="350"/>
    <frame tileid="254" duration="350"/>
    <frame tileid="257" duration="350"/>
    <frame tileid="260" duration="350"/>
   </animation>
  </tile>
  <tile id="253">
   <animation>
    <frame tileid="253" duration="350"/>
    <frame tileid="256" duration="350"/>
    <frame tileid="259" duration="350"/>
    <frame tileid="262" duration="350"/>
   </animation>
  </tile>
  <tile id="264">
   <animation>
    <frame tileid="264" duration="350"/>
    <frame tileid="314" duration="350"/>
    <frame tileid="364" duration="350"/>
    <frame tileid="414" duration="350"/>
   </animation>
  </tile>
  <tile id="265">
   <animation>
    <frame tileid="265" duration="350"/>
    <frame tileid="315" duration="350"/>
    <frame tileid="365" duration="350"/>
    <frame tileid="415" duration="350"/>
   </animation>
  </tile>
  <tile id="301">
   <animation>
    <frame tileid="301" duration="350"/>
    <frame tileid="304" duration="350"/>
    <frame tileid="307" duration="350"/>
    <frame tileid="310" duration="350"/>
   </animation>
  </tile>
  <tile id="303">
   <animation>
    <frame tileid="303" duration="350"/>
    <frame tileid="306" duration="350"/>
    <frame tileid="309" duration="350"/>
    <frame tileid="312" duration="350"/>
   </animation>
  </tile>
  <tile id="351">
   <animation>
    <frame tileid="351" duration="350"/>
    <frame tileid="354" duration="350"/>
    <frame tileid="357" duration="350"/>
    <frame tileid="360" duration="350"/>
   </animation>
  </tile>
  <tile id="352">
   <animation>
    <frame tileid="352" duration="350"/>
    <frame tileid="355" duration="350"/>
    <frame tileid="358" duration="350"/>
    <frame tileid="361" duration="350"/>
   </animation>
  </tile>
  <tile id="353">
   <animation>
    <frame tileid="353" duration="350"/>
    <frame tileid="356" duration="350"/>
    <frame tileid="359" duration="350"/>
    <frame tileid="362" duration="350"/>
   </animation>
  </tile>
  <tile id="451">
   <animation>
    <frame tileid="451" duration="350"/>
    <frame tileid="453" duration="350"/>
    <frame tileid="455" duration="350"/>
    <frame tileid="457" duration="350"/>
   </animation>
  </tile>
  <tile id="452">
   <animation>
    <frame tileid="452" duration="350"/>
    <frame tileid="454" duration="350"/>
    <frame tileid="456" duration="350"/>
    <frame tileid="458" duration="350"/>
   </animation>
  </tile>
  <tile id="501">
   <animation>
    <frame tileid="501" duration="350"/>
    <frame tileid="503" duration="350"/>
    <frame tileid="505" duration="350"/>
    <frame tileid="507" duration="350"/>
   </animation>
  </tile>
  <tile id="502">
   <animation>
    <frame tileid="502" duration="350"/>
    <frame tileid="504" duration="350"/>
    <frame tileid="506" duration="350"/>
    <frame tileid="508" duration="350"/>
   </animation>
  </tile>
  <tile id="606">
   <animation>
    <frame tileid="606" duration="100"/>
    <frame tileid="607" duration="100"/>
    <frame tileid="608" duration="100"/>
   </animation>
  </tile>
  <tile id="656">
   <animation>
    <frame tileid="656" duration="100"/>
    <frame tileid="657" duration="100"/>
    <frame tileid="658" duration="100"/>
   </animation>
  </tile>
  <tile id="706">
   <animation>
    <frame tileid="706" duration="100"/>
    <frame tileid="707" duration="100"/>
    <frame tileid="708" duration="100"/>
   </animation>
  </tile>
  <tile id="756">
   <animation>
    <frame tileid="756" duration="200"/>
    <frame tileid="806" duration="200"/>
    <frame tileid="856" duration="200"/>
   </animation>
  </tile>
  <tile id="757">
   <animation>
    <frame tileid="757" duration="200"/>
    <frame tileid="807" duration="200"/>
    <frame tileid="857" duration="200"/>
   </animation>
  </tile>
  <tile id="758">
   <animation>
    <frame tileid="758" duration="200"/>
    <frame tileid="808" duration="200"/>
    <frame tileid="858" duration="200"/>
   </animation>
  </tile>
  <wangsets>
   <wangset name="Grasslands" type="corner" tile="59">
    <wangcolor name="Elevation" color="#ff0000" tile="-1" probability="1"/>
    <wangcolor name="Grass Edges" color="#00ff00" tile="-1" probability="1"/>
    <wangcolor name="Water Edges" color="#00ffff" tile="-1" probability="1"/>
    <wangcolor name="Path" color="#ff7700" tile="-1" probability="1"/>
    <wangcolor name="Grass Edges 2" color="#00aa00" tile="-1" probability="1"/>
    <wangcolor name="Dirt" color="#ff00d8" tile="-1" probability="1"/>
    <wangtile tileid="51" wangid="0,0,0,1,0,0,0,0"/>
    <wangtile tileid="52" wangid="0,0,0,1,0,1,0,0"/>
    <wangtile tileid="53" wangid="0,0,0,0,0,1,0,0"/>
    <wangtile tileid="55" wangid="0,1,0,0,0,1,0,1"/>
    <wangtile tileid="56" wangid="0,1,0,1,0,0,0,1"/>
    <wangtile tileid="65" wangid="0,2,0,0,0,2,0,2"/>
    <wangtile tileid="66" wangid="0,2,0,0,0,0,0,2"/>
    <wangtile tileid="67" wangid="0,2,0,2,0,0,0,2"/>
    <wangtile tileid="68" wangid="0,0,0,2,0,0,0,0"/>
    <wangtile tileid="69" wangid="0,0,0,0,0,2,0,0"/>
    <wangtile tileid="71" wangid="0,0,0,5,0,0,0,0"/>
    <wangtile tileid="72" wangid="0,0,0,5,0,5,0,0"/>
    <wangtile tileid="73" wangid="0,0,0,0,0,5,0,0"/>
    <wangtile tileid="75" wangid="0,5,0,0,0,5,0,5"/>
    <wangtile tileid="76" wangid="0,5,0,5,0,0,0,5"/>
    <wangtile tileid="101" wangid="0,1,0,1,0,0,0,0"/>
    <wangtile tileid="102" wangid="0,1,0,1,0,1,0,1"/>
    <wangtile tileid="103" wangid="0,0,0,0,0,1,0,1"/>
    <wangtile tileid="105" wangid="0,0,0,1,0,1,0,1"/>
    <wangtile tileid="106" wangid="0,1,0,1,0,1,0,0"/>
    <wangtile tileid="115" wangid="0,0,0,0,0,2,0,2"/>
    <wangtile tileid="116" wangid="0,2,0,2,0,2,0,2"/>
    <wangtile tileid="117" wangid="0,2,0,2,0,0,0,0"/>
    <wangtile tileid="118" wangid="0,2,0,0,0,0,0,0"/>
    <wangtile tileid="119" wangid="0,0,0,0,0,0,0,2"/>
    <wangtile tileid="121" wangid="0,5,0,5,0,0,0,0"/>
    <wangtile tileid="122" wangid="0,5,0,5,0,5,0,5"/>
    <wangtile tileid="123" wangid="0,0,0,0,0,5,0,5"/>
    <wangtile tileid="125" wangid="0,0,0,5,0,5,0,5"/>
    <wangtile tileid="126" wangid="0,5,0,5,0,5,0,0"/>
    <wangtile tileid="151" wangid="0,1,0,0,0,0,0,0"/>
    <wangtile tileid="152" wangid="0,1,0,0,0,0,0,1"/>
    <wangtile tileid="153" wangid="0,0,0,0,0,0,0,1"/>
    <wangtile tileid="165" wangid="0,0,0,2,0,2,0,2"/>
    <wangtile tileid="166" wangid="0,0,0,2,0,2,0,0"/>
    <wangtile tileid="167" wangid="0,2,0,2,0,2,0,0"/>
    <wangtile tileid="171" wangid="0,5,0,0,0,0,0,0"/>
    <wangtile tileid="172" wangid="0,5,0,0,0,0,0,5"/>
    <wangtile tileid="173" wangid="0,0,0,0,0,0,0,5"/>
    <wangtile tileid="250" wangid="0,3,0,3,0,3,0,3"/>
    <wangtile tileid="251" wangid="0,3,0,0,0,3,0,3"/>
    <wangtile tileid="252" wangid="0,3,0,0,0,0,0,3"/>
    <wangtile tileid="253" wangid="0,3,0,3,0,0,0,3"/>
    <wangtile tileid="301" wangid="0,0,0,0,0,3,0,3"/>
    <wangtile tileid="303" wangid="0,3,0,3,0,0,0,0"/>
    <wangtile tileid="351" wangid="0,0,0,3,0,3,0,3"/>
    <wangtile tileid="352" wangid="0,0,0,3,0,3,0,0"/>
    <wangtile tileid="353" wangid="0,3,0,3,0,3,0,0"/>
    <wangtile tileid="451" wangid="0,0,0,3,0,0,0,0"/>
    <wangtile tileid="452" wangid="0,0,0,0,0,3,0,0"/>
    <wangtile tileid="501" wangid="0,3,0,0,0,0,0,0"/>
    <wangtile tileid="502" wangid="0,0,0,0,0,0,0,3"/>
    <wangtile tileid="951" wangid="0,0,0,4,0,0,0,0"/>
    <wangtile tileid="952" wangid="0,0,0,4,0,4,0,0"/>
    <wangtile tileid="953" wangid="0,0,0,0,0,4,0,0"/>
    <wangtile tileid="955" wangid="0,4,0,0,0,4,0,4"/>
    <wangtile tileid="956" wangid="0,4,0,4,0,0,0,4"/>
    <wangtile tileid="958" wangid="0,0,0,6,0,0,0,0"/>
    <wangtile tileid="959" wangid="0,0,0,6,0,6,0,0"/>
    <wangtile tileid="960" wangid="0,0,0,0,0,6,0,0"/>
    <wangtile tileid="962" wangid="0,6,0,0,0,6,0,6"/>
    <wangtile tileid="963" wangid="0,6,0,6,0,0,0,6"/>
    <wangtile tileid="1001" wangid="0,4,0,4,0,0,0,0"/>
    <wangtile tileid="1002" wangid="0,4,0,4,0,4,0,4"/>
    <wangtile tileid="1003" wangid="0,0,0,0,0,4,0,4"/>
    <wangtile tileid="1005" wangid="0,0,0,4,0,4,0,4"/>
    <wangtile tileid="1006" wangid="0,4,0,4,0,4,0,0"/>
    <wangtile tileid="1008" wangid="0,6,0,6,0,0,0,0"/>
    <wangtile tileid="1009" wangid="0,6,0,6,0,6,0,6"/>
    <wangtile tileid="1010" wangid="0,0,0,0,0,6,0,6"/>
    <wangtile tileid="1012" wangid="0,0,0,6,0,6,0,6"/>
    <wangtile tileid="1013" wangid="0,6,0,6,0,6,0,0"/>
    <wangtile tileid="1051" wangid="0,4,0,0,0,0,0,0"/>
    <wangtile tileid="1052" wangid="0,4,0,0,0,0,0,4"/>
    <wangtile tileid="1053" wangid="0,0,0,0,0,0,0,4"/>
    <wangtile tileid="1058" wangid="0,6,0,0,0,0,0,0"/>
    <wangtile tileid="1059" wangid="0,6,0,0,0,0,0,6"/>
    <wangtile tileid="1060" wangid="0,0,0,0,0,0,0,6"/>
   </wangset>
   <wangset name="New Grass" type="corner" tile="-1">
    <wangcolor name="Light" color="#ff0000" tile="-1" probability="1"/>
    <wangcolor name="Dark" color="#00ff00" tile="-1" probability="1"/>
    <wangcolor name="Dirt" color="#0000ff" tile="-1" probability="1"/>
    <wangcolor name="Thick Dark" color="#ff7700" tile="-1" probability="1"/>
    <wangtile tileid="1651" wangid="0,0,0,1,0,0,0,0"/>
    <wangtile tileid="1652" wangid="0,0,0,1,0,1,0,0"/>
    <wangtile tileid="1653" wangid="0,0,0,0,0,1,0,0"/>
    <wangtile tileid="1655" wangid="0,1,0,0,0,1,0,1"/>
    <wangtile tileid="1656" wangid="0,1,0,1,0,0,0,1"/>
    <wangtile tileid="1658" wangid="0,0,0,2,0,0,0,0"/>
    <wangtile tileid="1659" wangid="0,0,0,2,0,2,0,0"/>
    <wangtile tileid="1660" wangid="0,0,0,0,0,2,0,0"/>
    <wangtile tileid="1662" wangid="0,2,0,0,0,2,0,2"/>
    <wangtile tileid="1663" wangid="0,2,0,2,0,0,0,2"/>
    <wangtile tileid="1665" wangid="0,0,0,3,0,0,0,0"/>
    <wangtile tileid="1666" wangid="0,0,0,3,0,3,0,0"/>
    <wangtile tileid="1667" wangid="0,0,0,0,0,3,0,0"/>
    <wangtile tileid="1669" wangid="0,3,0,0,0,3,0,3"/>
    <wangtile tileid="1670" wangid="0,3,0,3,0,0,0,3"/>
    <wangtile tileid="1672" wangid="0,0,0,4,0,0,0,0"/>
    <wangtile tileid="1673" wangid="0,0,0,4,0,4,0,0"/>
    <wangtile tileid="1674" wangid="0,0,0,0,0,4,0,0"/>
    <wangtile tileid="1676" wangid="0,4,0,0,0,4,0,4"/>
    <wangtile tileid="1677" wangid="0,4,0,4,0,0,0,4"/>
    <wangtile tileid="1701" wangid="0,1,0,1,0,0,0,0"/>
    <wangtile tileid="1702" wangid="0,1,0,1,0,1,0,1"/>
    <wangtile tileid="1703" wangid="0,0,0,0,0,1,0,1"/>
    <wangtile tileid="1705" wangid="0,0,0,1,0,1,0,1"/>
    <wangtile tileid="1706" wangid="0,1,0,1,0,1,0,0"/>
    <wangtile tileid="1708" wangid="0,2,0,2,0,0,0,0"/>
    <wangtile tileid="1709" wangid="0,2,0,2,0,2,0,2"/>
    <wangtile tileid="1710" wangid="0,0,0,0,0,2,0,2"/>
    <wangtile tileid="1712" wangid="0,0,0,2,0,2,0,2"/>
    <wangtile tileid="1713" wangid="0,2,0,2,0,2,0,0"/>
    <wangtile tileid="1715" wangid="0,3,0,3,0,0,0,0"/>
    <wangtile tileid="1716" wangid="0,3,0,3,0,3,0,3"/>
    <wangtile tileid="1717" wangid="0,0,0,0,0,3,0,3"/>
    <wangtile tileid="1719" wangid="0,0,0,3,0,3,0,3"/>
    <wangtile tileid="1720" wangid="0,3,0,3,0,3,0,0"/>
    <wangtile tileid="1722" wangid="0,4,0,4,0,0,0,0"/>
    <wangtile tileid="1723" wangid="0,4,0,4,0,4,0,4"/>
    <wangtile tileid="1724" wangid="0,0,0,0,0,4,0,4"/>
    <wangtile tileid="1726" wangid="0,0,0,4,0,4,0,4"/>
    <wangtile tileid="1727" wangid="0,4,0,4,0,4,0,0"/>
    <wangtile tileid="1751" wangid="0,1,0,0,0,0,0,0"/>
    <wangtile tileid="1752" wangid="0,1,0,0,0,0,0,1"/>
    <wangtile tileid="1753" wangid="0,0,0,0,0,0,0,1"/>
    <wangtile tileid="1758" wangid="0,2,0,0,0,0,0,0"/>
    <wangtile tileid="1759" wangid="0,2,0,0,0,0,0,2"/>
    <wangtile tileid="1760" wangid="0,0,0,0,0,0,0,2"/>
    <wangtile tileid="1765" wangid="0,3,0,0,0,0,0,0"/>
    <wangtile tileid="1766" wangid="0,3,0,0,0,0,0,3"/>
    <wangtile tileid="1767" wangid="0,0,0,0,0,0,0,3"/>
    <wangtile tileid="1772" wangid="0,4,0,0,0,0,0,0"/>
    <wangtile tileid="1773" wangid="0,4,0,0,0,0,0,4"/>
    <wangtile tileid="1774" wangid="0,0,0,0,0,0,0,4"/>
   </wangset>
  </wangsets>
 </tileset>
 <layer id="25" name="Simple" width="80" height="52">
  <data encoding="csv">
2395,2395,2395,2395,2395,2395,2395,2395,2395,2395,2395,2395,2395,2395,2395,2395,2395,2395,2395,2395,2395,2395,2395,2395,2395,2395,2395,2395,2395,2395,2395,2395,2395,2395,2395,2395,2395,2395,2395,2395,2395,2395,2395,2395,2395,2395,2395,2395,2395,2395,2395,2395,2395,2395,2395,2395,2395,2395,2395,2395,2395,2395,2395,2395,2395,2395,2395,2395,2395,2395,2395,2395,2395,2395,2395,2395,2395,2395,2395,2395,
2395,2395,2395,2395,2395,2395,2395,2395,2395,2395,2395,2395,2395,2395,2395,2395,2395,2395,2395,2395,2395,2395,2395,2395,2395,2395,2395,2395,2395,2395,2395,2395,2395,2395,2395,2395,2395,2395,2395,2395,2395,2395,2395,2395,2395,2395,2395,2395,2395,2395,2395,2395,2395,2395,2395,2395,2395,2395,2395,2395,2395,2395,2395,2395,2395,2395,2395,2395,2395,2395,2395,2395,2395,2395,2395,2395,2395,2395,2395,2395,
2395,2395,2395,2395,2395,2395,2395,2395,2395,2395,2395,2395,2395,2395,2395,2395,2395,2395,2395,2395,2395,2395,2395,2395,2395,2395,2395,2395,2395,2395,2395,2395,2395,2395,2395,2395,2395,2395,2395,2395,2395,2395,2395,2395,2395,2395,2395,2395,2395,2395,2395,2395,2395,2395,2395,2395,2395,2395,2395,2395,2395,2395,2395,2395,2395,2395,2395,2395,2395,2395,2395,2395,2395,2395,2395,2395,2395,2395,2395,2395,
2395,2395,2395,2395,2395,2395,2395,2395,2395,2395,2395,2395,2395,2395,2395,2395,2395,2395,2395,2395,2395,2395,2395,2395,2395,2395,2395,2395,2395,2395,2395,2395,2395,2395,2395,2395,2395,2395,2395,2395,2395,2395,2395,2395,2395,2395,2395,2395,2395,2395,2395,2395,2395,2395,2395,2395,2395,2395,2395,2395,2395,2395,2395,2395,2395,2395,2395,2395,2395,2395,2395,2395,2395,2395,2395,2395,2395,2395,2395,2395,
2395,2395,2395,2395,2395,2395,2395,2395,2395,2395,2395,2395,2395,2395,2395,2395,2395,2395,2395,2395,2395,2395,2395,2395,2395,2395,2395,2395,2395,2395,2395,2395,2395,2395,2395,2395,2395,2395,2395,2395,2395,2395,2395,2395,2395,2395,2395,2395,2395,2395,2395,2395,2395,2395,2395,2395,2395,2395,2395,2395,2395,2395,2395,2395,2395,2395,2395,2395,2395,2395,2395,2395,2395,2395,2395,2395,2395,2395,2395,2395,
2395,2395,2395,2395,2395,2395,2395,2395,2395,2395,2395,2395,2395,2395,2395,2395,2395,2395,2395,2395,2395,2395,2395,2395,2395,2395,2395,2395,2395,2395,2395,2395,2395,2395,2395,2395,2395,2395,2395,2395,2395,2395,2395,2395,2395,2395,2395,2395,2395,2395,2395,2395,2395,2395,2395,2395,2395,2395,2395,2395,2395,2395,2395,2395,2395,2395,2395,2395,2395,2395,2395,2395,2395,2395,2395,2395,2395,2395,2395,2395,
2395,2395,2395,2395,2395,2395,2395,2395,2395,2395,2395,2395,2395,2395,2395,2395,2395,2395,2395,2395,2395,2395,2395,2395,2395,2395,2395,2395,2395,2395,2395,2395,2395,2395,2395,2395,2395,2395,2395,2395,2395,2395,2395,2395,2395,2395,2395,2395,2395,2395,2395,2395,2395,2395,2395,2395,2395,2395,2395,2395,2395,2395,2395,2395,2395,2395,2395,2395,2395,2395,2395,2395,2395,2395,2395,2395,2395,2395,2395,2395,
2395,2395,2395,2395,2395,2395,2395,2395,2395,2395,2395,2395,2395,2395,2395,2395,2395,2395,2395,2395,2395,2395,2395,2395,2395,2395,2395,2395,2395,2395,2395,2395,2395,2395,2395,2395,2395,2395,2395,2395,2395,2395,2395,2395,2395,2395,2395,2395,2395,2395,2395,2395,2395,2395,2395,2395,2395,2395,2395,2395,2395,2395,2395,2395,2395,2395,2395,2395,2395,2395,2395,2395,2395,2395,2395,2395,2395,2395,2395,2395,
2395,2395,2395,2395,2395,2395,2395,2395,2395,2395,2395,2395,2395,2395,2395,2395,2395,2395,2395,2395,2395,2395,2395,2395,2395,2395,2395,2395,2395,2395,2395,2395,2395,2395,2395,2395,2395,2395,2395,2395,2395,2395,2395,2395,2395,2395,2395,2395,2395,2395,2395,2395,2395,2395,2395,2395,2395,2395,2395,2395,2395,2395,2395,2395,2395,2395,2395,2395,2395,2395,2395,2395,2395,2395,2395,2395,2395,2395,2395,2395,
2395,2395,2395,2395,2395,2395,2395,2395,2395,2395,2395,2395,2395,2395,2395,2395,2395,2395,2395,2395,2395,2395,2395,2395,2395,2395,2395,2395,2395,2395,2395,2395,2395,2395,2395,2395,2395,2395,2395,2395,2395,2395,2395,2395,2395,2395,2395,2395,2395,2395,2395,2395,2395,2395,2395,2395,2395,2395,2395,2395,2395,2395,2395,2395,2395,2395,2395,2395,2395,2395,2395,2395,2395,2395,2395,2395,2395,2395,2395,2395,
2395,2395,2395,2395,2395,2395,2395,2395,2395,2395,2395,2395,2395,2395,2395,2395,2395,2395,2395,2395,2395,2395,2395,2395,2395,2395,2395,2395,2395,2395,2395,2395,2395,2395,2395,2395,2395,2395,2395,2395,2395,2395,2395,2395,2395,2395,2395,2395,2395,2395,2395,2395,2395,2395,2395,2395,2395,2395,2395,2395,2395,2395,2395,2395,2395,2395,2395,2395,2395,2395,2395,2395,2395,2395,2395,2395,2395,2395,2395,2395,
2395,2395,2395,2395,2395,2395,2395,2395,2395,2395,2395,2395,2395,2395,2395,2395,2395,2395,2395,2395,2395,2395,2395,2395,2395,2395,2395,2395,2395,2395,2395,2395,2395,2395,2395,2395,2395,2395,2395,2395,2395,2395,2395,2395,2395,2395,2395,2395,2395,2395,2395,2395,2395,2395,2395,2395,2395,2395,2395,2395,2395,2395,2395,2395,2395,2395,2395,2395,2395,2395,2395,2395,2395,2395,2395,2395,2395,2395,2395,2395,
2395,2395,2395,2395,2395,2395,2395,2395,2395,2395,2395,2395,2395,2395,2395,2395,2395,2395,2395,2395,2395,2395,2395,2395,2395,2395,2395,2395,2395,2395,2395,2395,2395,2395,2395,2395,2395,2395,2395,2395,2395,2395,2395,2395,2395,2395,2395,2395,2395,2395,2395,2395,2395,2395,2395,2395,2395,2395,2395,2395,2395,2395,2395,2395,2395,2395,2395,2395,2395,2395,2395,2395,2395,2395,2395,2395,2395,2395,2395,2395,
2395,2395,2395,2395,2395,2395,2395,2395,2395,2395,2395,2395,2395,2395,2395,2395,2395,2395,2395,2395,2395,2395,2395,2395,2395,2395,2395,2395,2395,2395,2395,2395,2395,2395,2395,2395,2395,2395,2395,2395,2395,2395,2395,2395,2395,2395,2395,2395,2395,2395,2395,2395,2395,2395,2395,2395,2395,2395,2395,2395,2395,2395,2395,2395,2395,2395,2395,2395,2395,2395,2395,2395,2395,2395,2395,2395,2395,2395,2395,2395,
2395,2395,2395,2395,2395,2395,2395,2395,2395,2395,2395,2395,2395,2395,2395,2395,2395,2395,2395,2395,2395,2395,2395,2395,2395,2395,2395,2395,2395,2395,2395,2395,2395,2395,2395,2395,2395,2395,2395,2395,2395,2395,2395,2395,2395,2395,2395,2395,2395,2395,2395,2395,2395,2395,2395,2395,2395,2395,2395,2395,2395,2395,2395,2395,2395,2395,2395,2395,2395,2395,2395,2395,2395,2395,2395,2395,2395,2395,2395,2395,
2395,2395,2395,2395,2395,2395,2395,2395,2395,2395,2395,2395,2395,2395,2395,2395,2395,2395,2395,2395,2395,2395,2395,2395,2395,2395,2395,2395,2395,2395,2395,2395,2395,2395,2395,2395,2395,2395,2395,2395,2395,2395,2395,2395,2395,2395,2395,2395,2395,2395,2395,2395,2395,2395,2395,2395,2395,2395,2395,2395,2395,2395,2395,2395,2395,2395,2395,2395,2395,2395,2395,2395,2395,2395,2395,2395,2395,2395,2395,2395,
2395,2395,2395,2395,2395,2395,2395,2395,2395,2395,2395,2395,2395,2395,2395,2395,2395,2395,2395,2395,2395,2395,2395,2395,2395,2395,2395,2395,2395,2395,2395,2395,2395,2395,2395,2395,2395,2395,2395,2395,2395,2395,2395,2395,2395,2395,2395,2395,2395,2395,2395,2395,2395,2395,2395,2395,2395,2395,2395,2395,2395,2395,2395,2395,2395,2395,2395,2395,2395,2395,2395,2395,2395,2395,2395,2395,2395,2395,2395,2395,
2395,2395,2395,2395,2395,2395,2395,2395,2395,2395,2395,2395,2395,2395,2395,2395,2395,2395,2395,2395,2395,2395,2395,2395,2395,2395,2395,2395,2395,2395,2395,2395,2395,2395,2395,2395,2395,2395,2395,2395,2395,2395,2395,2395,2395,2395,2395,2395,2395,2395,2395,2395,2395,2395,2395,2395,2395,2395,2395,2395,2395,2395,2395,2395,2395,2395,2395,2395,2395,2395,2395,2395,2395,2395,2395,2395,2395,2395,2395,2395,
2395,2395,2395,2395,2395,2395,2395,2395,2395,2395,2395,2395,2395,2395,2395,2395,2395,2395,2395,2395,2395,2395,2395,2395,2395,2395,2395,2395,2395,2395,2395,2395,2395,2395,2395,2395,2395,2395,2395,2395,2395,2395,2395,2395,2395,2395,2395,2395,2395,2395,2395,2395,2395,2395,2395,2395,2395,2395,2395,2395,2395,2395,2395,2395,2395,2395,2395,2395,2395,2395,2395,2395,2395,2395,2395,2395,2395,2395,2395,2395,
2395,2395,2395,2395,2395,2395,2395,2395,2395,2395,2395,2395,2395,2395,2395,2395,2395,2395,2395,2395,2395,2395,2395,2395,2395,2395,2395,2395,2395,2395,2395,2395,2395,2395,2395,2395,2395,2395,2395,2395,2395,2395,2395,2395,2395,2395,2395,2395,2395,2395,2395,2395,2395,2395,2395,2395,2395,2395,2395,2395,2395,2395,2395,2395,2395,2395,2395,2395,2395,2395,2395,2395,2395,2395,2395,2395,2395,2395,2395,2395,
2395,2395,2395,2395,2395,2395,2395,2395,2395,2395,2395,2395,2395,2395,2395,2395,2395,2395,2395,2395,2395,2395,2395,2395,2395,2395,2395,2395,2395,2395,2395,2395,2395,2395,2395,2395,2395,2395,2395,2395,2395,2395,2395,2395,2395,2395,2395,2395,2395,2395,2395,2395,2395,2395,2395,2395,2395,2395,2395,2395,2395,2395,2395,2395,2395,2395,2395,2395,2395,2395,2395,2395,2395,2395,2395,2395,2395,2395,2395,2395,
2395,2395,2395,2395,2395,2395,2395,2395,2395,2395,2395,2395,2395,2395,2395,2395,2395,2395,2395,2395,2395,2395,2395,2395,2395,2395,2395,2395,2395,2395,2395,2395,2395,2395,2395,2395,2395,2395,2395,2395,2395,2395,2395,2395,2395,2395,2395,2395,2395,2395,2395,2395,2395,2395,2395,2395,2395,2395,2395,2395,2395,2395,2395,2395,2395,2395,2395,2395,2395,2395,2395,2395,2395,2395,2395,2395,2395,2395,2395,2395,
2395,2395,2395,2395,2395,2395,2395,2395,2395,2395,2395,2395,2395,2395,2395,2395,2395,2395,2395,2395,2395,2395,2395,2395,2395,2395,2395,2395,2395,2395,2395,2395,2395,2395,2395,2395,2395,2395,2395,2395,2395,2395,2395,2395,2395,2395,2395,2395,2395,2395,2395,2395,2395,2395,2395,2395,2395,2395,2395,2395,2395,2395,2395,2395,2395,2395,2395,2395,2395,2395,2395,2395,2395,2395,2395,2395,2395,2395,2395,2395,
2395,2395,2395,2395,2395,2395,2395,2395,2395,2395,2395,2395,2395,2395,2395,2395,2395,2395,2395,2395,2395,2395,2395,2395,2395,2395,2395,2395,2395,2395,2395,2395,2395,2395,2395,2395,2395,2395,2395,2395,2395,2395,2395,2395,2395,2395,2395,2395,2395,2395,2395,2395,2395,2395,2395,2395,2395,2395,2395,2395,2395,2395,2395,2395,2395,2395,2395,2395,2395,2395,2395,2395,2395,2395,2395,2395,2395,2395,2395,2395,
2395,2395,2395,2395,2395,2395,2395,2395,2395,2395,2395,2395,2395,2395,2395,2395,2395,2395,2395,2395,2395,2395,2395,2395,2395,2395,2395,2395,2395,2395,2395,2395,2395,2395,2395,2395,2395,2395,2395,2395,2395,2395,2395,2395,2395,2395,2395,2395,2395,2395,2395,2395,2395,2395,2395,2395,2395,2395,2395,2395,2395,2395,2395,2395,2395,2395,2395,2395,2395,2395,2395,2395,2395,2395,2395,2395,2395,2395,2395,2395,
2395,2395,2395,2395,2395,2395,2395,2395,2395,2395,2395,2395,2395,2395,2395,2395,2395,2395,2395,2395,2395,2395,2395,2395,2395,2395,2395,2395,2395,2395,2395,2395,2395,2395,2395,2395,2395,2395,2395,2395,2395,2395,2395,2395,2395,2395,2395,2395,2395,2395,2395,2395,2395,2395,2395,2395,2395,2395,2395,2395,2395,2395,2395,2395,2395,2395,2395,2395,2395,2395,2395,2395,2395,2395,2395,2395,2395,2395,2395,2395,
2395,2395,2395,2395,2395,2395,2395,2395,2395,2395,2395,2395,2395,2395,2395,2395,2395,2395,2395,2395,2395,2395,2395,2395,2395,2395,2395,2395,2395,2395,2395,2395,2395,2395,2395,2395,2395,2395,2395,2395,2395,2395,2395,2395,2395,2395,2395,2395,2395,2395,2395,2395,2395,2395,2395,2395,2395,2395,2395,2395,2395,2395,2395,2395,2395,2395,2395,2395,2395,2395,2395,2395,2395,2395,2395,2395,2395,2395,2395,2395,
2395,2395,2395,2395,2395,2395,2395,2395,2395,2395,2395,2395,2395,2395,2395,2395,2395,2395,2395,2395,2395,2395,2395,2395,2395,2395,2395,2395,2395,2395,2395,2395,2395,2395,2395,2395,2395,2395,2395,2395,2395,2395,2395,2395,2395,2395,2395,2395,2395,2395,2395,2395,2395,2395,2395,2395,2395,2395,2395,2395,2395,2395,2395,2395,2395,2395,2395,2395,2395,2395,2395,2395,2395,2395,2395,2395,2395,2395,2395,2395,
2395,2395,2395,2395,2395,2395,2395,2395,2395,2395,2395,2395,2395,2395,2395,2395,2395,2395,2395,2395,2395,2395,2395,2395,2395,2395,2395,2395,2395,2395,2395,2395,2395,2395,2395,2395,2395,2395,2395,2395,2395,2395,2395,2395,2395,2395,2395,2395,2395,2395,2395,2395,2395,2395,2395,2395,2395,2395,2395,2395,2395,2395,2395,2395,2395,2395,2395,2395,2395,2395,2395,2395,2395,2395,2395,2395,2395,2395,2395,2395,
2395,2395,2395,2395,2395,2395,2395,2395,2395,2395,2395,2395,2395,2395,2395,2395,2395,2395,2395,2395,2395,2395,2395,2395,2395,2395,2395,2395,2395,2395,2395,2395,2395,2395,2395,2395,2395,2395,2395,2395,2395,2395,2395,2395,2395,2395,2395,2395,2395,2395,2395,2395,2395,2395,2395,2395,2395,2395,2395,2395,2395,2395,2395,2395,2395,2395,2395,2395,2395,2395,2395,2395,2395,2395,2395,2395,2395,2395,2395,2395,
2395,2395,2395,2395,2395,2395,2395,2395,2395,2395,2395,2395,2395,2395,2395,2395,2395,2395,2395,2395,2395,2395,2395,2395,2395,2395,2395,2395,2395,2395,2395,2395,2395,2395,2395,2395,2395,2395,2395,2395,2395,2395,2395,2395,2395,2395,2395,2395,2395,2395,2395,2395,2395,2395,2395,2395,2395,2395,2395,2395,2395,2395,2395,2395,2395,2395,2395,2395,2395,2395,2395,2395,2395,2395,2395,2395,2395,2395,2395,2395,
2395,2395,2395,2395,2395,2395,2395,2395,2395,2395,2395,2395,2395,2395,2395,2395,2395,2395,2395,2395,2395,2395,2395,2395,2395,2395,2395,2395,2395,2395,2395,2395,2395,2395,2395,2395,2395,2395,2395,2395,2395,2395,2395,2395,2395,2395,2395,2395,2395,2395,2395,2395,2395,2395,2395,2395,2395,2395,2395,2395,2395,2395,2395,2395,2395,2395,2395,2395,2395,2395,2395,2395,2395,2395,2395,2395,2395,2395,2395,2395,
2395,2395,2395,2395,2395,2395,2395,2395,2395,2395,2395,2395,2395,2395,2395,2395,2395,2395,2395,2395,2395,2395,2395,2395,2395,2395,2395,2395,2395,2395,2395,2395,2395,2395,2395,2395,2395,2395,2395,2395,2395,2395,2395,2395,2395,2395,2395,2395,2395,2395,2395,2395,2395,2395,2395,2395,2395,2395,2395,2395,2395,2395,2395,2395,2395,2395,2395,2395,2395,2395,2395,2395,2395,2395,2395,2395,2395,2395,2395,2395,
2395,2395,2395,2395,2395,2395,2395,2395,2395,2395,2395,2395,2395,2395,2395,2395,2395,2395,2395,2395,2395,2395,2395,2395,2395,2395,2395,2395,2395,2395,2395,2395,2395,2395,2395,2395,2395,2395,2395,2395,2395,2395,2395,2395,2395,2395,2395,2395,2395,2395,2395,2395,2395,2395,2395,2395,2395,2395,2395,2395,2395,2395,2395,2395,2395,2395,2395,2395,2395,2395,2395,2395,2395,2395,2395,2395,2395,2395,2395,2395,
2395,2395,2395,2395,2395,2395,2395,2395,2395,2395,2395,2395,2395,2395,2395,2395,2395,2395,2395,2395,2395,2395,2395,2395,2395,2395,2395,2395,2395,2395,2395,2395,2395,2395,2395,2395,2395,2395,2395,2395,2395,2395,2395,2395,2395,2395,2395,2395,2395,2395,2395,2395,2395,2395,2395,2395,2395,2395,2395,2395,2395,2395,2395,2395,2395,2395,2395,2395,2395,2395,2395,2395,2395,2395,2395,2395,2395,2395,2395,2395,
2395,2395,2395,2395,2395,2395,2395,2395,2395,2395,2395,2395,2395,2395,2395,2395,2395,2395,2395,2395,2395,2395,2395,2395,2395,2395,2395,2395,2395,2395,2395,2395,2395,2395,2395,2395,2395,2395,2395,2395,2395,2395,2395,2395,2395,2395,2395,2395,2395,2395,2395,2395,2395,2395,2395,2395,2395,2395,2395,2395,2395,2395,2395,2395,2395,2395,2395,2395,2395,2395,2395,2395,2395,2395,2395,2395,2395,2395,2395,2395,
2395,2395,2395,2395,2395,2395,2395,2395,2395,2395,2395,2395,2395,2395,2395,2395,2395,2395,2395,2395,2395,2395,2395,2395,2395,2395,2395,2395,2395,2395,2395,2395,2395,2395,2395,2395,2395,2395,2395,2395,2395,2395,2395,2395,2395,2395,2395,2395,2395,2395,2395,2395,2395,2395,2395,2395,2395,2395,2395,2395,2395,2395,2395,2395,2395,2395,2395,2395,2395,2395,2395,2395,2395,2395,2395,2395,2395,2395,2395,2395,
2395,2395,2395,2395,2395,2395,2395,2395,2395,2395,2395,2395,2395,2395,2395,2395,2395,2395,2395,2395,2395,2395,2395,2395,2395,2395,2395,2395,2395,2395,2395,2395,2395,2395,2395,2395,2395,2395,2395,2395,2395,2395,2395,2395,2395,2395,2395,2395,2395,2395,2395,2395,2395,2395,2395,2395,2395,2395,2395,2395,2395,2395,2395,2395,2395,2395,2395,2395,2395,2395,2395,2395,2395,2395,2395,2395,2395,2395,2395,2395,
2395,2395,2395,2395,2395,2395,2395,2395,2395,2395,2395,2395,2395,2395,2395,2395,2395,2395,2395,2395,2395,2395,2395,2395,2395,2395,2395,2395,2395,2395,2395,2395,2395,2395,2395,2395,2395,2395,2395,2395,2395,2395,2395,2395,2395,2395,2395,2395,2395,2395,2395,2395,2395,2395,2395,2395,2395,2395,2395,2395,2395,2395,2395,2395,2395,2395,2395,2395,2395,2395,2395,2395,2395,2395,2395,2395,2395,2395,2395,2395,
2395,2395,2395,2395,2395,2395,2395,2395,2395,2395,2395,2395,2395,2395,2395,2395,2395,2395,2395,2395,2395,2395,2395,2395,2395,2395,2395,2395,2395,2395,2395,2395,2395,2395,2395,2395,2395,2395,2395,2395,2395,2395,2395,2395,2395,2395,2395,2395,2395,2395,2395,2395,2395,2395,2395,2395,2395,2395,2395,2395,2395,2395,2395,2395,2395,2395,2395,2395,2395,2395,2395,2395,2395,2395,2395,2395,2395,2395,2395,2395,
2395,2395,2395,2395,2395,2395,2395,2395,2395,2395,2395,2395,2395,2395,2395,2395,2395,2395,2395,2395,2395,2395,2395,2395,2395,2395,2395,2395,2395,2395,2395,2395,2395,2395,2395,2395,2395,2395,2395,2395,2395,2395,2395,2395,2395,2395,2395,2395,2395,2395,2395,2395,2395,2395,2395,2395,2395,2395,2395,2395,2395,2395,2395,2395,2395,2395,2395,2395,2395,2395,2395,2395,2395,2395,2395,2395,2395,2395,2395,2395,
2395,2395,2395,2395,2395,2395,2395,2395,2395,2395,2395,2395,2395,2395,2395,2395,2395,2395,2395,2395,2395,2395,2395,2395,2395,2395,2395,2395,2395,2395,2395,2395,2395,2395,2395,2395,2395,2395,2395,2395,2395,2395,2395,2395,2395,2395,2395,2395,2395,2395,2395,2395,2395,2395,2395,2395,2395,2395,2395,2395,2395,2395,2395,2395,2395,2395,2395,2395,2395,2395,2395,2395,2395,2395,2395,2395,2395,2395,2395,2395,
2395,2395,2395,2395,2395,2395,2395,2395,2395,2395,2395,2395,2395,2395,2395,2395,2395,2395,2395,2395,2395,2395,2395,2395,2395,2395,2395,2395,2395,2395,2395,2395,2395,2395,2395,2395,2395,2395,2395,2395,2395,2395,2395,2395,2395,2395,2395,2395,2395,2395,2395,2395,2395,2395,2395,2395,2395,2395,2395,2395,2395,2395,2395,2395,2395,2395,2395,2395,2395,2395,2395,2395,2395,2395,2395,2395,2395,2395,2395,2395,
2395,2395,2395,2395,2395,2395,2395,2395,2395,2395,2395,2395,2395,2395,2395,2395,2395,2395,2395,2395,2395,2395,2395,2395,2395,2395,2395,2395,2395,2395,2395,2395,2395,2395,2395,2395,2395,2395,2395,2395,2395,2395,2395,2395,2395,2395,2395,2395,2395,2395,2395,2395,2395,2395,2395,2395,2395,2395,2395,2395,2395,2395,2395,2395,2395,2395,2395,2395,2395,2395,2395,2395,2395,2395,2395,2395,2395,2395,2395,2395,
2395,2395,2395,2395,2395,2395,2395,2395,2395,2395,2395,2395,2395,2395,2395,2395,2395,2395,2395,2395,2395,2395,2395,2395,2395,2395,2395,2395,2395,2395,2395,2395,2395,2395,2395,2395,2395,2395,2395,2395,2395,2395,2395,2395,2395,2395,2395,2395,2395,2395,2395,2395,2395,2395,2395,2395,2395,2395,2395,2395,2395,2395,2395,2395,2395,2395,2395,2395,2395,2395,2395,2395,2395,2395,2395,2395,2395,2395,2395,2395,
2395,2395,2395,2395,2395,2395,2395,2395,2395,2395,2395,2395,2395,2395,2395,2395,2395,2395,2395,2395,2395,2395,2395,2395,2395,2395,2395,2395,2395,2395,2395,2395,2395,2395,2395,2395,2395,2395,2395,2395,2395,2395,2395,2395,2395,2395,2395,2395,2395,2395,2395,2395,2395,2395,2395,2395,2395,2395,2395,2395,2395,2395,2395,2395,2395,2395,2395,2395,2395,2395,2395,2395,2395,2395,2395,2395,2395,2395,2395,2395,
2395,2395,2395,2395,2395,2395,2395,2395,2395,2395,2395,2395,2395,2395,2395,2395,2395,2395,2395,2395,2395,2395,2395,2395,2395,2395,2395,2395,2395,2395,2395,2395,2395,2395,2395,2395,2395,2395,2395,2395,2395,2395,2395,2395,2395,2395,2395,2395,2395,2395,2395,2395,2395,2395,2395,2395,2395,2395,2395,2395,2395,2395,2395,2395,2395,2395,2395,2395,2395,2395,2395,2395,2395,2395,2395,2395,2395,2395,2395,2395,
2395,2395,2395,2395,2395,2395,2395,2395,2395,2395,2395,2395,2395,2395,2395,2395,2395,2395,2395,2395,2395,2395,2395,2395,2395,2395,2395,2395,2395,2395,2395,2395,2395,2395,2395,2395,2395,2395,2395,2395,2395,2395,2395,2395,2395,2395,2395,2395,2395,2395,2395,2395,2395,2395,2395,2395,2395,2395,2395,2395,2395,2395,2395,2395,2395,2395,2395,2395,2395,2395,2395,2395,2395,2395,2395,2395,2395,2395,2395,2395,
2395,2395,2395,2395,2395,2395,2395,2395,2395,2395,2395,2395,2395,2395,2395,2395,2395,2395,2395,2395,2395,2395,2395,2395,2395,2395,2395,2395,2395,2395,2395,2395,2395,2395,2395,2395,2395,2395,2395,2395,2395,2395,2395,2395,2395,2395,2395,2395,2395,2395,2395,2395,2395,2395,2395,2395,2395,2395,2395,2395,2395,2395,2395,2395,2395,2395,2395,2395,2395,2395,2395,2395,2395,2395,2395,2395,2395,2395,2395,2395,
2395,2395,2395,2395,2395,2395,2395,2395,2395,2395,2395,2395,2395,2395,2395,2395,2395,2395,2395,2395,2395,2395,2395,2395,2395,2395,2395,2395,2395,2395,2395,2395,2395,2395,2395,2395,2395,2395,2395,2395,2395,2395,2395,2395,2395,2395,2395,2395,2395,2395,2395,2395,2395,2395,2395,2395,2395,2395,2395,2395,2395,2395,2395,2395,2395,2395,2395,2395,2395,2395,2395,2395,2395,2395,2395,2395,2395,2395,2395,2395,
2395,2395,2395,2395,2395,2395,2395,2395,2395,2395,2395,2395,2395,2395,2395,2395,2395,2395,2395,2395,2395,2395,2395,2395,2395,2395,2395,2395,2395,2395,2395,2395,2395,2395,2395,2395,2395,2395,2395,2395,2395,2395,2395,2395,2395,2395,2395,2395,2395,2395,2395,2395,2395,2395,2395,2395,2395,2395,2395,2395,2395,2395,2395,2395,2395,2395,2395,2395,2395,2395,2395,2395,2395,2395,2395,2395,2395,2395,2395,2395,
2395,2395,2395,2395,2395,2395,2395,2395,2395,2395,2395,2395,2395,2395,2395,2395,2395,2395,2395,2395,2395,2395,2395,2395,2395,2395,2395,2395,2395,2395,2395,2395,2395,2395,2395,2395,2395,2395,2395,2395,2395,2395,2395,2395,2395,2395,2395,2395,2395,2395,2395,2395,2395,2395,2395,2395,2395,2395,2395,2395,2395,2395,2395,2395,2395,2395,2395,2395,2395,2395,2395,2395,2395,2395,2395,2395,2395,2395,2395,2395
</data>
 </layer>
 <layer id="1" name="Base" width="80" height="52">
  <data encoding="csv">
4060,4060,4013,4111,0,0,0,0,0,0,0,4059,4060,4060,4060,4060,4060,4061,0,0,4059,4060,4060,4060,4060,4060,4060,4060,4060,4063,4011,0,0,0,0,0,0,0,0,0,0,0,0,0,0,0,0,0,0,0,0,0,0,0,0,0,0,0,0,0,0,0,0,0,0,0,0,0,0,0,0,0,0,0,0,0,0,0,0,0,
4060,4013,4111,0,0,0,0,0,0,0,0,4059,4060,4060,4060,4060,4060,4061,0,0,4059,4060,4060,4060,4060,4060,4060,4060,4060,4060,4061,0,0,0,0,0,0,0,0,0,0,0,0,0,0,0,0,0,0,0,0,0,0,0,0,0,0,0,0,0,0,0,0,0,0,0,0,0,0,0,0,0,0,0,0,0,0,0,0,0,
4060,4061,0,0,0,0,0,0,0,0,0,4059,4060,4060,4013,4014,4060,4061,0,4009,4064,4060,4060,4060,4060,4060,4060,4060,4013,4110,4111,0,4009,4010,4011,0,0,0,0,0,0,0,0,0,0,0,0,0,0,0,0,0,0,0,0,0,0,0,0,0,0,0,0,0,0,0,0,0,0,0,0,0,0,0,0,0,0,0,0,0,
4060,4061,0,0,0,0,0,0,0,0,0,4059,4013,4110,4111,4059,4013,4111,0,4059,4060,4060,4060,4060,4060,4060,4013,4110,4111,0,4009,4010,4064,4060,4063,4010,4011,0,0,0,0,0,0,0,0,0,0,0,0,0,0,0,0,0,0,0,0,0,0,0,0,0,0,0,0,0,0,0,0,0,0,0,0,0,0,0,0,0,0,0,
4060,4061,0,0,0,0,0,0,0,0,0,0,4111,0,0,4109,4061,0,4009,4064,4060,4060,4060,4060,4060,4060,4063,4011,0,0,4059,4060,4060,4060,4060,4060,4061,4009,4010,4011,0,0,0,0,0,0,0,0,0,0,0,0,0,0,0,0,0,0,0,0,0,0,0,0,0,0,0,0,0,0,0,0,0,0,0,0,0,0,0,0,
4060,4063,4011,0,0,0,0,0,4009,4010,4010,4011,0,0,0,0,4061,0,4059,4060,4060,4060,4060,4060,4060,4060,4060,4061,0,0,4059,4060,4060,4060,4060,4060,4061,4059,4060,4063,4011,0,0,0,0,0,0,0,0,0,0,0,0,0,0,0,0,0,0,0,0,0,0,0,0,0,0,0,0,0,0,0,0,0,0,0,0,0,0,0,
4060,4060,4061,0,0,0,0,4009,4064,4060,4060,4063,4011,0,0,0,4061,0,4109,4110,4110,4014,4060,4060,4060,4060,4060,4061,0,0,4109,4014,4060,4060,4060,4060,4061,4059,4060,4060,4061,0,0,0,0,0,0,0,0,0,0,0,0,0,0,0,0,0,0,0,0,0,0,0,0,0,0,0,0,0,0,0,0,0,0,0,0,0,0,0,
4060,4060,4061,0,0,0,0,4059,4060,4060,4060,4060,4061,0,0,4110,0,0,0,0,0,4109,4110,4110,4014,4060,4013,4111,0,0,0,4059,4060,4060,4060,4013,4111,4059,4060,4060,4061,0,0,0,0,0,0,0,0,0,0,0,0,0,0,0,0,0,0,0,0,0,0,0,0,0,0,0,0,0,0,0,0,0,0,0,0,0,0,0,
4060,4060,4063,4010,4011,0,0,4059,4060,4060,4060,4060,4061,0,0,0,0,0,0,0,0,0,0,0,4109,4110,4111,0,0,0,0,4059,4060,4013,4110,4111,0,4109,4014,4060,4061,0,0,0,0,0,0,0,0,0,0,0,0,0,0,0,0,0,0,0,0,0,0,0,0,0,0,0,0,0,0,0,0,0,0,0,0,0,0,0,
4060,4060,4060,4060,4061,0,0,4059,4060,4060,4060,4060,4061,0,0,0,0,0,0,0,4009,4010,4010,4010,4011,0,0,0,0,0,0,4109,4110,4111,0,0,0,0,4059,4060,4061,0,0,0,0,0,0,0,0,0,0,0,0,0,0,0,0,0,0,0,0,0,0,0,0,0,0,0,0,0,0,0,0,0,0,0,0,0,0,0,
4060,4060,4060,4013,4111,0,0,4059,4060,4060,4060,4060,4061,0,0,0,0,0,0,0,4059,4060,4060,4060,4061,4009,4010,4011,0,0,0,0,0,0,4009,4010,4011,0,4109,4110,4111,0,0,0,0,0,0,0,0,0,0,0,0,0,0,0,0,0,0,0,0,0,0,0,0,0,0,0,0,0,0,0,0,0,0,0,0,0,0,0,
4060,4060,4060,4061,0,0,0,4109,4014,4060,4060,4013,4111,0,0,0,0,0,0,0,4109,4110,4110,4110,4111,4059,4060,4061,0,0,4009,4010,4011,0,4059,4060,4063,4010,4011,0,0,0,0,0,0,0,0,0,0,0,0,0,0,0,0,0,0,0,0,0,0,0,0,0,0,0,0,0,0,0,0,0,0,0,0,0,0,0,0,0,
4060,4060,4060,4063,4011,0,0,0,4109,4110,4110,4111,0,0,0,0,0,0,0,0,0,0,0,0,0,4059,4060,4061,0,0,4059,4060,4061,0,4059,4060,4060,4060,4061,0,0,0,0,0,0,0,0,0,0,0,0,0,0,0,0,0,0,0,0,0,0,0,0,0,0,0,0,0,0,0,0,0,0,0,0,0,0,0,0,0,
4060,4060,4060,4060,4063,4011,0,0,0,0,0,0,0,0,0,0,0,0,0,0,0,0,0,0,0,4059,4060,4061,0,0,4109,4110,4111,0,4059,4060,4060,4060,4063,4011,0,0,4009,4010,4010,4011,0,0,0,0,0,0,0,0,0,0,0,0,0,0,0,0,0,0,0,0,0,0,0,0,0,0,0,0,0,0,0,0,0,0,
4110,4110,4014,4060,4060,4063,4011,0,0,0,0,0,0,0,0,0,0,0,0,4009,4010,4010,4010,4011,0,4059,4060,4061,0,0,0,0,0,0,4109,4110,4110,4014,4060,4061,0,0,4059,4060,4060,4061,0,0,0,0,0,0,0,0,0,0,0,0,0,0,0,0,0,0,0,0,0,0,0,0,0,0,0,0,0,0,0,0,0,0,
0,4009,4064,4060,4060,4060,4061,0,0,0,0,0,0,0,0,0,0,0,4009,4064,4060,4060,4060,4061,0,4059,4060,4063,4010,4010,4010,4010,4011,0,0,0,0,4059,4060,4061,0,0,4059,4060,4060,4063,4011,4009,4010,4011,0,0,0,0,0,0,0,0,0,0,0,0,0,0,0,0,0,0,0,0,0,0,0,0,0,0,0,0,0,0,
0,4059,4060,4060,4060,4060,4061,0,0,0,0,0,0,0,0,0,0,0,4059,4060,4060,0,0,0,0,0,0,4014,4060,4060,4060,4060,4061,0,0,0,0,4059,4060,4061,0,0,4059,4060,4060,4060,4061,4059,4060,4061,4009,4010,4010,4011,0,0,0,4009,4010,4010,4010,4011,0,0,0,0,0,0,0,0,0,0,0,0,0,0,0,0,0,0,
0,4109,4014,4060,4060,4060,4063,4011,0,0,0,0,0,0,0,0,0,0,0,0,0,4009,4010,4010,4010,4011,0,4109,4110,4110,4014,4060,4061,0,4009,4010,4010,4064,4060,4061,0,0,4059,4060,4060,4060,4061,4109,4110,4111,4059,4060,4060,4061,4009,4010,0,4059,4060,4060,4060,4061,0,0,0,0,0,0,0,0,0,0,0,0,0,0,0,0,0,0,
0,0,0,4014,4060,4060,4060,4061,0,0,0,4009,4010,4010,4011,0,0,4009,4010,4010,4010,4064,4060,4060,4060,4061,0,0,0,0,0,4110,4111,0,4059,4060,4060,4060,4060,4063,4010,4010,4064,4060,4060,4060,4061,4009,4010,4010,4064,4060,4060,4061,4059,4060,0,4109,4014,4060,4060,4063,4011,0,0,0,0,0,0,0,0,0,0,0,0,0,0,0,0,0,
0,0,0,0,4110,4014,4060,4061,0,0,0,4059,4060,4060,4063,4010,4010,4064,4060,4060,4060,4060,4060,4060,4060,4061,0,0,0,0,0,4009,4010,4011,4109,4014,4060,4060,4060,4060,4060,4060,4060,4060,4013,4110,4111,4059,4060,4060,4060,4060,4060,4061,4059,4060,4061,0,4059,4060,4060,4060,4063,4011,0,0,0,0,0,0,0,0,0,0,0,0,0,0,0,0,
0,0,0,4009,4010,4064,4060,4063,4011,0,0,4059,4060,4060,4060,4060,4060,4060,4060,4060,4060,4060,4060,4060,4013,4111,0,4009,4010,4011,0,4059,4060,4063,4011,4059,4060,4060,4060,4060,4013,4110,4014,4060,4061,0,0,4109,4014,4060,4060,4060,4060,4061,4059,4060,4063,0,4109,4014,4060,4060,4060,4061,0,0,0,0,0,0,0,0,0,0,0,0,0,0,0,0,
0,0,4009,4064,4060,4060,4060,4060,4061,0,0,4059,4060,4060,4060,4060,4060,4060,4060,4060,4060,4060,4060,4060,4061,0,0,4059,4060,4063,4010,4064,4060,4060,4061,4059,4110,4110,4014,4060,4061,0,4059,4060,4061,0,0,0,4109,4014,4060,4060,4060,4061,4109,4014,4060,0,0,4059,4060,4060,4060,4063,4011,0,0,0,0,0,0,0,0,0,0,0,0,0,0,0,
0,4009,4064,4060,4060,4060,4060,4013,4111,0,0,4109,4014,4060,4060,4013,4110,4110,4110,4014,4060,4060,4013,4110,4111,0,0,4059,4060,4060,4060,4060,4060,4060,4061,4059,0,0,4059,4060,4063,4010,4064,4060,4063,4010,4011,0,0,4109,4110,4110,4110,4111,0,4109,4110,0,4009,4064,4060,4060,4060,4060,4063,4011,0,0,0,0,0,0,0,0,0,0,0,0,0,0,
0,4059,4060,4060,4013,4110,4110,4111,0,0,0,0,4059,4060,4013,4111,0,0,0,4109,4110,4110,4111,0,0,0,0,4109,4014,4060,4060,4060,4060,4013,4111,4109,0,0,4059,4060,4060,4060,4060,4060,4060,4060,4061,0,0,0,4009,4010,4010,4010,4010,4011,0,4009,4064,4060,4060,4060,4060,4060,4060,4063,4010,4011,0,0,0,0,0,0,0,0,0,0,0,0,
0,4109,4110,4110,4111,0,0,0,0,0,0,0,4109,4110,4111,0,0,0,0,0,0,0,0,0,0,0,0,0,4109,4014,4060,4060,4060,4061,0,0,4109,4110,4110,4110,4110,4014,4060,4060,4060,4060,4061,0,0,0,4059,4060,4060,4060,4060,4061,0,4059,4060,4060,4060,4060,4060,4060,4060,4060,4060,4063,4010,4011,0,0,0,0,0,0,0,0,0,0,
0,0,0,0,0,0,0,0,0,0,0,0,4009,4010,4010,4011,4192,4192,4192,4192,4192,4192,4192,4192,4192,4192,0,0,0,4109,4110,4110,4110,4111,0,0,4009,4010,4010,4011,0,4059,4060,4060,4060,4060,4061,0,0,0,4059,4060,4013,4110,4110,4111,0,4059,4060,4060,4060,4060,4060,4060,4060,4060,4060,4060,4060,4061,0,0,0,0,0,0,0,0,0,0,
0,0,0,0,0,0,0,0,0,4009,4010,4010,4064,4060,4060,4061,4192,4192,4192,4192,4192,4192,4192,4192,4192,4009,4010,4010,4011,0,0,0,0,0,4009,4010,4064,4060,4060,4063,4011,0,4110,4110,4014,4060,4061,0,0,0,4059,4060,4061,0,0,0,0,4109,4014,4060,4060,4060,4060,4060,4060,4060,4060,4060,4060,4063,4011,0,0,0,0,0,0,0,0,0,
4060,4060,4013,4111,0,0,0,0,0,4059,4060,4060,4060,4060,4013,4111,0,0,0,0,0,0,0,0,0,4059,4060,4060,4063,0,0,0,4009,4010,4064,4060,4060,4060,4060,4060,4061,0,0,0,4109,4110,4111,0,0,0,4109,4110,4111,0,0,0,0,0,4109,4014,4060,4060,4060,4060,4060,4060,4060,4060,4060,4060,4061,0,0,0,0,0,0,0,0,0,
4060,4060,4061,0,0,0,0,0,0,4109,4110,4110,4110,4110,4111,0,0,0,0,0,0,0,0,0,0,4059,4060,4060,4060,4063,4011,0,4059,4060,4060,4060,4060,4060,4060,4013,4111,0,0,0,0,0,0,0,0,0,0,0,0,0,0,0,0,0,0,4109,4110,4110,4014,4060,4060,4060,4060,4060,4060,4060,4061,0,0,0,0,0,0,0,0,0,
4060,4060,4061,0,0,0,4009,4010,4010,4011,0,0,0,0,0,0,0,0,0,0,0,0,4009,4010,4011,4109,4014,4060,4060,4060,4061,0,4059,4060,4013,4110,4110,4110,4110,4111,0,0,0,0,0,0,0,0,0,0,0,0,0,4009,4010,4010,4010,4010,4011,0,0,0,4059,4060,4060,4060,4060,4060,4060,4060,4061,0,0,0,0,0,0,0,0,0,
4060,4060,4061,0,4009,4010,4064,4060,4060,4063,4011,0,0,4192,4192,4192,0,0,0,0,4009,4010,4064,4060,4063,4011,4059,4060,4060,4060,4061,0,4109,4110,4111,0,0,0,0,4010,4010,4010,4010,4010,4011,0,0,0,0,0,0,0,4009,4064,4060,4060,4060,4060,4061,0,0,0,4059,4060,4060,4060,4060,4060,4060,4060,4061,0,0,0,0,0,0,0,0,0,
4060,4060,4063,4011,4059,4060,4060,4060,4060,4060,4061,0,0,4192,4192,0,0,0,0,0,4059,4060,4060,4060,4060,4061,4109,4014,4060,4060,4063,0,0,0,0,0,0,0,4059,4060,4060,4060,4060,4060,4061,0,0,0,0,0,0,4009,4064,4060,4060,4060,4060,4060,4061,0,0,0,4109,4110,4014,4060,4060,4060,4060,4013,4111,0,0,0,0,0,0,0,0,0,
4110,4110,4110,4111,4109,4110,4110,4110,0,0,0,0,0,0,4192,0,0,0,0,0,4109,4110,4110,4110,4110,4111,0,4109,4014,4060,4060,4061,0,0,0,0,0,0,4109,4110,4110,4110,4110,4110,4111,4002,4003,4003,4004,0,0,4059,4060,4060,4060,4060,4060,4060,4061,0,0,0,0,0,4059,4060,4060,4060,4060,4061,0,0,0,0,0,0,0,0,0,0,
0,0,0,0,0,0,0,0,0,0,4009,4010,4011,0,0,0,0,0,0,4192,0,0,0,4009,4010,4010,4010,4011,4109,4110,4110,4111,0,0,0,0,0,0,0,0,4002,4003,4003,4003,4003,4057,4199,4200,4054,0,0,4059,4060,4060,4060,4060,4060,4013,4111,0,0,0,0,0,4109,4110,4110,4110,4110,4111,0,0,0,0,0,0,0,0,0,0,
0,0,0,0,0,0,0,0,0,4009,4064,4060,4061,0,0,0,4192,4192,4192,0,0,0,0,4059,4060,4060,4060,4063,4011,0,0,0,0,0,0,4002,4003,4003,4003,4003,4057,4242,4053,4053,4053,4053,4249,4250,4054,0,0,4109,4014,4060,4060,4060,4060,4061,0,0,0,0,0,0,0,0,0,0,0,0,0,0,0,0,0,0,0,0,0,0,
0,4009,4010,4011,0,4009,4010,4010,4011,4059,4060,4060,4063,4011,0,0,0,0,4192,0,0,0,0,4109,4110,4014,4060,4060,4061,0,0,0,0,0,0,4052,4197,4198,4053,4053,4053,4053,4053,4053,4193,4053,4053,4053,4054,0,0,0,4059,4060,4060,4013,4110,4111,0,0,0,0,0,0,0,0,0,0,0,0,0,0,0,0,0,0,0,0,0,0,
4009,4064,4060,4063,4010,4064,4060,4060,4061,4109,4014,4060,4060,4061,0,0,0,0,0,0,0,0,0,0,0,4109,4110,4110,4111,0,0,0,0,0,0,4052,4247,4248,4053,4053,4243,4053,4053,4195,4053,4053,4053,4006,4104,0,0,0,4059,4060,4060,4061,0,0,0,0,0,0,0,0,0,0,0,0,0,0,0,0,0,0,0,0,0,0,0,0,
4064,4060,4060,4060,4060,4060,4060,4060,4061,0,4059,4060,4060,4063,4010,4010,4010,4010,4011,0,0,0,0,0,0,4009,4010,4010,4010,4011,0,4009,4010,4010,4011,4102,4103,4007,4193,4053,4053,4053,4053,4053,4053,4053,4243,4054,0,0,0,0,4109,4014,4060,4061,0,0,0,0,0,0,0,0,0,0,0,0,0,0,0,0,0,0,0,0,0,0,0,0,
4060,4060,4060,4060,4060,4060,4060,4013,4111,4009,4064,4060,4060,4060,4060,4060,4060,4060,4061,0,0,0,4009,4010,4010,4064,4060,4060,4060,4061,0,4059,4060,4060,4063,4010,4011,4102,4007,4053,4053,2147487848,2147487847,4053,4006,4103,4103,4104,0,0,0,0,0,4109,4110,4111,0,0,4009,4010,4010,4010,4011,0,0,0,0,0,0,0,0,0,0,0,0,0,0,0,0,0,
4060,4060,4060,4060,4060,4060,4060,4061,4009,4064,4060,4060,4060,4060,4060,4060,4060,4060,4061,0,4009,4010,4064,4060,4060,4060,4060,4060,4013,4111,0,0,4060,4060,4060,4060,4061,0,4102,4103,4007,2147487898,2147487897,4006,4104,0,0,4009,4010,4011,0,0,0,0,0,0,0,4009,4064,4060,4060,4060,4061,0,0,0,0,0,0,0,0,0,0,0,0,0,0,0,0,0,
4060,4060,4060,4060,4060,4060,4060,4061,4059,4060,4060,4060,4060,4060,4060,4060,4060,4060,4063,4010,4064,4060,4060,4060,4060,4060,4060,4060,4061,0,0,0,4110,4014,4060,4060,4063,4011,0,0,4102,4103,4103,4104,0,4009,4010,4064,4060,4061,0,0,0,0,0,0,4009,4064,4060,4060,4060,4060,4063,4010,4011,0,0,0,0,0,0,0,0,0,0,0,0,0,0,0,
4060,4060,4060,4060,4060,4060,4013,4111,4059,4060,4060,4060,4060,4060,4060,4060,4060,4060,4060,4060,4060,4060,4060,4060,4060,4060,4060,4060,4063,4010,4011,0,0,4109,4110,4014,4060,0,0,0,0,0,0,0,0,4059,4060,4060,4013,4111,0,0,0,0,0,0,4059,4060,4060,4060,4060,4060,4060,4060,4061,0,0,0,0,0,0,0,0,0,0,0,0,0,0,0,
4060,4013,4014,4060,4013,4110,4111,0,4109,4110,4110,4014,4060,4060,4060,4060,4013,4014,4060,4060,4060,4060,4060,4060,4060,4060,4060,4060,4060,4060,4061,0,0,0,0,0,4109,4110,4111,0,0,0,0,0,0,4109,4110,4110,4111,0,0,0,0,0,0,4009,4064,4060,4060,4060,4060,4060,4060,4060,4061,0,0,0,0,0,0,0,0,0,0,0,0,0,0,0,
4110,4111,4109,4110,4111,0,0,0,0,0,0,4059,4060,4060,4060,4013,4111,4109,4110,4014,4060,4060,4060,4013,4110,4014,4060,4060,4060,4060,4061,0,0,0,0,4009,4010,4011,0,0,0,0,0,0,0,0,0,0,0,0,0,0,0,4009,4010,4064,4060,4060,4060,4060,4060,4060,4060,4060,4063,4011,0,0,0,0,0,0,0,0,0,0,0,0,0,0,
0,0,0,0,0,0,0,0,0,0,0,4059,4060,4013,4110,4111,0,0,0,4109,4110,4110,4110,4111,0,4109,4014,4060,4060,4060,4063,4011,4009,4010,4010,4064,4060,4061,0,0,0,0,0,0,0,0,0,0,0,0,0,0,0,4059,4060,4060,4060,4060,4060,4060,4060,4060,4060,4060,4060,4061,0,0,0,0,0,0,0,0,0,0,0,0,0,0,
0,0,0,0,0,0,0,0,0,0,0,4109,4110,4111,0,0,0,0,0,0,0,0,0,0,0,0,4109,4014,4060,4060,4060,4063,4064,4060,4060,4060,4060,4063,4010,4011,0,0,0,0,0,0,0,0,0,0,4009,4010,4010,4064,4060,4060,4060,4060,4060,4060,4060,4060,4060,4060,4060,4061,0,0,0,0,0,0,0,0,0,0,0,0,0,0,
0,0,0,0,0,0,0,0,0,0,0,0,0,0,0,0,0,0,0,0,0,0,0,0,0,0,0,4059,4060,4060,4060,4060,4060,4060,4060,4060,4060,4060,4060,4063,4011,0,0,0,0,0,0,0,0,4009,4064,4060,4060,4060,4060,4060,4060,4060,4060,4060,4060,4060,4060,4060,4060,4063,4011,0,0,0,0,0,0,0,0,0,0,0,0,0,
0,0,0,0,0,0,0,0,0,0,0,0,0,0,0,0,0,0,0,0,0,0,0,0,0,0,0,4109,4014,4060,4060,4060,4060,4060,4060,4060,4060,4060,4060,4060,4061,0,0,0,0,0,0,0,4009,4064,4060,4060,4060,4060,4060,4060,4060,4060,4060,4060,4060,4060,4060,4060,4060,4060,4061,0,0,0,0,0,0,0,0,0,0,0,0,0,
0,0,0,0,0,0,0,0,0,0,0,0,0,0,0,0,0,0,0,0,0,0,0,0,0,0,0,0,4109,4110,4014,4060,4060,4060,4060,4060,4060,4060,4060,4060,4061,0,0,0,0,0,0,0,4059,4060,4060,4060,4060,4060,4060,4060,4060,4060,4060,4060,4060,4060,4060,4060,4060,4060,4063,4011,0,0,0,0,0,0,0,0,0,0,0,0,
0,0,0,0,0,0,0,0,0,0,0,0,0,0,0,0,0,0,0,0,0,0,0,0,0,0,0,0,0,0,4059,4060,4060,4060,4060,4060,4060,4060,4060,4013,4111,0,0,0,0,0,0,0,4059,4060,4060,4060,4060,4060,4060,4060,4060,4060,4060,4060,4060,4060,4060,4060,4060,4060,4060,4063,4010,4011,0,0,0,0,0,0,0,0,0,0,
0,0,0,0,0,0,0,0,0,0,0,0,0,0,0,0,0,0,0,0,0,0,0,0,0,0,0,0,0,0,4109,4110,4014,4060,4060,4060,4060,4060,4013,4111,0,0,0,0,0,0,0,0,4059,4060,4060,4060,4060,4060,4060,4060,4060,4060,4060,4060,4060,4060,4060,4060,4060,4060,4060,4060,4060,4063,4011,0,0,0,0,0,0,0,0,0,
0,0,0,0,0,0,0,0,0,0,0,0,0,0,0,0,0,0,0,0,0,0,0,0,0,0,0,0,0,0,0,0,4109,4110,4110,4110,4110,4110,4111,0,0,0,0,0,0,0,0,0,4109,4014,4060,4060,4060,4060,4060,4060,4060,4060,4060,4060,4060,4060,4060,4060,4060,4060,4060,4060,4060,4060,4061,0,0,0,0,0,0,0,0,0
</data>
 </layer>
 <layer id="15" name="Environment" width="80" height="52">
  <data encoding="csv">
0,0,0,0,0,0,0,0,0,0,0,0,0,0,0,0,0,0,0,0,0,0,0,0,0,0,0,0,0,0,0,0,0,0,0,0,0,0,0,0,0,0,0,0,0,0,0,0,0,0,0,0,0,0,0,0,0,0,0,0,0,0,0,0,0,0,0,0,0,0,0,0,0,0,0,0,0,0,0,0,
0,0,0,0,0,0,0,0,0,0,0,0,0,0,0,0,0,0,0,0,0,0,0,0,0,0,0,0,0,0,0,0,0,0,0,0,0,0,0,0,0,0,0,0,0,0,0,0,0,0,0,0,0,0,0,0,0,0,0,0,0,0,0,0,0,0,0,0,0,0,0,0,0,0,0,0,0,0,0,0,
0,0,0,0,0,0,0,0,0,0,0,0,0,0,0,0,0,0,0,0,0,0,0,0,0,0,0,0,0,0,0,0,0,0,0,0,0,0,0,0,0,0,0,0,0,0,0,0,0,0,0,0,0,0,0,0,0,0,0,0,0,0,0,0,0,0,0,0,0,0,0,0,0,0,0,0,0,0,0,0,
0,0,0,0,0,0,0,0,0,0,0,0,0,0,0,0,0,0,0,0,0,0,0,0,0,0,0,0,0,0,0,0,0,0,0,0,0,0,0,0,0,0,0,0,0,0,0,0,0,0,0,0,0,0,0,0,0,0,0,0,0,0,0,0,0,0,0,0,0,0,0,0,0,0,0,0,0,0,0,0,
0,0,0,0,0,0,0,0,0,0,0,0,0,0,0,0,0,0,0,0,0,0,0,0,0,0,0,0,0,0,0,0,0,0,0,0,0,0,0,0,0,0,0,0,0,0,0,0,0,0,0,0,0,0,0,0,0,0,0,0,0,0,0,0,0,0,0,0,0,0,0,0,0,0,0,0,0,0,0,0,
0,0,0,0,0,0,0,0,0,0,0,0,0,0,0,0,0,0,0,0,0,0,0,0,0,0,0,0,0,0,0,0,0,0,0,0,0,0,0,0,0,0,0,0,0,0,0,0,0,0,0,0,0,0,0,0,0,0,0,0,0,0,0,0,0,0,0,0,0,0,0,0,0,0,0,0,0,0,0,0,
0,0,0,0,0,0,0,0,0,0,0,0,0,0,0,0,0,0,0,0,0,0,0,0,0,0,0,0,0,0,0,0,0,0,0,0,0,0,0,0,0,0,0,0,0,0,0,0,0,0,0,0,0,0,0,0,0,0,0,0,0,0,0,0,0,0,0,0,0,0,0,0,0,0,0,0,0,0,0,0,
0,0,0,0,0,0,0,0,0,0,0,0,0,0,0,0,0,0,0,0,0,0,0,0,0,0,0,0,0,0,0,0,0,0,0,0,0,0,0,0,0,0,0,0,0,0,0,0,0,0,0,0,0,0,0,0,0,0,0,0,0,0,0,0,0,0,0,0,0,0,0,0,0,0,0,0,0,0,0,0,
0,0,0,0,0,0,0,0,0,0,0,0,0,0,0,0,0,0,0,0,0,0,0,0,0,0,0,0,0,0,0,0,0,0,0,0,0,0,0,0,0,0,0,0,0,0,0,0,0,0,0,0,0,0,0,0,0,0,0,0,0,0,0,0,0,0,0,0,0,0,0,0,0,0,0,0,0,0,0,0,
0,0,0,0,0,0,0,0,0,0,0,0,0,0,0,0,0,0,0,0,0,0,0,0,0,0,0,0,0,0,0,0,0,0,0,0,0,0,0,0,0,0,0,0,0,0,0,0,0,0,0,0,0,0,0,0,0,0,0,0,0,0,0,0,0,0,0,0,0,0,0,0,0,0,0,0,0,0,0,0,
0,0,0,0,0,0,0,0,0,0,0,0,0,0,0,0,0,0,0,0,0,0,0,0,0,0,0,0,0,0,0,0,0,0,0,0,0,0,0,0,0,0,0,0,0,0,0,0,0,0,0,0,0,0,0,0,0,0,0,0,0,0,0,0,0,0,0,0,0,0,0,0,0,0,0,0,0,0,0,0,
0,0,0,0,0,0,0,0,0,0,0,0,0,0,0,0,0,0,0,0,0,0,0,0,0,0,0,0,0,0,0,0,0,0,0,0,0,0,0,0,0,0,0,0,0,0,0,0,0,0,0,0,0,0,0,0,0,0,0,0,0,0,0,0,0,0,0,0,0,0,0,0,0,0,0,0,0,0,0,0,
0,0,0,0,0,0,0,0,0,0,0,0,0,0,0,0,0,0,0,0,0,0,0,0,0,0,0,0,0,0,0,0,0,0,0,0,0,0,0,0,0,0,0,0,0,0,0,0,0,0,0,0,0,0,0,0,0,0,0,0,0,0,0,0,0,0,0,0,0,0,0,0,0,0,0,0,0,0,0,0,
0,0,0,0,0,0,0,0,0,0,0,0,0,0,0,0,0,0,0,0,0,0,0,0,0,0,0,0,0,0,0,0,0,0,0,0,0,0,0,0,0,0,0,0,0,0,0,0,0,0,0,0,0,0,0,0,0,0,0,0,0,0,0,0,0,0,0,0,0,0,0,0,0,0,0,0,0,0,0,0,
0,0,0,0,0,0,0,0,0,0,0,0,0,0,0,0,0,0,0,0,0,0,0,0,0,0,0,0,0,0,0,0,0,0,0,0,0,0,0,0,0,0,0,0,0,0,0,0,0,0,0,0,0,0,0,0,0,0,0,0,0,0,0,0,0,0,0,0,0,0,0,0,0,0,0,0,0,0,0,0,
0,0,0,0,0,0,0,0,0,0,0,0,0,0,0,0,0,0,0,0,0,0,0,0,0,0,0,0,0,0,0,0,0,0,0,0,0,0,0,0,0,0,0,0,0,0,0,0,0,0,0,0,0,0,0,0,0,0,0,0,0,0,0,0,0,0,0,0,0,0,0,0,0,0,0,0,0,0,0,0,
0,0,0,0,0,0,0,0,0,0,0,0,0,0,0,0,0,0,0,0,0,0,0,0,0,0,0,0,0,0,0,0,0,0,0,0,0,0,0,0,0,0,0,0,0,0,0,0,0,0,0,0,0,0,0,0,0,0,0,0,0,0,0,0,0,0,0,0,0,0,0,0,0,0,0,0,0,0,0,0,
0,0,0,0,0,0,0,0,0,0,0,0,0,0,0,0,0,0,0,0,0,0,0,0,0,0,0,0,0,0,0,0,0,0,0,0,0,0,0,0,0,0,0,0,0,0,0,0,0,0,0,0,0,0,0,0,0,0,0,0,0,0,0,0,0,0,0,0,0,0,0,0,0,0,0,0,0,0,0,0,
0,0,0,0,0,0,0,0,0,0,0,0,0,0,0,0,0,0,0,0,0,0,0,0,0,0,0,0,0,0,0,0,0,0,0,0,0,0,0,0,0,0,0,0,0,0,0,0,0,0,0,0,0,0,0,0,0,0,0,0,0,0,0,0,0,0,0,0,0,0,0,0,0,0,0,0,0,0,0,0,
0,0,0,0,0,0,0,0,0,0,0,0,0,0,0,0,0,0,0,0,0,0,0,0,0,0,0,0,0,0,0,0,0,0,0,0,0,0,0,0,0,0,0,0,0,0,0,0,0,0,0,0,0,0,0,0,0,0,0,0,0,0,0,0,0,0,0,0,0,0,0,0,0,0,0,0,0,0,0,0,
0,0,0,0,0,0,0,0,0,0,0,0,0,0,0,0,0,0,0,0,0,0,0,0,0,0,0,0,0,0,0,0,0,0,0,0,0,0,0,0,0,0,0,0,0,0,0,0,0,0,0,0,0,0,0,0,0,0,0,0,0,0,0,0,0,0,0,0,0,0,0,0,0,0,0,0,0,0,0,0,
0,0,0,0,0,0,0,0,0,0,0,0,0,0,0,0,0,0,0,0,0,0,0,0,0,0,0,0,0,0,0,0,0,0,0,0,0,0,0,0,0,0,0,0,0,0,0,0,0,0,0,0,0,0,0,0,0,0,0,0,0,0,0,0,0,0,0,0,0,0,0,0,0,0,0,0,0,0,0,0,
0,0,0,0,0,0,0,0,0,0,0,0,0,0,0,0,0,0,0,0,0,0,0,0,0,0,0,0,0,0,0,0,0,0,0,0,0,0,0,0,0,0,0,0,0,0,0,0,0,0,0,0,0,0,0,0,0,0,0,0,0,0,0,0,0,0,0,0,0,0,0,0,0,0,0,0,0,0,0,0,
0,0,0,0,0,0,0,0,0,0,0,0,0,0,0,0,0,0,0,0,0,0,0,0,0,0,0,0,0,0,0,0,0,0,0,0,0,0,0,0,0,0,0,0,0,0,0,0,0,0,0,0,0,0,0,0,0,0,0,0,0,0,0,0,0,0,0,0,0,0,0,0,0,0,0,0,0,0,0,0,
0,0,0,0,0,0,0,0,0,0,0,0,0,0,0,0,0,0,0,0,0,0,0,0,0,0,0,0,0,0,0,0,0,0,0,0,0,0,0,0,0,0,0,0,0,0,0,0,0,0,0,0,0,0,0,0,0,0,0,0,0,0,0,0,0,0,0,0,0,0,0,0,0,0,0,0,0,0,0,0,
0,0,0,0,0,0,0,0,0,0,0,0,0,0,0,0,0,0,0,0,0,0,0,0,0,0,0,0,0,0,0,0,0,0,0,0,0,0,0,0,0,0,0,0,0,0,0,0,0,0,0,0,0,0,0,0,0,0,0,0,0,0,0,0,0,0,0,0,0,0,0,0,0,0,0,0,0,0,0,0,
0,0,0,0,0,0,0,0,0,0,0,0,0,0,0,0,0,0,0,0,0,0,0,0,0,0,0,0,0,0,0,0,0,0,0,0,0,0,0,0,0,0,0,0,0,0,0,0,0,0,0,0,0,0,0,0,0,0,0,0,0,0,0,0,0,0,0,0,0,0,0,0,0,0,0,0,0,0,0,0,
0,0,0,0,0,0,0,0,0,0,0,0,0,0,0,0,0,0,0,0,0,0,0,0,0,0,0,0,0,0,0,0,0,0,0,0,0,0,0,0,0,0,0,0,0,0,0,0,0,0,0,0,0,0,0,0,0,0,0,0,0,0,0,0,0,0,0,0,0,0,0,0,0,0,0,0,0,0,0,0,
0,0,0,0,0,0,0,0,0,0,0,0,0,0,0,0,0,0,0,0,0,0,0,0,0,0,0,0,0,0,0,0,0,0,0,0,0,0,0,0,0,0,0,0,0,0,0,0,0,0,0,0,0,0,0,0,0,0,0,0,0,0,0,0,0,0,0,0,0,0,0,0,0,0,0,0,0,0,0,0,
0,0,0,0,0,0,0,0,0,0,0,0,0,0,0,0,0,0,0,0,0,0,0,0,0,0,0,0,0,0,0,0,0,0,0,0,0,0,0,0,0,0,0,0,0,0,0,0,0,0,0,0,0,0,0,0,0,0,0,0,0,0,0,0,0,0,0,0,0,0,0,0,0,0,0,0,0,0,0,0,
0,0,0,0,0,0,0,0,0,0,0,0,0,0,0,0,0,0,0,0,0,0,0,0,0,0,0,0,0,0,0,0,0,0,0,0,0,0,0,0,0,0,0,0,0,0,0,0,0,0,0,0,0,0,0,0,0,0,0,0,0,0,0,0,0,0,0,0,0,0,0,0,0,0,0,0,0,0,0,0,
0,0,0,0,0,0,0,0,0,0,0,0,0,0,0,0,0,0,0,0,0,0,0,0,0,0,0,0,0,0,0,0,0,0,0,0,0,0,0,0,0,0,0,0,0,0,0,0,0,0,0,0,0,0,0,0,0,0,0,0,0,0,0,0,0,0,0,0,0,0,0,0,0,0,0,0,0,0,0,0,
0,0,0,0,0,0,0,0,0,0,0,0,0,0,0,0,0,0,0,0,0,0,0,0,0,0,0,0,0,0,0,0,0,0,0,0,0,0,0,0,0,0,0,0,0,0,0,0,0,0,0,0,0,0,0,0,0,0,0,0,0,0,0,0,0,0,0,0,0,0,0,0,0,0,0,0,0,0,0,0,
0,0,0,0,0,0,0,0,0,0,0,0,0,0,0,0,0,0,0,0,0,0,0,0,0,0,0,0,0,0,0,0,0,0,0,0,0,0,0,0,0,0,0,0,0,0,0,0,0,0,0,0,0,0,0,0,0,0,0,0,0,0,0,0,0,0,0,0,0,0,0,0,0,0,0,0,0,0,0,0,
0,0,0,0,0,0,0,0,0,0,0,0,0,0,0,0,0,0,0,0,0,0,0,0,0,0,0,0,0,0,0,0,0,0,0,0,0,0,0,0,0,0,0,0,0,0,0,0,0,0,0,0,0,0,0,0,0,0,0,0,0,0,0,0,0,0,0,0,0,0,0,0,0,0,0,0,0,0,0,0,
0,0,0,0,0,0,0,0,0,0,0,0,0,0,0,0,0,0,0,0,0,0,0,0,0,0,0,0,0,0,0,0,0,0,0,0,0,0,0,0,0,0,0,0,0,0,0,0,0,0,0,0,0,0,0,0,0,0,0,0,0,0,0,0,0,0,0,0,0,0,0,0,0,0,0,0,0,0,0,0,
0,0,0,0,0,0,0,0,0,0,0,0,0,0,0,0,0,0,0,0,0,0,0,0,0,0,0,0,0,0,0,0,0,0,0,0,0,0,0,0,0,0,0,0,0,0,0,0,0,0,0,0,0,0,0,0,0,0,0,0,0,0,0,0,0,0,0,0,0,0,0,0,0,0,0,0,0,0,0,0,
0,0,0,0,0,0,0,0,0,0,0,0,0,0,0,0,0,0,0,0,0,0,0,0,0,0,0,0,0,0,0,0,0,0,0,0,0,0,0,0,0,0,0,0,0,0,0,0,0,0,0,0,0,0,0,0,0,0,0,0,0,0,0,0,0,0,0,0,0,0,0,0,0,0,0,0,0,0,0,0,
0,0,0,0,0,0,0,0,0,0,0,0,0,0,0,0,0,0,0,0,0,0,0,0,0,0,0,0,0,0,0,0,0,0,0,0,0,0,0,0,0,0,0,0,0,0,0,0,0,0,0,0,0,0,0,0,0,0,0,0,0,0,0,0,0,0,0,0,0,0,0,0,0,0,0,0,0,0,0,0,
0,0,0,0,0,0,0,0,0,0,0,0,0,0,0,0,0,0,0,0,0,0,0,0,0,0,0,0,0,0,0,0,0,0,0,0,0,0,0,0,0,0,0,0,0,0,0,0,0,0,0,0,0,0,0,0,0,0,0,0,0,0,0,0,0,0,0,0,0,0,0,0,0,0,0,0,0,0,0,0,
0,0,0,0,0,0,0,0,0,0,0,0,0,0,0,0,0,0,0,0,0,0,0,0,0,0,0,0,0,0,0,0,0,0,0,0,0,0,0,0,0,0,0,0,0,0,0,0,0,0,0,0,0,0,0,0,0,0,0,0,0,0,0,0,0,0,0,0,0,0,0,0,0,0,0,0,0,0,0,0,
0,0,0,0,0,0,0,0,0,0,0,0,0,0,0,0,0,0,0,0,0,0,0,0,0,0,0,0,0,0,0,0,0,0,0,0,0,0,0,0,0,0,0,0,0,0,0,0,0,0,0,0,0,0,0,0,0,0,0,0,0,0,0,0,0,0,0,0,0,0,0,0,0,0,0,0,0,0,0,0,
0,0,0,0,0,0,0,0,0,0,0,0,0,0,0,0,0,0,0,0,0,0,0,0,0,0,0,0,0,0,0,0,0,0,0,0,0,0,0,0,0,0,0,0,0,0,0,0,0,0,0,0,0,0,0,0,0,0,0,0,0,0,0,0,0,0,0,0,0,0,0,0,0,0,0,0,0,0,0,0,
0,0,0,0,0,0,0,0,0,0,0,0,0,0,0,0,0,0,0,0,0,0,0,0,0,0,0,0,0,0,0,0,0,0,0,0,0,0,0,0,0,0,0,0,0,0,0,0,0,0,0,0,0,0,0,0,0,0,0,0,0,0,0,0,0,0,0,0,0,0,0,0,0,0,0,0,0,0,0,0,
0,0,0,0,0,0,0,0,0,0,0,0,0,0,0,0,0,0,0,0,0,0,0,0,0,0,0,0,0,0,0,0,0,0,0,0,0,0,0,0,0,0,0,0,0,0,0,0,0,0,0,0,0,0,0,0,0,0,0,0,0,0,0,0,0,0,0,0,0,0,0,0,0,0,0,0,0,0,0,0,
0,0,0,0,0,0,0,0,0,0,0,0,0,0,0,0,0,0,0,0,0,0,0,0,0,0,0,0,0,0,0,0,0,0,0,0,0,0,0,0,0,0,0,0,0,0,0,0,0,0,0,0,0,0,0,0,0,0,0,0,0,0,0,0,0,0,0,0,0,0,0,0,0,0,0,0,0,0,0,0,
0,0,0,0,0,0,0,0,0,0,0,0,0,0,0,0,0,0,0,0,0,0,0,0,0,0,0,0,0,0,0,0,0,0,0,0,0,0,0,0,0,0,0,0,0,0,0,0,0,0,0,0,0,0,0,0,0,0,0,0,0,0,0,0,0,0,0,0,0,0,0,0,0,0,0,0,0,0,0,0,
0,0,0,0,0,0,0,0,0,0,0,0,0,0,0,0,0,0,0,0,0,0,0,0,0,0,0,0,0,0,0,0,0,0,0,0,0,0,0,0,0,0,0,0,0,0,0,0,0,0,0,0,0,0,0,0,0,0,0,0,0,0,0,0,0,0,0,0,0,0,0,0,0,0,0,0,0,0,0,0,
0,0,0,0,0,0,0,0,0,0,0,0,0,0,0,0,0,0,0,0,0,0,0,0,0,0,0,0,0,0,0,0,0,0,0,0,0,0,0,0,0,0,0,0,0,0,0,0,0,0,0,0,0,0,0,0,0,0,0,0,0,0,0,0,0,0,0,0,0,0,0,0,0,0,0,0,0,0,0,0,
0,0,0,0,0,0,0,0,0,0,0,0,0,0,0,0,0,0,0,0,0,0,0,0,0,0,0,0,0,0,0,0,0,0,0,0,0,0,0,0,0,0,0,0,0,0,0,0,0,0,0,0,0,0,0,0,0,0,0,0,0,0,0,0,0,0,0,0,0,0,0,0,0,0,0,0,0,0,0,0,
0,0,0,0,0,0,0,0,0,0,0,0,0,0,0,0,0,0,0,0,0,0,0,0,0,0,0,0,0,0,0,0,0,0,0,0,0,0,0,0,0,0,0,0,0,0,0,0,0,0,0,0,0,0,0,0,0,0,0,0,0,0,0,0,0,0,0,0,0,0,0,0,0,0,0,0,0,0,0,0,
0,0,0,0,0,0,0,0,0,0,0,0,0,0,0,0,0,0,0,0,0,0,0,0,0,0,0,0,0,0,0,0,0,0,0,0,0,0,0,0,0,0,0,0,0,0,0,0,0,0,0,0,0,0,0,0,0,0,0,0,0,0,0,0,0,0,0,0,0,0,0,0,0,0,0,0,0,0,0,0
</data>
 </layer>
 <layer id="20" name="Terrain" width="80" height="52">
  <data encoding="csv">
0,0,0,0,0,0,0,0,0,0,0,0,0,0,0,0,0,0,0,0,0,0,0,0,0,0,0,0,0,0,0,0,0,0,0,0,0,0,0,0,0,0,1419,1419,1419,1419,1419,0,0,0,0,0,0,0,0,0,0,0,0,0,0,0,0,0,0,0,0,0,0,0,0,0,0,0,0,0,0,0,0,0,
0,0,0,0,0,0,0,0,0,0,0,0,0,0,0,0,0,0,0,0,0,0,0,0,0,0,0,0,0,0,0,0,0,0,0,0,0,0,0,0,0,0,1419,1419,1419,1419,1419,0,0,0,0,0,0,0,0,0,0,0,0,0,0,0,0,0,0,0,0,0,0,0,0,0,0,0,0,0,0,0,0,0,
0,0,0,0,0,0,0,0,0,0,0,0,0,0,0,0,0,0,0,0,0,0,0,0,0,0,0,0,0,0,0,0,0,0,0,0,0,0,0,0,0,0,1419,1419,1419,1419,1419,0,0,0,0,0,0,0,0,0,0,0,0,0,0,0,0,0,0,0,0,0,0,0,0,0,0,0,0,0,0,0,0,0,
0,0,0,0,0,0,0,0,0,0,0,0,0,0,0,0,0,0,0,0,0,0,0,0,0,0,0,0,0,0,0,0,0,0,0,0,0,0,0,0,0,0,1419,1419,1419,1419,1419,0,0,0,0,0,0,0,0,0,0,0,0,0,0,0,0,0,0,0,0,0,0,0,0,0,0,0,0,0,0,0,0,0,
0,0,0,0,0,0,0,0,0,0,0,0,0,0,0,0,0,0,0,0,0,0,0,0,0,0,0,0,0,0,0,0,0,0,0,0,0,0,0,0,0,0,1419,1419,1419,1419,1419,0,0,0,0,0,0,0,3166,0,0,0,0,0,0,0,0,0,0,0,0,0,0,0,0,0,0,0,0,0,0,0,0,0,
0,0,0,0,0,0,0,0,0,0,0,0,0,0,0,0,0,0,0,0,0,0,0,0,0,0,0,0,0,0,0,0,0,0,0,0,0,0,0,0,0,0,1419,1419,1419,1419,1419,1419,1419,1419,1419,1419,1419,1419,3216,0,0,0,0,0,0,0,0,0,0,0,0,0,0,0,0,0,0,0,0,0,0,0,0,0,
0,0,0,0,0,0,0,0,0,0,0,0,0,0,0,0,0,0,0,0,0,0,0,0,0,0,0,0,0,0,0,0,0,0,0,0,0,0,0,0,0,0,0,1419,1419,1419,1419,1419,1419,1419,1419,1419,1419,1419,1419,0,0,0,0,0,0,0,0,0,0,0,0,0,0,0,0,0,0,0,0,0,0,0,0,0,
0,0,0,0,0,0,0,0,0,0,0,0,0,0,0,0,0,0,0,0,0,0,0,0,0,0,0,0,0,0,0,0,0,0,0,0,0,0,0,0,0,0,0,1419,1419,1419,1419,1419,1419,1419,1419,1419,1419,1419,1419,0,0,0,0,0,0,0,0,0,0,0,0,0,0,0,0,0,0,0,0,0,0,0,0,0,
0,0,0,0,0,0,0,0,0,0,0,0,0,0,0,0,0,0,0,0,0,0,0,0,0,0,0,0,0,0,0,0,0,0,0,0,0,0,0,0,0,0,0,1419,1419,1419,1419,1419,1419,1419,1419,1419,1419,1419,1419,0,3166,0,0,0,0,0,0,0,0,0,0,0,0,0,0,0,0,0,0,0,0,0,0,0,
0,0,0,0,0,0,0,0,0,0,0,0,0,0,0,0,0,0,0,0,0,0,0,0,0,0,0,0,0,0,0,0,0,0,0,0,0,0,0,0,0,0,0,1419,1419,1419,1419,1419,1419,1419,1419,1419,1419,1419,1419,1419,3166,0,0,0,0,0,0,0,0,0,0,0,0,0,0,0,0,0,0,0,0,0,0,0,
0,0,0,0,0,0,0,0,0,0,0,0,0,0,0,0,0,0,0,0,0,0,0,0,0,0,0,0,0,0,0,0,0,0,0,0,0,0,0,0,0,0,0,1419,1419,1419,1419,1419,1419,1419,1419,1419,1419,1419,1419,1419,1419,0,0,0,0,0,0,0,0,0,0,0,3166,0,0,0,0,0,0,0,0,0,0,0,
0,0,0,0,0,0,0,0,0,0,0,0,0,0,0,0,0,0,0,0,0,0,0,0,0,0,0,0,0,0,0,0,0,0,0,0,0,0,0,0,0,0,0,0,0,1419,1419,1419,1419,1419,1419,1419,1419,1419,1419,1419,1419,1419,1419,1419,1419,1419,1419,1419,1419,1419,1419,1419,3166,0,0,0,0,0,0,0,0,0,0,0,
0,0,0,0,0,0,0,0,0,0,0,0,0,0,0,0,0,0,0,0,0,0,0,0,0,0,0,0,0,0,0,0,0,0,0,0,0,0,0,0,0,0,0,0,0,1419,1419,1419,1419,1419,1419,1419,1419,1419,1419,1419,1419,1419,1419,1419,1419,1419,1419,1419,1419,1419,1419,1419,1419,0,0,0,0,0,0,0,0,0,0,0,
0,0,0,0,0,0,0,0,0,0,0,0,0,0,0,0,0,0,0,0,0,0,0,0,0,0,0,0,0,0,0,0,0,0,0,0,0,0,0,0,0,0,0,0,1459,1459,1459,1459,1540,1419,1419,1419,1419,1419,1419,1419,1419,1419,1419,1419,1419,1419,1419,1419,1419,1419,1419,1419,1419,1419,1419,1419,1419,1419,1419,1419,1419,1419,1419,1419,
0,0,0,0,0,0,0,0,0,0,0,0,0,0,0,0,0,0,0,0,0,0,0,0,0,0,0,0,0,0,0,0,0,0,0,0,0,0,0,0,0,0,0,0,0,0,0,0,1458,1459,1459,1459,1459,1540,1419,1419,1419,1419,1419,1419,1419,1419,1419,1419,1419,1419,1419,1419,1419,1419,1419,1419,1419,1419,1419,1419,1419,1419,1419,1419,
0,0,0,0,0,0,0,0,0,0,0,0,0,0,0,0,0,0,0,0,0,0,0,0,0,0,0,0,0,0,0,0,0,0,0,0,0,0,0,0,0,0,0,0,0,0,0,0,0,0,0,0,0,1458,1459,1459,1419,1419,1419,1419,1419,1419,1419,1419,1419,1419,1419,1419,1419,1419,1419,1419,1419,1419,1419,1419,1419,1419,1419,1419,
0,0,0,0,0,0,0,0,0,0,0,0,0,0,0,0,0,0,0,0,0,0,0,0,0,0,0,0,0,0,0,0,0,0,0,0,0,0,0,0,0,0,0,0,0,0,0,0,0,0,0,0,0,0,0,0,0,0,0,0,0,0,0,0,1419,1419,1419,1419,1419,1419,1419,1419,1419,1419,1419,1419,1419,1419,1419,1419,
0,0,0,0,0,0,0,0,0,0,0,0,0,0,0,0,0,0,0,0,0,0,0,0,0,0,0,0,0,0,0,0,0,0,0,0,0,0,0,0,0,0,0,0,0,0,0,0,0,0,0,0,0,0,0,0,0,0,0,0,0,0,0,0,1419,1419,1419,1419,1419,1419,1419,1419,1419,1419,1419,1419,1419,1419,1419,1419,
0,0,0,0,0,0,0,0,0,0,0,0,0,0,0,0,0,0,0,0,0,0,0,0,0,0,0,0,0,0,0,0,0,0,0,0,0,0,0,0,0,0,0,0,0,0,0,0,0,0,0,0,0,0,0,0,0,0,0,0,0,0,0,0,0,0,1419,1419,1419,1419,1419,1419,1419,1419,1419,1419,1419,1419,1419,1419,
0,0,0,0,0,0,0,0,0,0,0,0,0,0,0,0,0,0,0,0,0,0,0,0,0,0,0,0,0,0,0,0,0,0,0,0,0,0,0,0,0,0,0,0,0,0,0,0,0,0,0,0,0,0,0,0,0,0,0,0,0,0,0,0,0,0,0,0,0,0,0,0,0,0,1419,1419,1419,1419,1419,1419,
0,0,0,0,0,0,0,0,0,0,0,0,0,0,0,0,0,0,0,0,0,0,0,0,0,0,0,0,0,0,0,0,0,0,0,0,0,0,0,0,0,0,0,0,0,0,0,0,0,0,0,0,0,0,0,0,0,0,0,0,0,0,0,0,0,0,0,0,0,0,0,0,0,0,0,0,0,0,0,0,
0,0,0,0,0,0,0,0,0,0,0,0,0,0,0,0,0,0,0,0,0,0,0,0,0,0,0,0,0,0,0,0,0,0,0,0,0,0,0,0,0,0,0,0,0,0,0,0,0,0,0,0,0,0,0,0,0,0,0,0,0,0,0,0,0,0,0,0,0,0,0,0,0,0,0,0,0,0,0,0,
0,0,0,0,0,0,0,0,0,0,0,0,0,0,0,0,0,0,0,0,0,0,0,0,0,0,0,0,0,0,0,0,0,0,0,0,0,0,0,0,0,0,0,0,0,0,0,0,0,0,0,0,0,0,0,0,0,0,0,0,0,0,0,0,0,0,0,0,0,0,0,0,0,0,0,0,0,0,0,0,
0,0,0,0,0,0,0,0,0,0,0,0,0,0,0,0,0,0,0,0,0,0,0,0,0,0,0,0,0,0,0,0,0,0,0,0,0,0,0,0,0,0,0,0,0,0,0,0,0,0,0,0,0,0,0,0,0,0,0,0,0,0,0,0,0,0,0,0,0,0,0,0,0,0,0,0,0,0,0,0,
0,0,0,0,0,0,0,0,0,0,0,0,0,0,0,0,0,0,0,0,0,0,0,0,0,0,0,0,0,0,0,0,0,0,0,0,0,0,0,0,0,0,0,0,0,0,0,0,0,0,0,0,0,0,0,0,0,0,0,0,0,0,0,0,0,0,0,0,0,0,0,0,0,0,0,0,0,0,0,0,
0,0,0,0,0,0,0,0,0,0,0,0,0,0,0,0,4002,4003,4003,4003,4003,4003,4003,4003,4004,0,0,0,0,0,0,0,0,0,0,0,0,0,0,0,0,0,0,0,0,0,0,0,0,0,0,0,0,0,0,0,0,0,0,0,0,0,0,0,0,0,0,0,0,0,0,0,0,0,0,0,0,0,0,0,
0,0,0,0,0,0,0,0,0,0,0,0,0,0,0,0,4052,4053,2147487894,2147487893,4053,4053,4193,4053,4054,0,0,0,0,0,0,0,0,0,0,0,0,0,0,0,0,0,0,0,0,0,0,0,0,0,0,0,0,0,0,0,0,0,0,0,0,0,0,0,0,0,0,0,0,0,0,0,0,0,0,0,0,0,0,0,
0,0,0,0,0,0,0,0,0,0,0,0,0,0,0,0,4102,4103,4103,4103,4103,4103,4103,4103,4104,0,0,0,0,0,0,0,0,0,0,0,0,0,0,0,0,0,0,0,0,0,0,0,0,0,0,0,0,0,0,0,0,0,0,0,0,0,0,0,0,0,0,0,0,0,0,0,0,0,0,0,0,0,0,0,
0,0,0,0,0,0,0,0,0,0,0,0,0,0,0,0,0,0,0,0,0,0,0,0,0,0,0,0,0,0,0,0,0,0,0,0,0,0,0,0,0,0,0,0,0,0,0,0,0,0,0,0,0,0,0,0,0,0,0,0,0,0,0,0,0,0,0,0,0,0,0,0,0,0,0,0,0,0,0,0,
0,0,0,0,0,0,0,0,0,0,0,0,0,4002,4003,4003,4004,0,0,0,0,0,0,0,0,0,0,0,0,0,0,0,0,0,0,0,0,0,0,0,0,0,0,0,0,0,0,0,0,0,0,0,0,0,0,0,0,0,0,0,0,0,0,0,0,0,0,0,0,0,0,0,0,0,0,0,0,0,0,0,
0,0,0,0,0,0,0,0,0,0,0,0,4002,4057,4195,4053,4056,4003,4004,0,0,0,0,0,0,0,0,0,0,0,0,0,0,0,0,0,0,0,0,0,0,0,0,0,0,0,0,0,0,0,0,0,0,0,0,0,0,0,0,0,0,0,0,0,0,0,0,0,0,0,0,0,0,0,0,0,0,0,0,0,
0,0,0,0,0,0,0,0,0,0,0,0,4052,4053,0,4053,4053,2147487890,4056,4004,0,0,0,0,0,0,0,0,0,0,0,0,0,0,0,0,0,0,0,0,0,0,0,0,0,0,0,0,0,0,0,0,0,0,0,0,0,0,0,0,0,0,0,0,0,0,0,0,0,0,0,0,0,0,0,0,0,0,0,0,
0,0,0,0,0,0,0,0,0,0,0,0,0,0,4052,4053,4053,4053,4053,4054,0,0,0,0,0,0,0,0,0,0,0,0,0,0,0,0,0,0,0,0,0,0,0,0,0,0,0,0,0,0,0,0,0,0,0,0,0,0,0,0,0,0,0,0,0,0,0,0,0,0,0,0,0,0,0,0,0,0,0,0,
0,0,0,0,0,0,0,0,0,0,0,0,0,0,4052,4243,4053,4053,4193,4056,4003,4004,0,0,0,0,0,0,0,0,0,0,0,0,0,0,0,0,0,0,0,0,0,0,0,0,0,0,0,0,0,0,0,0,0,0,0,0,0,0,0,0,0,0,0,0,0,0,0,0,0,0,0,0,0,0,0,0,0,0,
0,0,0,0,0,0,0,0,0,0,0,0,0,0,4102,4103,4103,4103,4007,4053,4053,4056,4004,0,0,0,0,0,0,0,0,0,0,0,0,0,0,0,0,0,0,0,0,0,0,0,0,0,0,0,0,0,0,0,0,0,0,0,0,0,0,0,0,0,0,0,0,0,0,0,0,0,0,0,0,0,0,0,0,0,
0,0,0,0,0,0,0,0,0,0,0,0,0,0,0,0,0,0,4102,4103,4007,4053,4054,0,0,0,0,0,0,0,0,0,0,0,0,0,0,0,0,0,0,0,0,0,0,0,0,0,0,0,0,0,0,0,0,0,0,0,0,0,0,0,0,0,0,0,0,0,0,0,0,0,0,0,0,0,0,0,0,0,
0,0,0,0,0,0,0,0,0,0,0,0,0,0,0,0,0,0,0,0,4102,4103,4104,0,0,0,0,0,0,0,0,0,0,0,0,0,0,0,0,0,0,0,0,0,0,0,0,0,0,0,0,0,0,0,0,0,0,0,0,0,0,0,0,0,0,0,0,0,0,0,0,0,0,0,0,0,0,0,0,0,
0,0,0,0,0,0,0,0,0,0,0,0,0,0,0,0,0,0,0,0,0,0,0,0,0,0,0,0,0,0,0,0,0,0,0,0,0,0,0,0,0,0,0,0,0,0,0,0,0,0,0,0,0,0,0,0,0,0,0,0,0,0,0,0,0,0,0,0,0,0,0,0,0,0,0,0,0,0,0,0,
0,0,0,0,0,0,0,0,0,0,0,0,0,0,0,0,0,0,0,0,0,0,0,0,0,0,0,0,0,0,0,0,0,0,0,0,0,0,0,0,0,0,0,0,0,0,0,0,0,0,0,0,0,0,0,0,0,0,0,0,0,0,0,0,0,0,0,0,0,0,0,0,0,0,0,0,0,0,0,0,
0,0,0,0,0,0,0,0,0,0,0,0,0,0,0,0,0,0,0,0,0,0,0,0,0,0,0,0,0,0,0,0,0,0,0,0,0,0,0,0,0,0,0,0,0,0,0,0,0,0,0,0,0,0,0,0,0,0,0,0,0,0,0,0,0,0,0,0,0,0,0,0,0,0,0,0,0,0,0,0,
0,0,0,0,0,0,0,0,0,0,0,0,0,0,0,0,0,0,0,0,0,0,0,0,0,0,0,0,0,0,0,0,0,0,0,0,0,0,0,0,0,0,0,0,0,0,0,0,0,0,0,0,0,0,0,0,0,0,0,0,0,0,0,0,0,0,0,0,0,0,0,0,0,0,0,0,0,0,0,0,
0,0,0,0,0,0,0,0,0,0,0,0,0,0,0,0,0,0,0,0,0,0,0,0,0,0,0,0,0,0,0,0,0,0,0,0,0,0,0,0,0,0,0,0,0,0,0,0,0,0,0,0,0,0,0,0,0,0,0,0,0,0,0,0,0,0,0,0,0,0,0,0,0,0,0,0,0,0,0,0,
0,0,0,0,0,0,0,0,0,0,0,0,0,0,0,0,0,0,0,0,0,0,0,0,0,0,0,0,0,0,0,0,0,0,0,0,0,0,0,0,0,0,0,0,0,0,0,0,0,0,0,0,0,0,0,0,0,0,0,0,0,0,0,0,0,0,0,0,0,0,0,0,0,0,0,0,0,0,0,0,
0,0,0,0,0,0,0,0,0,0,0,0,0,0,0,0,0,0,0,0,0,0,0,0,0,0,0,0,0,0,0,0,0,0,0,0,0,0,0,0,0,0,0,0,0,0,0,0,0,0,0,0,0,0,0,0,0,0,0,0,0,0,0,0,0,0,0,0,0,0,0,0,0,0,0,0,0,0,0,0,
0,0,0,0,0,0,0,0,0,0,0,0,0,0,0,0,0,0,0,0,0,0,0,0,0,0,0,0,0,0,0,0,0,0,0,0,0,0,0,0,0,0,0,0,0,0,0,0,0,0,0,0,0,0,0,0,0,0,0,0,0,0,0,0,0,0,0,0,0,0,0,0,0,0,0,0,0,0,0,0,
0,0,0,0,0,0,0,0,0,0,0,0,0,0,0,0,0,0,0,0,0,0,0,0,0,0,0,0,0,0,0,0,0,0,0,0,0,0,0,0,0,0,0,0,0,0,0,0,0,0,0,0,0,0,0,0,0,0,0,0,0,0,0,0,0,0,0,0,0,0,0,0,0,0,0,0,0,0,0,0,
0,0,0,0,0,0,0,0,0,0,0,0,0,0,0,0,0,0,0,0,0,0,0,0,0,0,0,0,0,0,0,0,0,0,0,0,0,0,0,0,0,0,0,0,0,0,0,0,0,0,0,0,0,0,0,0,0,0,0,0,0,0,0,0,0,0,0,0,0,0,0,0,0,0,0,0,0,0,0,0,
0,0,0,0,0,0,0,0,0,0,0,0,0,0,0,0,0,0,0,0,0,0,0,0,0,0,0,0,0,0,0,0,0,0,0,0,0,0,0,0,0,0,0,0,0,0,0,0,0,0,0,0,0,0,0,0,0,0,0,0,0,0,0,0,0,0,0,0,0,0,0,0,0,0,0,0,0,0,0,0,
0,0,0,0,0,0,0,0,0,0,0,0,0,0,0,0,0,0,0,0,0,0,0,0,0,0,0,0,0,0,0,0,0,0,0,0,0,0,0,0,0,0,0,0,0,0,0,0,0,0,0,0,0,0,0,0,0,0,0,0,0,0,0,0,0,0,0,0,0,0,0,0,0,0,0,0,0,0,0,0,
0,0,0,0,0,0,0,0,0,0,0,0,0,0,0,0,0,0,0,0,0,0,0,0,0,0,0,0,0,0,0,0,0,0,0,0,0,0,0,0,0,0,0,0,0,0,0,0,0,0,0,0,0,0,0,0,0,0,0,0,0,0,0,0,0,0,0,0,0,0,0,0,0,0,0,0,0,0,0,0,
0,0,0,0,0,0,0,0,0,0,0,0,0,0,0,0,0,0,0,0,0,0,0,0,0,0,0,0,0,0,0,0,0,0,0,0,0,0,0,0,0,0,0,0,0,0,0,0,0,0,0,0,0,0,0,0,0,0,0,0,0,0,0,0,0,0,0,0,0,0,0,0,0,0,0,0,0,0,0,0,
0,0,0,0,0,0,0,0,0,0,0,0,0,0,0,0,0,0,0,0,0,0,0,0,0,0,0,0,0,0,0,0,0,0,0,0,0,0,0,0,0,0,0,0,0,0,0,0,0,0,0,0,0,0,0,0,0,0,0,0,0,0,0,0,0,0,0,0,0,0,0,0,0,0,0,0,0,0,0,0
</data>
 </layer>
 <layer id="21" name="Elevation" width="80" height="52">
  <data encoding="csv">
0,0,0,0,0,0,0,0,0,0,0,2440,0,0,0,0,0,2438,0,0,0,0,0,0,0,0,0,0,0,0,0,0,0,0,0,0,0,0,0,0,0,2440,0,0,0,0,1116,0,0,0,0,0,0,0,0,0,0,0,0,0,0,0,0,0,0,0,0,0,0,0,0,0,0,0,0,0,0,0,0,0,
0,0,0,0,0,0,0,0,0,0,0,2440,0,0,0,0,0,2438,0,0,0,0,0,0,0,0,0,0,0,0,0,0,0,0,0,0,0,0,0,0,0,2440,0,0,0,0,1116,0,0,0,0,0,0,0,0,0,0,0,0,0,0,0,0,0,0,0,0,0,0,0,0,0,0,0,0,0,0,0,0,0,
0,0,0,0,0,0,0,0,0,0,0,2440,0,0,0,0,0,2438,0,0,0,0,0,0,0,0,0,0,0,0,0,0,0,0,0,0,0,0,0,0,0,2440,0,0,0,0,1119,3107,3107,3107,3107,3107,3107,3107,3020,0,0,0,0,0,0,0,0,0,0,0,0,0,0,0,0,0,0,0,0,0,0,0,0,0,
0,0,0,0,0,0,0,0,0,0,0,2440,0,0,0,0,2388,2443,0,0,0,0,0,0,0,0,0,0,0,0,0,0,0,0,0,0,0,0,0,0,0,2440,0,0,0,0,1122,3157,3157,3157,3157,3157,3157,3157,3070,0,0,0,0,0,0,0,0,0,0,0,0,0,0,0,0,0,0,0,0,0,0,0,0,0,
0,0,0,0,0,0,0,2392,2489,2489,2489,2490,0,0,0,0,2438,0,0,0,0,0,0,0,0,0,0,0,0,0,0,0,0,0,0,0,0,0,0,0,0,2440,0,0,0,0,1122,3157,3157,3157,3157,3157,3157,3157,3056,0,0,0,0,0,0,0,0,0,0,0,0,0,0,0,0,0,0,0,0,0,0,0,0,0,
0,0,0,0,0,0,2392,2490,0,0,0,0,0,0,0,0,2438,0,0,0,0,0,0,0,0,0,0,0,0,0,0,0,0,0,0,0,0,0,0,0,0,2442,2390,0,0,0,1125,1126,1126,1126,1126,1126,1126,1126,3056,0,0,0,0,0,0,0,0,0,0,0,0,0,0,0,0,0,0,0,0,0,0,0,0,0,
0,0,0,0,0,0,2440,0,0,0,0,0,0,0,0,2388,2443,0,0,0,0,0,0,0,0,0,0,0,0,0,0,0,0,0,0,0,0,0,0,0,0,0,2440,0,0,0,0,0,0,0,0,0,0,0,1119,3107,3020,0,0,0,0,0,0,0,0,0,0,0,0,0,0,0,0,0,0,0,0,0,0,0,
0,0,0,0,0,0,2440,0,0,0,0,0,0,0,0,2438,0,0,0,0,0,0,0,0,0,0,0,0,0,0,0,0,0,0,0,0,0,0,0,0,0,0,2440,0,0,0,0,0,0,0,0,0,0,0,1122,3157,3070,0,0,0,0,0,0,0,0,0,0,0,0,0,0,0,0,0,0,0,0,0,0,0,
0,0,0,0,0,0,2440,0,0,0,0,0,0,0,0,2438,0,2439,2439,2439,2439,2439,2439,2439,2439,0,0,0,0,0,0,0,0,0,0,0,0,0,0,0,0,0,2440,0,0,0,0,0,0,0,0,0,0,0,1122,3157,3106,3107,3107,3107,3107,3107,3107,3107,3107,3107,3107,3107,3020,0,0,0,0,0,0,0,0,0,0,0,
0,0,0,0,0,0,2440,0,0,0,0,0,0,0,0,2488,2489,2489,2489,2489,2489,2489,2489,2393,2439,0,0,0,0,0,0,0,0,0,0,0,0,0,0,0,0,0,2440,0,0,0,0,0,0,0,0,0,0,0,1125,1126,3156,3157,3157,3157,3157,3157,3157,3157,3157,3157,3157,3157,3070,0,0,0,0,0,0,0,0,0,0,0,
0,0,0,0,0,0,2440,0,0,0,0,0,0,0,0,0,0,0,0,0,0,0,0,2488,2489,2393,2439,2392,2489,2489,2489,2489,2489,2489,2489,2489,2393,0,0,0,0,0,2442,2389,2389,2390,0,0,0,0,0,0,0,0,0,0,1122,3157,3157,3157,3157,3157,3157,3157,3157,3157,3157,3157,3106,3107,3107,3107,3107,3107,3107,3107,3107,3107,3107,3107,
0,0,0,0,0,0,2440,0,0,0,0,0,0,0,0,0,0,0,0,0,0,0,0,0,0,2488,2489,2490,0,0,0,0,0,0,0,0,2488,2489,2393,0,0,0,0,0,0,2440,0,0,0,0,0,0,0,0,0,0,1125,1126,1126,1126,1126,1126,1126,1126,1126,1126,1126,1126,3156,3157,3157,3157,3157,3157,3157,3157,3157,3157,3157,3157,
0,0,0,0,0,0,2442,2390,0,0,0,0,0,0,0,0,0,0,0,0,0,0,0,0,0,0,0,0,0,0,0,0,0,0,0,0,0,0,2438,0,0,0,0,0,0,2440,0,0,0,0,0,0,0,0,0,0,0,0,0,0,0,0,0,0,0,0,0,0,1122,3157,3157,3157,3157,3157,3157,3157,3157,3157,3157,3157,
0,0,0,0,0,0,0,2442,2389,2389,2389,2389,2390,0,0,0,0,0,0,0,0,0,0,0,0,0,0,0,0,0,0,0,0,0,0,0,0,0,2488,2489,2489,2489,2489,2489,2489,2490,0,0,0,0,0,0,0,0,0,0,0,0,0,0,0,0,0,0,0,0,0,0,1125,1126,1126,1126,1126,1126,1126,1126,1126,1126,1126,1126,
0,0,0,0,0,0,0,0,0,0,0,0,2440,0,0,0,0,0,0,0,0,0,0,0,0,0,0,0,0,0,0,0,0,0,0,0,0,0,0,0,0,0,0,0,0,0,0,0,0,0,0,0,0,0,0,0,0,0,0,0,0,0,0,0,0,0,0,0,0,0,0,0,0,0,0,0,0,0,0,0,
0,0,0,0,0,0,0,0,0,0,0,0,2442,2390,0,0,0,0,0,0,0,2388,2389,2389,2389,2389,2389,2390,0,0,0,0,0,0,0,0,0,0,0,0,0,0,0,0,0,0,0,0,0,0,0,0,0,0,0,2388,2389,2389,2389,2389,2389,2389,2389,2390,0,0,0,0,0,0,0,0,0,0,0,0,0,0,0,0,
0,0,0,0,0,0,0,0,0,0,0,0,0,2442,2389,2389,2389,2389,2389,2389,2389,2443,0,0,0,0,0,2440,0,0,0,0,0,0,0,0,0,0,0,0,0,0,0,0,0,0,0,0,0,0,0,0,0,0,0,2438,0,0,0,0,0,0,0,2440,0,0,0,0,0,0,0,0,0,0,0,0,0,0,0,0,
0,0,0,0,0,0,0,0,0,0,0,0,0,0,0,0,0,0,0,0,0,0,0,0,0,0,0,2442,2389,2389,2389,2390,0,0,0,0,0,0,0,0,0,0,0,0,0,0,0,0,0,0,0,0,0,0,0,2438,0,0,0,0,0,0,0,2442,2389,2390,0,0,0,0,0,0,0,0,0,0,0,0,0,0,
0,0,0,0,0,0,0,0,0,0,0,0,0,0,0,0,0,0,0,0,0,0,0,0,0,0,0,0,0,0,0,2442,2389,2389,2389,2390,0,0,0,0,0,0,0,0,0,0,0,0,0,0,0,0,0,0,0,2438,0,0,0,0,0,0,0,0,0,2442,2389,2389,2389,2389,2389,2389,2389,2390,0,0,0,0,0,0,
0,0,0,0,0,0,0,0,0,0,0,0,0,0,0,0,0,0,0,0,0,0,0,0,0,0,0,0,0,0,0,0,0,0,2439,2440,0,0,0,0,0,0,0,0,0,0,0,0,0,0,0,0,0,0,0,2488,2393,0,0,0,0,0,0,0,0,0,0,0,0,0,0,0,0,2442,2389,2389,2389,2389,2389,2389,
0,0,0,0,0,0,0,0,0,0,0,0,0,0,0,0,0,0,0,0,0,0,0,0,0,0,0,0,0,0,0,0,0,0,2439,2440,0,0,0,0,0,0,0,0,0,0,0,0,0,0,0,0,0,0,0,0,2438,0,0,0,0,0,0,0,0,0,0,0,0,0,0,0,0,0,0,0,0,0,0,0,
0,0,0,0,0,0,0,0,0,0,0,0,0,0,0,0,0,0,0,0,0,0,0,0,0,0,0,0,0,0,0,0,0,0,0,2440,0,0,0,0,0,0,0,0,0,0,0,0,0,0,0,0,0,0,0,0,2438,0,0,0,0,0,0,0,0,0,0,0,0,0,0,0,0,0,0,0,0,0,0,0,
0,0,0,0,0,0,0,0,0,0,0,0,0,0,0,0,0,0,0,0,0,0,0,0,0,0,0,0,0,0,0,0,0,0,0,2440,0,0,0,0,0,0,0,0,0,0,0,0,0,0,0,0,0,0,0,0,2438,0,0,0,0,0,0,0,0,0,0,0,0,0,0,0,0,0,0,0,0,0,0,0,
0,0,0,0,0,0,0,0,0,0,0,0,0,0,0,0,0,0,0,0,0,0,0,0,0,0,0,0,0,0,0,0,0,0,0,2442,2390,0,0,0,0,0,0,0,0,0,0,0,0,0,0,0,0,0,0,2388,2443,0,0,0,0,0,0,0,0,0,0,0,0,0,0,0,0,0,0,0,0,0,0,0,
0,0,0,0,0,0,0,0,0,0,0,0,0,0,0,0,0,2439,2439,0,0,0,0,0,0,0,0,0,0,0,0,0,0,0,0,0,2442,2389,2389,2389,2389,2390,0,0,0,0,0,0,0,0,0,0,0,0,0,2438,0,0,0,0,0,0,0,0,0,0,0,0,0,0,0,0,0,0,0,0,0,0,0,0,
2439,2439,0,0,0,0,0,0,0,0,0,2439,2439,2439,2439,2392,2489,2489,2489,2489,2489,2489,2489,2489,2489,2393,0,0,0,0,0,0,0,0,0,0,0,0,0,0,2439,2442,2390,0,0,0,0,0,0,0,0,0,2388,2389,2389,2443,0,0,0,0,0,0,0,0,0,0,0,0,0,0,0,0,0,0,0,0,0,0,0,0,
0,0,0,0,0,0,0,2439,2439,2439,2439,2392,2489,2489,2489,2490,0,0,0,0,0,0,0,0,0,2488,2489,2489,2393,0,0,0,0,0,0,0,0,0,0,0,0,0,2442,2389,2390,0,0,0,0,0,0,0,2438,0,0,0,0,0,0,0,0,0,0,0,0,0,0,0,0,0,0,0,0,0,0,0,0,0,0,0,
2489,2489,2489,2489,2489,2489,2489,2489,2489,2489,2489,2490,0,0,0,0,0,0,0,0,0,0,0,0,0,0,0,0,2438,0,0,0,0,0,0,0,0,0,0,0,0,0,2439,2439,2440,0,0,0,0,2388,2389,2389,2443,0,0,0,0,0,0,0,0,0,0,0,0,0,0,0,0,0,0,0,0,0,0,0,0,0,0,0,
0,0,0,0,0,0,0,0,0,0,0,0,0,0,0,0,0,0,0,0,0,0,0,0,0,0,0,0,2488,2489,2393,0,0,0,0,0,0,0,0,0,0,0,0,0,2440,0,0,0,0,2438,0,0,0,0,0,0,0,0,0,0,0,0,0,0,0,0,0,0,0,0,0,0,0,0,0,0,0,0,0,0,
0,0,0,0,0,0,0,0,0,0,0,0,0,0,0,0,0,0,0,0,0,0,0,0,0,0,0,0,0,0,2438,0,0,0,0,0,0,0,0,0,0,0,0,0,2440,0,0,0,0,2438,0,0,0,0,0,0,0,0,0,0,0,0,0,0,0,0,0,0,0,0,0,0,0,0,0,0,0,0,0,0,
0,0,0,0,0,0,0,0,0,0,0,0,0,0,0,0,0,0,0,0,0,0,0,0,0,0,0,0,0,0,2438,0,0,0,0,0,0,0,0,2392,2489,2489,2489,2489,2490,0,0,0,0,2488,286,0,0,0,0,0,0,0,0,0,0,0,0,0,0,0,0,0,0,0,0,0,0,0,0,0,0,0,0,0,
0,0,0,0,0,0,0,0,2388,2389,2389,2389,2389,2389,2390,0,0,0,0,0,0,0,0,0,0,0,0,0,0,0,2438,0,0,0,0,2392,2489,2489,2489,2490,0,0,0,0,0,0,0,0,0,0,2438,0,0,0,0,0,0,0,0,0,0,0,0,0,0,0,0,0,0,0,0,0,0,0,0,0,0,0,0,0,
2389,2389,2389,2389,2389,2389,2389,2389,2443,0,0,0,0,0,2440,0,0,0,0,0,0,0,0,0,0,0,0,0,0,0,2488,2489,2489,2489,2489,2490,0,0,0,0,0,0,0,0,0,0,0,0,0,0,2438,0,0,0,0,0,0,0,0,0,0,0,0,0,0,0,0,0,0,0,0,0,0,0,0,0,0,0,0,0,
2439,0,0,2439,2439,0,0,0,0,0,0,0,0,0,2440,0,0,0,0,0,0,0,0,0,0,0,0,0,0,0,0,0,0,0,0,0,0,0,0,0,0,0,0,0,0,0,0,0,0,0,2438,0,0,0,0,0,0,0,0,0,0,0,0,0,0,0,0,0,0,0,0,0,0,0,0,0,0,0,0,0,
0,0,0,0,0,0,0,0,0,0,0,0,0,0,2442,2389,2389,2389,2390,0,0,0,0,0,0,0,0,0,0,0,0,0,0,0,0,0,0,0,0,0,0,0,0,0,0,0,0,0,0,0,2438,0,0,0,0,0,0,0,0,0,0,0,0,0,0,0,0,0,0,0,0,0,0,0,0,0,0,0,0,0,
2439,0,0,0,0,0,0,0,0,0,0,0,0,2439,2439,2439,2439,2439,2442,2389,2389,2389,2389,2389,2389,2389,2389,2390,0,0,0,0,0,0,0,0,0,0,0,0,0,0,0,0,0,0,0,0,0,0,2438,0,0,0,0,0,0,0,0,0,0,0,0,0,0,0,0,0,0,0,0,0,0,0,0,0,0,0,0,0,
0,0,0,0,0,0,0,0,0,0,0,0,0,0,0,0,0,2439,2439,2439,2439,2439,2439,2439,2439,2439,2439,2442,2389,2389,2389,2390,0,0,0,0,0,0,0,0,0,0,0,0,0,0,0,0,0,0,2438,0,0,0,0,0,0,0,0,0,0,0,0,0,0,0,0,0,0,0,0,0,0,0,0,0,0,0,0,0,
0,0,0,0,0,0,0,0,0,0,0,0,0,0,0,0,0,0,0,0,0,0,0,0,0,0,0,0,0,0,0,2442,2390,0,0,0,0,0,0,0,0,0,0,0,0,0,0,0,0,0,2438,0,0,0,0,0,0,0,0,0,0,0,0,0,0,0,0,0,0,0,0,0,0,0,0,0,0,0,0,0,
0,0,0,0,0,0,0,0,0,0,0,0,0,0,0,0,0,0,0,0,0,0,0,0,0,0,0,0,0,0,0,2439,2440,0,0,0,0,0,0,0,0,0,0,0,0,0,0,0,0,0,2438,0,0,0,0,0,0,0,0,0,0,0,0,0,0,0,0,0,0,0,0,0,0,0,0,0,0,0,0,0,
0,0,0,0,0,0,0,0,0,0,0,0,0,0,0,0,0,0,0,0,0,0,0,0,0,0,0,0,0,0,0,0,2440,0,0,0,0,0,0,0,0,0,0,0,0,0,0,0,0,2388,309,0,0,0,0,0,0,0,0,0,0,0,0,0,0,0,0,0,0,0,0,0,0,0,0,0,0,0,0,0,
0,0,0,0,0,0,0,0,0,0,0,0,0,0,0,0,0,0,0,0,0,0,0,0,0,0,0,0,0,0,0,0,2442,2390,0,0,0,0,0,0,0,0,0,0,0,0,0,0,0,2438,0,0,0,0,0,0,0,0,0,0,0,0,0,0,0,0,0,0,0,0,0,0,0,0,0,0,0,0,0,0,
0,0,0,0,0,0,0,0,0,0,0,0,0,0,0,0,0,0,0,0,0,0,0,0,0,0,0,0,0,0,0,0,2439,2442,2389,2389,2389,2389,2389,2390,0,0,0,0,0,0,0,0,2388,309,0,0,0,0,0,0,0,0,0,0,0,0,0,0,0,0,0,0,0,0,0,0,0,0,0,0,0,0,0,0,
0,0,0,0,0,0,0,0,0,0,0,0,0,0,0,0,0,0,0,0,0,0,0,0,0,0,0,0,0,0,0,0,0,2439,2439,2439,2439,2439,2439,2442,2389,2389,2389,2389,2389,2389,2389,2389,2443,0,0,0,0,0,0,0,0,0,0,0,0,0,0,0,0,0,0,0,0,0,0,0,0,0,0,0,0,0,0,0,
0,0,0,0,0,0,0,0,0,0,0,0,0,0,0,0,0,0,0,0,0,0,0,0,0,0,0,0,0,0,0,0,0,0,0,0,0,0,0,2439,2439,2439,0,0,0,0,0,0,0,0,0,0,0,0,0,0,0,0,0,0,0,0,0,0,0,0,0,0,0,0,0,0,0,0,0,0,0,0,0,0,
0,0,0,0,0,0,0,0,0,0,0,0,0,0,0,0,0,0,0,0,0,0,0,0,0,0,0,0,0,0,0,0,0,0,0,0,0,0,0,0,0,0,0,0,0,0,0,0,0,0,0,0,0,0,0,0,0,0,0,0,0,0,0,0,0,0,0,0,0,0,0,0,0,0,0,0,0,0,0,0,
0,0,0,0,0,0,0,0,0,0,0,0,0,0,0,0,0,0,0,0,0,0,0,0,0,0,0,0,0,0,0,0,0,0,0,0,0,0,0,0,0,0,0,0,0,0,0,0,0,0,0,0,0,0,0,0,0,0,0,0,0,0,0,0,0,0,0,0,0,0,0,0,0,0,0,0,0,0,0,0,
0,0,0,0,0,0,0,0,0,0,0,0,0,0,0,0,0,0,0,0,0,0,0,0,0,0,0,0,0,0,0,0,0,0,0,0,0,0,0,0,0,0,0,0,0,0,0,0,0,0,0,0,0,0,0,0,0,0,0,0,0,0,0,0,0,0,0,0,0,0,0,0,0,0,0,0,0,0,0,0,
0,0,0,0,0,0,0,0,0,0,0,0,0,0,0,0,0,0,0,0,0,0,0,0,0,0,0,0,0,0,0,0,0,0,0,0,0,0,0,0,0,0,0,0,0,0,0,0,0,0,0,0,0,0,0,0,0,0,0,0,0,0,0,0,0,0,0,0,0,0,0,0,0,0,0,0,0,0,0,0,
0,0,0,0,0,0,0,0,0,0,0,0,0,0,0,0,0,0,0,0,0,0,0,0,0,0,0,0,0,0,0,0,0,0,0,0,0,0,0,0,0,0,0,0,0,0,0,0,0,0,0,0,0,0,0,0,0,0,0,0,0,0,0,0,0,0,0,0,0,0,0,0,0,0,0,0,0,0,0,0,
0,0,0,0,0,0,0,0,0,0,0,0,0,0,0,0,0,0,0,0,0,0,0,0,0,0,0,0,0,0,0,0,0,0,0,0,0,0,0,0,0,0,0,0,0,0,0,0,0,0,0,0,0,0,0,0,0,0,0,0,0,0,0,0,0,0,0,0,0,0,0,0,0,0,0,0,0,0,0,0,
0,0,0,0,0,0,0,0,0,0,0,0,0,0,0,0,0,0,0,0,0,0,0,0,0,0,0,0,0,0,0,0,0,0,0,0,0,0,0,0,0,0,0,0,0,0,0,0,0,0,0,0,0,0,0,0,0,0,0,0,0,0,0,0,0,0,0,0,0,0,0,0,0,0,0,0,0,0,0,0,
0,0,0,0,0,0,0,0,0,0,0,0,0,0,0,0,0,0,0,0,0,0,0,0,0,0,0,0,0,0,0,0,0,0,0,0,0,0,0,0,0,0,0,0,0,0,0,0,0,0,0,0,0,0,0,0,0,0,0,0,0,0,0,0,0,0,0,0,0,0,0,0,0,0,0,0,0,0,0,0
</data>
 </layer>
 <layer id="2" name="Objects" width="80" height="52">
  <data encoding="csv">
0,0,0,0,0,0,0,0,0,0,0,0,0,0,0,0,0,0,0,0,0,0,0,0,0,0,0,0,0,0,0,0,0,0,0,0,0,0,0,0,0,0,0,0,0,0,0,0,0,0,0,0,0,0,0,0,0,0,0,0,0,0,0,0,0,0,0,0,0,0,0,0,0,0,0,0,0,0,0,0,
0,0,0,0,0,0,0,0,0,0,0,0,0,0,0,0,0,0,0,0,0,0,0,0,0,0,0,0,0,0,0,0,0,0,0,0,0,0,0,0,0,0,0,0,0,0,0,0,0,0,0,0,0,0,0,0,0,0,0,0,0,0,0,0,0,0,0,0,0,0,0,0,0,0,0,0,0,0,0,0,
0,0,0,0,0,0,0,0,0,0,0,0,0,0,0,0,0,0,0,0,0,0,0,0,0,0,0,0,0,0,0,0,0,0,0,0,0,0,0,0,0,0,0,0,0,0,0,0,0,0,0,0,0,0,0,0,0,0,0,0,0,0,0,0,0,0,0,0,0,0,0,0,0,0,0,0,0,0,0,0,
0,0,0,0,0,0,0,0,0,0,0,0,0,0,0,0,0,0,0,0,0,0,0,0,0,0,0,0,0,0,0,0,0,0,0,0,0,0,0,0,0,0,0,0,0,0,0,0,0,0,0,0,0,0,0,0,0,0,0,0,0,0,0,0,0,0,0,0,0,0,0,0,0,0,0,0,0,0,0,0,
0,0,0,0,0,0,0,0,0,0,0,0,0,0,0,0,0,0,0,0,0,0,0,0,0,0,0,0,0,0,0,0,0,0,0,0,0,0,0,0,0,0,0,0,0,0,0,0,0,0,0,0,0,0,0,0,0,0,0,0,0,0,0,0,0,0,0,0,0,0,0,0,0,0,0,0,0,0,0,0,
0,0,0,0,0,0,0,0,0,0,0,0,0,0,0,0,0,0,0,0,0,0,0,0,0,0,0,0,0,0,0,0,0,0,0,0,0,0,0,0,0,0,0,0,0,0,0,0,0,0,0,0,0,0,0,0,0,0,0,0,0,0,0,0,0,0,0,0,0,0,0,0,0,0,0,0,0,0,0,0,
0,0,0,0,0,0,0,0,0,0,0,0,0,0,0,0,0,0,0,0,0,0,0,0,0,0,0,0,0,0,0,0,0,0,0,0,0,0,0,0,0,0,0,0,0,0,0,0,0,0,0,0,0,0,0,0,0,0,0,0,0,0,0,0,0,0,0,0,0,0,0,0,0,0,0,0,0,0,0,0,
0,0,0,0,0,0,0,0,0,0,0,0,0,0,0,0,0,0,0,0,0,0,0,0,0,0,0,0,0,0,0,0,0,0,0,0,0,0,0,0,0,0,0,0,0,0,0,0,0,0,0,0,0,0,0,0,0,0,0,0,0,0,0,0,0,0,0,0,0,0,0,0,0,0,0,0,0,0,0,0,
0,0,0,0,0,0,0,0,0,0,0,0,0,0,0,0,0,0,0,0,0,0,0,0,0,0,0,0,0,0,0,0,0,0,0,0,0,0,0,0,0,0,0,0,0,0,0,0,0,0,0,0,0,0,0,0,0,0,0,0,0,0,0,0,0,0,0,0,0,0,0,0,0,0,0,0,0,0,0,0,
0,0,0,0,0,0,0,0,0,0,0,0,0,0,0,0,0,0,0,0,0,0,0,0,0,0,0,0,0,0,0,0,0,0,0,0,0,0,0,0,0,0,0,0,0,0,0,0,0,0,0,0,0,0,0,0,0,0,0,0,0,0,0,0,0,0,0,0,0,0,0,0,0,0,0,0,0,0,0,0,
0,0,0,0,0,0,0,0,0,0,0,0,0,0,0,0,0,0,0,0,0,0,0,0,0,0,0,0,0,0,0,0,0,0,0,0,0,0,0,0,0,0,0,0,0,0,0,0,0,0,0,0,0,0,0,0,0,0,0,0,0,0,0,0,0,0,0,0,0,0,0,0,0,0,0,0,0,0,0,0,
0,0,0,0,0,0,0,0,0,0,0,0,0,0,0,0,0,0,0,0,0,0,0,0,0,0,0,0,0,0,0,0,0,0,0,0,0,0,0,0,0,0,0,0,0,0,0,0,0,0,0,0,0,0,0,0,0,0,0,0,0,0,0,0,0,0,0,0,0,0,0,0,0,0,0,0,0,0,0,0,
0,0,0,0,0,0,0,0,0,0,0,0,0,0,0,0,0,0,0,0,0,0,0,0,0,0,0,0,0,0,0,0,0,0,0,0,0,0,0,0,0,0,0,0,0,0,0,0,0,0,0,0,0,0,0,0,0,0,0,0,0,0,0,0,0,0,0,0,0,0,0,0,0,0,0,0,0,0,0,0,
0,0,0,0,0,0,0,0,0,0,0,0,0,0,0,0,0,0,0,0,0,0,0,0,0,0,0,0,0,0,0,0,0,0,0,0,0,0,0,0,0,0,0,0,0,0,0,0,0,0,0,0,0,0,0,0,0,0,0,0,0,0,0,0,0,0,0,0,0,0,0,0,0,0,0,0,0,0,0,0,
0,0,0,0,0,0,0,0,0,0,0,0,0,0,0,0,0,0,0,0,0,0,0,0,0,0,0,0,0,0,0,0,0,0,0,0,0,0,0,0,0,0,0,0,0,0,0,0,0,0,0,0,0,0,0,0,0,0,0,0,0,0,0,0,0,0,0,0,0,0,0,0,0,0,0,0,0,0,0,0,
0,0,0,0,0,0,0,0,0,0,0,0,0,0,0,0,0,0,0,0,0,0,0,0,0,0,0,0,0,0,0,0,0,0,0,0,0,0,0,0,0,0,0,0,0,0,0,0,0,0,0,0,0,0,0,0,0,0,0,0,0,0,0,0,0,0,0,0,0,0,0,0,0,0,0,0,0,0,0,0,
0,0,0,0,0,0,0,0,0,0,0,0,0,0,0,0,0,0,0,0,0,0,0,0,0,0,0,0,0,0,0,0,0,0,0,0,0,0,0,0,0,0,0,0,0,0,0,0,0,0,0,0,0,0,0,0,0,0,0,0,0,0,0,0,0,0,0,0,0,0,0,0,0,0,0,0,0,0,0,0,
0,0,0,0,0,0,0,0,0,0,0,0,0,0,0,0,0,0,0,0,0,0,0,0,0,0,0,0,0,0,0,0,0,0,0,0,0,0,0,0,0,0,0,0,0,0,0,0,0,0,0,0,0,0,0,0,0,0,0,0,0,0,0,0,0,0,0,0,0,0,0,0,0,0,0,0,0,0,0,0,
0,0,0,0,0,0,0,0,0,0,0,0,0,0,0,0,0,0,0,0,0,0,0,0,0,0,0,0,0,0,0,0,0,0,0,0,0,0,0,0,0,0,0,0,0,0,0,0,0,0,0,0,0,0,0,0,0,0,0,0,0,0,0,0,0,0,0,0,0,0,0,0,0,0,0,0,0,0,0,0,
0,0,0,0,0,0,0,0,0,0,0,0,0,0,0,0,0,0,0,0,0,0,0,0,0,0,0,0,0,0,0,0,0,0,0,0,0,0,0,0,0,0,0,0,0,0,0,0,0,0,0,0,0,0,0,0,0,0,0,0,0,0,0,0,0,0,0,0,0,0,0,0,0,0,0,0,0,0,0,0,
0,0,0,0,0,0,0,0,0,0,0,0,0,0,0,0,0,0,0,0,0,0,0,0,0,0,0,0,0,0,0,0,0,0,0,0,0,0,0,0,0,0,0,0,0,0,0,0,0,0,0,0,0,0,0,0,0,0,0,0,0,0,0,0,0,0,0,0,0,0,0,0,0,0,0,0,0,0,0,0,
0,0,0,0,0,0,0,0,0,0,0,0,0,0,0,0,0,0,0,0,0,0,0,0,0,0,0,0,0,0,0,0,0,0,0,0,0,0,0,0,0,0,0,0,0,0,0,0,0,0,0,0,0,0,0,0,0,0,0,0,0,0,0,0,0,0,0,0,0,0,0,0,0,0,0,0,0,0,0,0,
0,0,0,0,0,0,0,0,0,0,0,0,0,0,0,0,0,0,0,0,0,0,0,0,0,0,0,0,0,0,0,0,0,0,0,0,0,0,0,0,0,0,0,0,0,0,0,0,0,0,0,0,0,0,0,0,0,0,0,0,0,0,0,0,0,0,0,0,0,0,0,0,0,0,0,0,0,0,0,0,
0,0,0,0,0,0,0,0,0,0,0,0,0,0,0,0,0,0,0,0,0,0,0,0,0,0,0,0,0,0,0,0,0,0,0,0,0,0,0,0,0,0,0,0,0,0,0,0,0,0,0,0,0,0,0,0,0,0,0,0,0,0,0,0,0,0,0,0,0,0,0,0,0,0,0,0,0,0,0,0,
0,0,0,0,0,0,0,0,0,0,0,0,0,0,0,0,0,0,0,0,0,0,0,0,0,0,0,0,0,0,0,0,0,0,0,0,0,0,0,0,0,0,0,0,0,0,0,0,0,0,0,0,0,0,0,0,0,0,0,0,0,0,0,0,0,0,0,0,0,0,0,0,0,0,0,0,0,0,0,0,
0,0,0,0,0,0,0,0,0,0,0,0,0,0,0,0,0,0,0,0,0,0,0,0,0,0,0,0,0,0,0,0,0,0,0,0,0,0,0,0,0,0,0,0,0,0,0,0,0,0,0,0,0,0,0,0,0,0,0,0,0,0,0,0,0,0,0,0,0,0,0,0,0,0,0,0,0,0,0,0,
0,0,0,0,0,0,0,0,0,0,0,0,0,0,0,0,0,0,0,0,0,0,0,0,0,0,0,0,0,0,0,0,0,0,0,0,0,0,0,0,0,0,0,0,0,0,0,0,0,0,0,0,0,0,0,0,0,0,0,0,0,0,0,0,0,0,0,0,0,0,0,0,0,0,0,0,0,0,0,0,
0,0,0,0,0,0,0,0,0,0,0,0,0,0,0,0,0,0,0,0,0,0,0,0,0,0,0,0,0,0,0,0,0,0,0,0,0,0,0,0,0,0,0,0,0,0,0,0,0,0,0,0,0,0,0,0,0,0,0,0,0,0,0,0,0,0,0,0,0,0,0,0,0,0,0,0,0,0,0,0,
0,0,0,0,0,0,0,0,0,0,0,0,0,0,0,0,0,0,0,0,0,0,0,0,0,0,0,0,0,0,0,0,0,0,0,0,0,0,0,0,0,0,0,0,0,0,0,0,0,0,0,0,0,0,0,0,0,0,0,0,0,0,0,0,0,0,0,0,0,0,0,0,0,0,0,0,0,0,0,0,
0,0,0,0,0,0,0,0,0,0,0,0,0,0,0,0,0,0,0,0,0,0,0,0,0,0,0,0,0,0,0,0,0,0,0,0,0,0,0,0,0,0,0,0,0,0,0,0,0,0,0,0,0,0,0,0,0,0,0,0,0,0,0,0,0,0,0,0,0,0,0,0,0,0,0,0,0,0,0,0,
0,0,0,0,0,0,0,0,0,0,0,0,0,0,0,0,0,0,0,0,0,0,0,0,0,0,0,0,0,0,0,0,0,0,0,0,0,0,0,0,0,0,0,0,0,0,0,0,0,0,0,0,0,0,0,0,0,0,0,0,0,0,0,0,0,0,0,0,0,0,0,0,0,0,0,0,0,0,0,0,
0,0,0,0,0,0,0,0,0,0,0,0,0,0,0,0,0,0,0,0,0,0,0,0,0,0,0,0,0,0,0,0,0,0,0,0,0,0,0,0,0,0,0,0,0,0,0,0,0,0,0,0,0,0,0,0,0,0,0,0,0,0,0,0,0,0,0,0,0,0,0,0,0,0,0,0,0,0,0,0,
0,0,0,0,0,0,0,0,0,0,0,0,0,0,0,0,0,0,0,0,0,0,0,0,0,0,0,0,0,0,0,0,0,0,0,0,0,0,0,0,0,0,0,0,0,0,0,0,0,0,0,0,0,0,0,0,0,0,0,0,0,0,0,0,0,0,0,0,0,0,0,0,0,0,0,0,0,0,0,0,
0,0,0,0,0,0,0,0,0,0,0,0,0,0,0,0,0,0,0,0,0,0,0,0,0,0,0,0,0,0,0,0,0,0,0,0,0,0,0,0,0,0,0,0,0,0,0,0,0,0,0,0,0,0,0,0,0,0,0,0,0,0,0,0,0,0,0,0,0,0,0,0,0,0,0,0,0,0,0,0,
0,0,0,0,0,0,0,0,0,0,0,0,0,0,0,0,0,0,0,0,0,0,0,0,0,0,0,0,0,0,0,0,0,0,0,0,0,0,0,0,0,0,0,0,0,0,0,0,0,0,0,0,0,0,0,0,0,0,0,0,0,0,0,0,0,0,0,0,0,0,0,0,0,0,0,0,0,0,0,0,
0,0,0,0,0,0,0,0,0,0,0,0,0,0,0,0,0,0,0,0,0,0,0,0,0,0,0,0,0,0,0,0,0,0,0,0,0,0,0,0,0,0,0,0,0,0,0,0,0,0,0,0,0,0,0,0,0,0,0,0,0,0,0,0,0,0,0,0,0,0,0,0,0,0,0,0,0,0,0,0,
0,0,0,0,0,0,0,0,0,0,0,0,0,0,0,0,0,0,0,0,0,0,0,0,0,0,0,0,0,0,0,0,0,0,0,0,0,0,0,0,0,0,0,0,0,0,0,0,0,0,0,0,0,0,0,0,0,0,0,0,0,0,0,0,0,0,0,0,0,0,0,0,0,0,0,0,0,0,0,0,
0,0,0,0,0,0,0,0,0,0,0,0,0,0,0,0,0,0,0,0,0,0,0,0,0,0,0,0,0,0,0,0,0,0,0,0,0,0,0,0,0,0,0,0,0,0,0,0,0,0,0,0,0,0,0,0,0,0,0,0,0,0,0,0,0,0,0,0,0,0,0,0,0,0,0,0,0,0,0,0,
0,0,0,0,0,0,0,0,0,0,0,0,0,0,0,0,0,0,0,0,0,0,0,0,0,0,0,0,0,0,0,0,0,0,0,0,0,0,0,0,0,0,0,0,0,0,0,0,0,0,0,0,0,0,0,0,0,0,0,0,0,0,0,0,0,0,0,0,0,0,0,0,0,0,0,0,0,0,0,0,
0,0,0,0,0,0,0,0,0,0,0,0,0,0,0,0,0,0,0,0,0,0,0,0,0,0,0,0,0,0,0,0,0,0,0,0,0,0,0,0,0,0,0,0,0,0,0,0,0,0,0,0,0,0,0,0,0,0,0,0,0,0,0,0,0,0,0,0,0,0,0,0,0,0,0,0,0,0,0,0,
0,0,0,0,0,0,0,0,0,0,0,0,0,0,0,0,0,0,0,0,0,0,0,0,0,0,0,0,0,0,0,0,0,0,0,0,0,0,0,0,0,0,0,0,0,0,0,0,0,0,0,0,0,0,0,0,0,0,0,0,0,0,0,0,0,0,0,0,0,0,0,0,0,0,0,0,0,0,0,0,
0,0,0,0,0,0,0,0,0,0,0,0,0,0,0,0,0,0,0,0,0,0,0,0,0,0,0,0,0,0,0,0,0,0,0,0,0,0,0,0,0,0,0,0,0,0,0,0,0,0,0,0,0,0,0,0,0,0,0,0,0,0,0,0,0,0,0,0,0,0,0,0,0,0,0,0,0,0,0,0,
0,0,0,0,0,0,0,0,0,0,0,0,0,0,0,0,0,0,0,0,0,0,0,0,0,0,0,0,0,0,0,0,0,0,0,0,0,0,0,0,0,0,0,0,0,0,0,0,0,0,0,0,0,0,0,0,0,0,0,0,0,0,0,0,0,0,0,0,0,0,0,0,0,0,0,0,0,0,0,0,
0,0,0,0,0,0,0,0,0,0,0,0,0,0,0,0,0,0,0,0,0,0,0,0,0,0,0,0,0,0,0,0,0,0,0,0,0,0,0,0,0,0,0,0,0,0,0,0,0,0,0,0,0,0,0,0,0,0,0,0,0,0,0,0,0,0,0,0,0,0,0,0,0,0,0,0,0,0,0,0,
0,0,0,0,0,0,0,0,0,0,0,0,0,0,0,0,0,0,0,0,0,0,0,0,0,0,0,0,0,0,0,0,0,0,0,0,0,0,0,0,0,0,0,0,0,0,0,0,0,0,0,0,0,0,0,0,0,0,0,0,0,0,0,0,0,0,0,0,0,0,0,0,0,0,0,0,0,0,0,0,
0,0,0,0,0,0,0,0,0,0,0,0,0,0,0,0,0,0,0,0,0,0,0,0,0,0,0,0,0,0,0,0,0,0,0,0,0,0,0,0,0,0,0,0,0,0,0,0,0,0,0,0,0,0,0,0,0,0,0,0,0,0,0,0,0,0,0,0,0,0,0,0,0,0,0,0,0,0,0,0,
0,0,0,0,0,0,0,0,0,0,0,0,0,0,0,0,0,0,0,0,0,0,0,0,0,0,0,0,0,0,0,0,0,0,0,0,0,0,0,0,0,0,0,0,0,0,0,0,0,0,0,0,0,0,0,0,0,0,0,0,0,0,0,0,0,0,0,0,0,0,0,0,0,0,0,0,0,0,0,0,
0,0,0,0,0,0,0,0,0,0,0,0,0,0,0,0,0,0,0,0,0,0,0,0,0,0,0,0,0,0,0,0,0,0,0,0,0,0,0,0,0,0,0,0,0,0,0,0,0,0,0,0,0,0,0,0,0,0,0,0,0,0,0,0,0,0,0,0,0,0,0,0,0,0,0,0,0,0,0,0,
0,0,0,0,0,0,0,0,0,0,0,0,0,0,0,0,0,0,0,0,0,0,0,0,0,0,0,0,0,0,0,0,0,0,0,0,0,0,0,0,0,0,0,0,0,0,0,0,0,0,0,0,0,0,0,0,0,0,0,0,0,0,0,0,0,0,0,0,0,0,0,0,0,0,0,0,0,0,0,0,
0,0,0,0,0,0,0,0,0,0,0,0,0,0,0,0,0,0,0,0,0,0,0,0,0,0,0,0,0,0,0,0,0,0,0,0,0,0,0,0,0,0,0,0,0,0,0,0,0,0,0,0,0,0,0,0,0,0,0,0,0,0,0,0,0,0,0,0,0,0,0,0,0,0,0,0,0,0,0,0,
0,0,0,0,0,0,0,0,0,0,0,0,0,0,0,0,0,0,0,0,0,0,0,0,0,0,0,0,0,0,0,0,0,0,0,0,0,0,0,0,0,0,0,0,0,0,0,0,0,0,0,0,0,0,0,0,0,0,0,0,0,0,0,0,0,0,0,0,0,0,0,0,0,0,0,0,0,0,0,0,
0,0,0,0,0,0,0,0,0,0,0,0,0,0,0,0,0,0,0,0,0,0,0,0,0,0,0,0,0,0,0,0,0,0,0,0,0,0,0,0,0,0,0,0,0,0,0,0,0,0,0,0,0,0,0,0,0,0,0,0,0,0,0,0,0,0,0,0,0,0,0,0,0,0,0,0,0,0,0,0
</data>
 </layer>
 <layer id="16" name="Platform" width="80" height="52">
  <data encoding="csv">
0,0,0,0,0,0,0,0,0,0,0,0,0,0,0,0,0,0,0,0,0,0,0,0,0,0,0,0,0,0,0,0,0,0,0,0,0,0,0,0,0,0,0,0,0,0,0,0,0,0,0,0,0,0,0,0,0,0,0,0,0,0,0,0,0,0,0,0,0,0,0,0,0,0,0,0,0,0,0,0,
0,0,0,0,0,0,0,0,0,0,0,0,0,0,0,0,0,0,0,0,0,0,0,0,0,0,0,0,0,0,0,0,0,0,0,0,0,0,0,0,0,0,0,0,0,0,0,0,0,0,0,0,0,0,0,0,0,0,0,0,0,0,0,0,0,0,0,0,0,0,0,0,0,0,0,0,0,0,0,0,
0,0,0,0,0,0,0,0,0,0,0,0,0,0,0,0,0,0,0,0,0,0,0,0,0,0,0,0,0,0,0,0,0,0,0,0,0,0,0,0,0,0,0,0,0,0,0,0,0,0,0,0,0,0,0,0,0,0,0,0,0,0,0,0,0,0,0,0,0,0,0,0,0,0,0,0,0,0,0,0,
0,0,0,0,0,0,0,0,0,0,0,0,0,0,0,0,0,0,0,0,0,0,0,0,0,0,0,0,0,0,0,0,0,0,0,0,0,0,0,0,0,0,0,0,0,0,0,0,0,0,0,0,0,0,0,0,0,0,0,0,0,0,0,0,0,0,0,0,0,0,0,0,0,0,0,0,0,0,0,0,
0,0,0,0,0,0,0,0,0,0,0,0,0,0,0,0,0,0,0,0,0,0,0,0,0,0,0,0,0,0,0,0,0,0,0,0,0,0,0,0,0,0,0,0,0,0,0,0,0,0,0,0,0,0,0,0,0,0,0,0,0,0,0,0,0,0,0,0,0,0,0,0,0,0,0,0,0,0,0,0,
0,0,0,0,0,0,0,0,0,0,0,0,0,0,0,0,0,0,0,0,0,0,0,0,0,0,0,0,0,0,0,0,0,0,0,0,0,0,0,0,0,0,0,0,0,0,0,0,0,0,0,0,0,0,0,0,0,0,0,0,0,0,0,0,0,0,0,0,0,0,0,0,0,0,0,0,0,0,0,0,
0,0,0,0,0,0,0,0,0,0,0,0,0,0,0,0,0,0,0,0,0,0,0,0,0,0,0,0,0,0,0,0,0,0,0,0,0,0,0,0,0,0,0,0,0,0,0,0,0,0,0,0,0,0,0,0,0,0,0,0,0,0,0,0,0,0,0,0,0,0,0,0,0,0,0,0,0,0,0,0,
0,0,0,0,0,0,0,0,0,0,0,0,0,0,0,0,0,0,0,0,0,0,0,0,0,0,0,0,0,0,0,0,0,0,0,0,0,0,0,0,0,0,0,0,0,0,0,0,0,0,0,0,0,0,0,0,0,0,0,0,0,0,0,0,0,0,0,0,0,0,0,0,0,0,0,0,0,0,0,0,
0,0,0,0,0,0,0,0,0,0,0,0,0,0,0,0,0,0,0,0,0,0,0,0,0,0,0,0,0,0,0,0,0,0,0,0,0,0,0,0,0,0,0,0,0,0,0,0,0,0,0,0,0,0,0,0,0,0,0,0,0,0,0,0,0,0,0,0,0,0,0,0,0,0,0,0,0,0,0,0,
0,0,0,0,0,0,0,0,0,0,0,0,0,0,0,0,0,0,0,0,0,0,0,0,0,0,0,0,0,0,0,0,0,0,0,0,0,0,0,0,0,0,0,0,0,0,0,0,0,0,0,0,0,0,0,0,0,0,0,0,0,0,0,0,0,0,0,0,0,0,0,0,0,0,0,0,0,0,0,0,
0,0,0,0,0,0,0,0,0,0,0,0,0,0,0,0,0,0,0,0,0,0,0,0,0,0,0,0,0,0,0,0,0,0,0,0,0,0,0,0,0,0,0,0,0,0,0,0,0,0,0,0,0,0,0,0,0,0,0,0,0,0,0,0,0,0,0,0,0,0,0,0,0,0,0,0,0,0,0,0,
0,0,0,0,0,0,0,0,0,0,0,0,0,0,0,0,0,0,0,0,0,0,0,0,0,0,0,0,0,0,0,0,0,0,0,0,0,0,0,0,0,0,0,0,0,0,0,0,0,0,0,0,0,0,0,0,0,0,0,0,0,0,0,0,0,0,0,0,0,0,0,0,0,0,0,0,0,0,0,0,
0,0,0,0,0,0,0,0,0,0,0,0,0,0,0,0,0,0,0,0,0,0,0,0,0,0,0,0,0,0,0,0,0,0,0,0,0,0,0,0,0,0,0,0,0,0,0,0,0,0,0,0,0,0,0,0,0,0,0,0,0,0,0,0,0,0,0,0,0,0,0,0,0,0,0,0,0,0,0,0,
0,0,0,0,0,0,0,0,0,0,0,0,0,0,0,0,0,0,0,0,0,0,0,0,0,0,0,0,0,0,0,0,0,0,0,0,0,0,0,0,0,0,0,0,0,0,0,0,0,0,0,0,0,0,0,0,0,0,0,0,0,0,0,0,0,0,0,0,0,0,0,0,0,0,0,0,0,0,0,0,
0,0,0,0,0,0,0,0,0,0,0,0,0,0,0,0,0,0,0,0,0,0,0,0,0,0,0,0,0,0,0,0,0,0,0,0,0,0,0,0,0,0,0,0,0,0,0,0,0,0,0,0,0,0,0,0,0,0,0,0,0,0,0,0,0,0,0,0,0,0,0,0,0,0,0,0,0,0,0,0,
0,0,0,0,0,0,0,0,0,0,0,0,0,0,0,0,0,0,0,0,0,0,0,0,0,0,0,0,0,0,0,0,0,0,0,0,0,0,0,0,0,0,0,0,0,0,0,0,0,0,0,0,0,0,0,0,0,0,0,0,0,0,0,0,0,0,0,0,0,0,0,0,0,0,0,0,0,0,0,0,
0,0,0,0,0,0,0,0,0,0,0,0,0,0,0,0,0,0,0,0,0,0,0,0,0,0,0,0,0,0,0,0,0,0,0,0,0,0,0,0,0,0,0,0,0,0,0,0,0,0,0,0,0,0,0,0,0,0,0,0,0,0,0,0,0,0,0,0,0,0,0,0,0,0,0,0,0,0,0,0,
0,0,0,0,0,0,0,0,0,0,0,0,0,0,0,0,0,0,0,0,0,0,0,0,0,0,0,0,0,0,0,0,0,0,0,0,0,0,0,0,0,0,0,0,0,0,0,0,0,0,0,0,0,0,0,0,0,0,0,0,0,0,0,0,0,0,0,0,0,0,0,0,0,0,0,0,0,0,0,0,
0,0,0,0,0,0,0,0,0,0,0,0,0,0,0,0,0,0,0,0,0,0,0,0,0,0,0,0,0,0,0,0,0,0,0,0,0,0,0,0,0,0,0,0,0,0,0,0,0,0,0,0,0,0,0,0,0,0,0,0,0,0,0,0,0,0,0,0,0,0,0,0,0,0,0,0,0,0,0,0,
0,0,0,0,0,0,0,0,0,0,0,0,0,0,0,0,0,0,0,0,0,0,0,0,0,0,0,0,0,0,0,0,0,0,0,0,0,0,0,0,0,0,0,0,0,0,0,0,0,0,0,0,0,0,0,0,0,0,0,0,0,0,0,0,0,0,0,0,0,0,0,0,0,0,0,0,0,0,0,0,
0,0,0,0,0,0,0,0,0,0,0,0,0,0,0,0,0,0,0,0,0,0,0,0,0,0,0,0,0,0,0,0,0,0,0,0,0,0,0,0,0,0,0,0,0,0,0,0,0,0,0,0,0,0,0,0,0,0,0,0,0,0,0,0,0,0,0,0,0,0,0,0,0,0,0,0,0,0,0,0,
0,0,0,0,0,0,0,0,0,0,0,0,0,0,0,0,0,0,0,0,0,0,0,0,0,0,0,0,0,0,0,0,0,0,0,0,0,0,0,0,0,0,0,0,0,0,0,0,0,0,0,0,0,0,0,0,0,0,0,0,0,0,0,0,0,0,0,0,0,0,0,0,0,0,0,0,0,0,0,0,
0,0,0,0,0,0,0,0,0,0,0,0,0,0,0,0,0,0,0,0,0,0,0,0,0,0,0,0,0,0,0,0,0,0,0,0,0,0,0,0,0,0,0,0,0,0,0,0,0,0,0,0,0,0,0,0,0,0,0,0,0,0,0,0,0,0,0,0,0,0,0,0,0,0,0,0,0,0,0,0,
0,0,0,0,0,0,0,0,0,0,0,0,0,0,0,0,0,0,0,0,0,0,0,0,0,0,0,0,0,0,0,0,0,0,0,0,0,0,0,0,0,0,0,0,0,0,0,0,0,0,0,0,0,0,0,0,0,0,0,0,0,0,0,0,0,0,0,0,0,0,0,0,0,0,0,0,0,0,0,0,
0,0,0,0,0,0,0,0,0,0,0,0,0,0,0,0,0,0,0,0,0,0,0,0,0,0,0,0,0,0,0,0,0,0,0,0,0,0,0,0,0,0,0,0,0,0,0,0,0,0,0,0,0,0,0,0,0,0,0,0,0,0,0,0,0,0,0,0,0,0,0,0,0,0,0,0,0,0,0,0,
0,0,0,0,0,0,0,0,0,0,0,0,0,0,0,0,0,0,0,0,0,0,0,0,0,0,0,0,0,0,0,0,0,0,0,0,0,0,0,0,0,0,0,0,0,0,0,0,0,0,0,0,0,0,0,0,0,0,0,0,0,0,0,0,0,0,0,0,0,0,0,0,0,0,0,0,0,0,0,0,
0,0,0,0,0,0,0,0,0,0,0,0,0,0,0,0,0,0,0,0,0,0,0,0,0,0,0,0,0,0,0,0,0,0,0,0,0,0,0,0,0,0,0,0,0,0,0,0,0,0,0,0,0,0,0,0,0,0,0,0,0,0,0,0,0,0,0,0,0,0,0,0,0,0,0,0,0,0,0,0,
0,0,0,0,0,0,0,0,0,0,0,0,0,0,0,0,0,0,0,0,0,0,0,0,0,0,0,0,0,0,0,0,0,0,0,0,0,0,0,0,0,0,0,0,0,0,0,0,0,0,0,0,0,0,0,0,0,0,0,0,0,0,0,0,0,0,0,0,0,0,0,0,0,0,0,0,0,0,0,0,
0,0,0,0,0,0,0,0,0,0,0,0,0,0,0,0,0,0,0,0,0,0,0,0,0,0,0,0,0,0,0,0,0,0,0,0,0,0,0,0,0,0,0,0,0,0,0,0,0,0,0,0,0,0,0,0,0,0,0,0,0,0,0,0,0,0,0,0,0,0,0,0,0,0,0,0,0,0,0,0,
0,0,0,0,0,0,0,0,0,0,0,0,0,0,0,0,0,0,0,0,0,0,0,0,0,0,0,0,0,0,0,0,0,0,0,0,0,0,0,0,0,0,0,0,0,0,0,0,0,0,0,0,0,0,0,0,0,0,0,0,0,0,0,0,0,0,0,0,0,0,0,0,0,0,0,0,0,0,0,0,
0,0,0,0,0,0,0,0,0,0,0,0,0,0,0,0,0,0,0,0,0,0,0,0,0,0,0,0,0,0,0,0,0,0,0,0,0,0,0,0,0,0,0,0,0,0,0,0,0,0,0,0,0,0,0,0,0,0,0,0,0,0,0,0,0,0,0,0,0,0,0,0,0,0,0,0,0,0,0,0,
0,0,0,0,0,0,0,0,0,0,0,0,0,0,0,0,0,0,0,0,0,0,0,0,0,0,0,0,0,0,0,0,0,0,0,0,0,0,0,0,0,0,0,0,0,0,0,0,0,0,0,0,0,0,0,0,0,0,0,0,0,0,0,0,0,0,0,0,0,0,0,0,0,0,0,0,0,0,0,0,
0,0,0,0,0,0,0,0,0,0,0,0,0,0,0,0,0,0,0,0,0,0,0,0,0,0,0,0,0,0,0,0,0,0,0,0,0,0,0,0,0,0,0,0,0,0,0,0,0,0,0,0,0,0,0,0,0,0,0,0,0,0,0,0,0,0,0,0,0,0,0,0,0,0,0,0,0,0,0,0,
0,0,0,0,0,0,0,0,0,0,0,0,0,0,0,0,0,0,0,0,0,0,0,0,0,0,0,0,0,0,0,0,0,0,0,0,0,0,0,0,0,0,0,0,0,0,0,0,0,0,0,0,0,0,0,0,0,0,0,0,0,0,0,0,0,0,0,0,0,0,0,0,0,0,0,0,0,0,0,0,
0,0,0,0,0,0,0,0,0,0,0,0,0,0,0,0,0,0,0,0,0,0,0,0,0,0,0,0,0,0,0,0,0,0,0,0,0,0,0,0,0,0,0,0,0,0,0,0,0,0,0,0,0,0,0,0,0,0,0,0,0,0,0,0,0,0,0,0,0,0,0,0,0,0,0,0,0,0,0,0,
0,0,0,0,0,0,0,0,0,0,0,0,0,0,0,0,0,0,0,0,0,0,0,0,0,0,0,0,0,0,0,0,0,0,0,0,0,0,0,0,0,0,0,0,0,0,0,0,0,0,0,0,0,0,0,0,0,0,0,0,0,0,0,0,0,0,0,0,0,0,0,0,0,0,0,0,0,0,0,0,
0,0,0,0,0,0,0,0,0,0,0,0,0,0,0,0,0,0,0,0,0,0,0,0,0,0,0,0,0,0,0,0,0,0,0,0,0,0,0,0,0,0,0,0,0,0,0,0,0,0,0,0,0,0,0,0,0,0,0,0,0,0,0,0,0,0,0,0,0,0,0,0,0,0,0,0,0,0,0,0,
0,0,0,0,0,0,0,0,0,0,0,0,0,0,0,0,0,0,0,0,0,0,0,0,0,0,0,0,0,0,0,0,0,0,0,0,0,0,0,0,0,0,0,0,0,0,0,0,0,0,0,0,0,0,0,0,0,0,0,0,0,0,0,0,0,0,0,0,0,0,0,0,0,0,0,0,0,0,0,0,
0,0,0,0,0,0,0,0,0,0,0,0,0,0,0,0,0,0,0,0,0,0,0,0,0,0,0,0,0,0,0,0,0,0,0,0,0,0,0,0,0,0,0,0,0,0,0,0,0,0,0,0,0,0,0,0,0,0,0,0,0,0,0,0,0,0,0,0,0,0,0,0,0,0,0,0,0,0,0,0,
0,0,0,0,0,0,0,0,0,0,0,0,0,0,0,0,0,0,0,0,0,0,0,0,0,0,0,0,0,0,0,0,0,0,0,0,0,0,0,0,0,0,0,0,0,0,0,0,0,0,0,0,0,0,0,0,0,0,0,0,0,0,0,0,0,0,0,0,0,0,0,0,0,0,0,0,0,0,0,0,
0,0,0,0,0,0,0,0,0,0,0,0,0,0,0,0,0,0,0,0,0,0,0,0,0,0,0,0,0,0,0,0,0,0,0,0,0,0,0,0,0,0,0,0,0,0,0,0,0,0,0,0,0,0,0,0,0,0,0,0,0,0,0,0,0,0,0,0,0,0,0,0,0,0,0,0,0,0,0,0,
0,0,0,0,0,0,0,0,0,0,0,0,0,0,0,0,0,0,0,0,0,0,0,0,0,0,0,0,0,0,0,0,0,0,0,0,0,0,0,0,0,0,0,0,0,0,0,0,0,0,0,0,0,0,0,0,0,0,0,0,0,0,0,0,0,0,0,0,0,0,0,0,0,0,0,0,0,0,0,0,
0,0,0,0,0,0,0,0,0,0,0,0,0,0,0,0,0,0,0,0,0,0,0,0,0,0,0,0,0,0,0,0,0,0,0,0,0,0,0,0,0,0,0,0,0,0,0,0,0,0,0,0,0,0,0,0,0,0,0,0,0,0,0,0,0,0,0,0,0,0,0,0,0,0,0,0,0,0,0,0,
0,0,0,0,0,0,0,0,0,0,0,0,0,0,0,0,0,0,0,0,0,0,0,0,0,0,0,0,0,0,0,0,0,0,0,0,0,0,0,0,0,0,0,0,0,0,0,0,0,0,0,0,0,0,0,0,0,0,0,0,0,0,0,0,0,0,0,0,0,0,0,0,0,0,0,0,0,0,0,0,
0,0,0,0,0,0,0,0,0,0,0,0,0,0,0,0,0,0,0,0,0,0,0,0,0,0,0,0,0,0,0,0,0,0,0,0,0,0,0,0,0,0,0,0,0,0,0,0,0,0,0,0,0,0,0,0,0,0,0,0,0,0,0,0,0,0,0,0,0,0,0,0,0,0,0,0,0,0,0,0,
0,0,0,0,0,0,0,0,0,0,0,0,0,0,0,0,0,0,0,0,0,0,0,0,0,0,0,0,0,0,0,0,0,0,0,0,0,0,0,0,0,0,0,0,0,0,0,0,0,0,0,0,0,0,0,0,0,0,0,0,0,0,0,0,0,0,0,0,0,0,0,0,0,0,0,0,0,0,0,0,
0,0,0,0,0,0,0,0,0,0,0,0,0,0,0,0,0,0,0,0,0,0,0,0,0,0,0,0,0,0,0,0,0,0,0,0,0,0,0,0,0,0,0,0,0,0,0,0,0,0,0,0,0,0,0,0,0,0,0,0,0,0,0,0,0,0,0,0,0,0,0,0,0,0,0,0,0,0,0,0,
0,0,0,0,0,0,0,0,0,0,0,0,0,0,0,0,0,0,0,0,0,0,0,0,0,0,0,0,0,0,0,0,0,0,0,0,0,0,0,0,0,0,0,0,0,0,0,0,0,0,0,0,0,0,0,0,0,0,0,0,0,0,0,0,0,0,0,0,0,0,0,0,0,0,0,0,0,0,0,0,
0,0,0,0,0,0,0,0,0,0,0,0,0,0,0,0,0,0,0,0,0,0,0,0,0,0,0,0,0,0,0,0,0,0,0,0,0,0,0,0,0,0,0,0,0,0,0,0,0,0,0,0,0,0,0,0,0,0,0,0,0,0,0,0,0,0,0,0,0,0,0,0,0,0,0,0,0,0,0,0,
0,0,0,0,0,0,0,0,0,0,0,0,0,0,0,0,0,0,0,0,0,0,0,0,0,0,0,0,0,0,0,0,0,0,0,0,0,0,0,0,0,0,0,0,0,0,0,0,0,0,0,0,0,0,0,0,0,0,0,0,0,0,0,0,0,0,0,0,0,0,0,0,0,0,0,0,0,0,0,0,
0,0,0,0,0,0,0,0,0,0,0,0,0,0,0,0,0,0,0,0,0,0,0,0,0,0,0,0,0,0,0,0,0,0,0,0,0,0,0,0,0,0,0,0,0,0,0,0,0,0,0,0,0,0,0,0,0,0,0,0,0,0,0,0,0,0,0,0,0,0,0,0,0,0,0,0,0,0,0,0,
0,0,0,0,0,0,0,0,0,0,0,0,0,0,0,0,0,0,0,0,0,0,0,0,0,0,0,0,0,0,0,0,0,0,0,0,0,0,0,0,0,0,0,0,0,0,0,0,0,0,0,0,0,0,0,0,0,0,0,0,0,0,0,0,0,0,0,0,0,0,0,0,0,0,0,0,0,0,0,0
</data>
 </layer>
 <layer id="11" name="Objects2" width="80" height="52">
  <data encoding="csv">
0,0,0,0,0,0,0,0,0,0,0,0,0,0,0,0,0,0,0,0,0,0,0,0,0,0,0,0,0,0,0,0,0,0,0,0,0,0,0,0,0,0,0,0,0,0,0,0,0,0,0,0,0,0,0,0,0,0,0,0,0,0,0,0,0,0,0,0,0,0,0,0,0,0,0,0,0,0,0,0,
0,0,0,0,0,0,0,0,0,0,0,0,0,0,0,0,0,0,0,0,0,0,0,0,0,0,0,0,0,0,0,0,0,0,0,0,0,0,0,0,0,0,0,0,0,0,0,0,0,0,0,0,0,0,0,0,0,0,0,0,0,0,0,0,0,0,0,0,0,0,0,0,0,0,0,0,0,0,0,0,
0,0,0,0,0,0,0,0,0,0,0,0,0,0,0,0,0,0,0,0,0,0,0,0,0,0,0,0,0,0,0,0,0,0,0,0,0,0,0,0,0,0,0,0,0,0,0,0,0,0,0,0,0,0,0,0,0,0,0,0,0,0,0,0,0,0,0,0,0,0,0,0,0,0,0,0,0,0,0,0,
0,0,0,0,0,0,0,0,0,0,0,0,0,0,0,0,0,0,0,0,0,0,0,0,0,0,0,0,0,0,0,0,0,0,0,0,0,0,0,0,0,0,0,0,0,0,0,0,0,0,0,0,0,0,0,0,0,0,0,0,0,0,0,0,0,0,0,0,0,0,0,0,0,0,0,0,0,0,0,0,
0,0,0,0,0,0,0,0,0,0,0,0,0,0,0,0,0,0,0,0,0,0,0,0,0,0,0,0,0,0,0,0,0,0,0,0,0,0,0,0,0,0,0,0,0,0,0,0,0,0,0,0,0,0,0,0,0,0,0,0,0,0,0,0,0,0,0,0,0,0,0,0,0,0,0,0,0,0,0,0,
0,0,0,0,0,0,0,0,0,0,0,0,0,0,0,0,0,0,0,0,0,0,0,0,0,0,0,0,0,0,0,0,0,0,0,0,0,0,0,0,0,0,0,0,0,0,0,0,0,0,0,0,0,0,0,0,0,0,0,0,0,0,0,0,0,0,0,0,0,0,0,0,0,0,0,0,0,0,0,0,
0,0,0,0,0,0,0,0,0,0,0,0,0,0,0,0,0,0,0,0,0,0,0,0,0,0,0,0,0,0,0,0,0,0,0,0,0,0,0,0,0,0,0,0,0,0,0,0,0,0,0,0,0,0,0,0,0,0,0,0,0,0,0,0,0,0,0,0,0,0,0,0,0,0,0,0,0,0,0,0,
0,0,0,0,0,0,0,0,0,0,0,0,0,0,0,0,0,0,0,0,0,0,0,0,0,0,0,0,0,0,0,0,0,0,0,0,0,0,0,0,0,0,0,0,0,0,0,0,0,0,0,0,0,0,0,0,0,0,0,0,0,0,0,0,0,0,0,0,0,0,0,0,0,0,0,0,0,0,0,0,
0,0,0,0,0,0,0,0,0,0,0,0,0,0,0,0,0,0,0,0,0,0,0,0,0,0,0,0,0,0,0,0,0,0,0,0,0,0,0,0,0,0,0,0,0,0,0,0,0,0,0,0,0,0,0,0,0,0,0,0,0,0,0,0,0,0,0,0,0,0,0,0,0,0,0,0,0,0,0,0,
0,0,0,0,0,0,0,0,0,0,0,0,0,0,0,0,0,0,0,0,0,0,0,0,0,0,0,0,0,0,0,0,0,0,0,0,0,0,0,0,0,0,0,0,0,0,0,0,0,0,0,0,0,0,0,0,0,0,0,0,0,0,0,0,0,0,0,0,0,0,0,0,0,0,0,0,0,0,0,0,
0,0,0,0,0,0,0,0,0,0,0,0,0,0,0,0,0,0,0,0,0,0,0,0,0,0,0,0,0,0,0,0,0,0,0,0,0,0,0,0,0,0,0,0,0,0,0,0,0,0,0,0,0,0,0,0,0,0,0,0,0,0,0,0,0,0,0,0,0,0,0,0,0,0,0,0,0,0,0,0,
0,0,0,0,0,0,0,0,0,0,0,0,0,0,0,0,0,0,0,0,0,0,0,0,0,0,0,0,0,0,0,0,0,0,0,0,0,0,0,0,0,0,0,0,0,0,0,0,0,0,0,0,0,0,0,0,0,0,0,0,0,0,0,0,0,0,0,0,0,0,0,0,0,0,0,0,0,0,0,0,
0,0,0,0,0,0,0,0,0,0,0,0,0,0,0,0,0,0,0,0,0,0,0,0,0,0,0,0,0,0,0,0,0,0,0,0,0,0,0,0,0,0,0,0,0,0,0,0,0,0,0,0,0,0,0,0,0,0,0,0,0,0,0,0,0,0,0,0,0,0,0,0,0,0,0,0,0,0,0,0,
0,0,0,0,0,0,0,0,0,0,0,0,0,0,0,0,0,0,0,0,0,0,0,0,0,0,0,0,0,0,0,0,0,0,0,0,0,0,0,0,0,0,0,0,0,0,0,0,0,0,0,0,0,0,0,0,0,0,0,0,0,0,0,0,0,0,0,0,0,0,0,0,0,0,0,0,0,0,0,0,
0,0,0,0,0,0,0,0,0,0,0,0,0,0,0,0,0,0,0,0,0,0,0,0,0,0,0,0,0,0,0,0,0,0,0,0,0,0,0,0,0,0,0,0,0,0,0,0,0,0,0,0,0,0,0,0,0,0,0,0,0,0,0,0,0,0,0,0,0,0,0,0,0,0,0,0,0,0,0,0,
0,0,0,0,0,0,0,0,0,0,0,0,0,0,0,0,0,0,0,0,0,0,0,0,0,0,0,0,0,0,0,0,0,0,0,0,0,0,0,0,0,0,0,0,0,0,0,0,0,0,0,0,0,0,0,0,0,0,0,0,0,0,0,0,0,0,0,0,0,0,0,0,0,0,0,0,0,0,0,0,
0,0,0,0,0,0,0,0,0,0,0,0,0,0,0,0,0,0,0,0,0,0,0,0,0,0,0,0,0,0,0,0,0,0,0,0,0,0,0,0,0,0,0,0,0,0,0,0,0,0,0,0,0,0,0,0,0,0,0,0,0,0,0,0,0,0,0,0,0,0,0,0,0,0,0,0,0,0,0,0,
0,0,0,0,0,0,0,0,0,0,0,0,0,0,0,0,0,0,0,0,0,0,0,0,0,0,0,0,0,0,0,0,0,0,0,0,0,0,0,0,0,0,0,0,0,0,0,0,0,0,0,0,0,0,0,0,0,0,0,0,0,0,0,0,0,0,0,0,0,0,0,0,0,0,0,0,0,0,0,0,
0,0,0,0,0,0,0,0,0,0,0,0,0,0,0,0,0,0,0,0,0,0,0,0,0,0,0,0,0,0,0,0,0,0,0,0,0,0,0,0,0,0,0,0,0,0,0,0,0,0,0,0,0,0,0,0,0,0,0,0,0,0,0,0,0,0,0,0,0,0,0,0,0,0,0,0,0,0,0,0,
0,0,0,0,0,0,0,0,0,0,0,0,0,0,0,0,0,0,0,0,0,0,0,0,0,0,0,0,0,0,0,0,0,0,0,0,0,0,0,0,0,0,0,0,0,0,0,0,0,0,0,0,0,0,0,0,0,0,0,0,0,0,0,0,0,0,0,0,0,0,0,0,0,0,0,0,0,0,0,0,
0,0,0,0,0,0,0,0,0,0,0,0,0,0,0,0,0,0,0,0,0,0,0,0,0,0,0,0,0,0,0,0,0,0,0,0,0,0,0,0,0,0,0,0,0,0,0,0,0,0,0,0,0,0,0,0,0,0,0,0,0,0,0,0,0,0,0,0,0,0,0,0,0,0,0,0,0,0,0,0,
0,0,0,0,0,0,0,0,0,0,0,0,0,0,0,0,0,0,0,0,0,0,0,0,0,0,0,0,0,0,0,0,0,0,0,0,0,0,0,0,0,0,0,0,0,0,0,0,0,0,0,0,0,0,0,0,0,0,0,0,0,0,0,0,0,0,0,0,0,0,0,0,0,0,0,0,0,0,0,0,
0,0,0,0,0,0,0,0,0,0,0,0,0,0,0,0,0,0,0,0,0,0,0,0,0,0,0,0,0,0,0,0,0,0,0,0,0,0,0,0,0,0,0,0,0,0,0,0,0,0,0,0,0,0,0,0,0,0,0,0,0,0,0,0,0,0,0,0,0,0,0,0,0,0,0,0,0,0,0,0,
0,0,0,0,0,0,0,0,0,0,0,0,0,0,0,0,0,0,0,0,0,0,0,0,0,0,0,0,0,0,0,0,0,0,0,0,0,0,0,0,0,0,0,0,0,0,0,0,0,0,0,0,0,0,0,0,0,0,0,0,0,0,0,0,0,0,0,0,0,0,0,0,0,0,0,0,0,0,0,0,
0,0,0,0,0,0,0,0,0,0,0,0,0,0,0,0,0,0,0,0,0,0,0,0,0,0,0,0,0,0,0,0,0,0,0,0,0,0,0,0,0,0,0,0,0,0,0,0,0,0,0,0,0,0,0,0,0,0,0,0,0,0,0,0,0,0,0,0,0,0,0,0,0,0,0,0,0,0,0,0,
0,0,0,0,0,0,0,0,0,0,0,0,0,0,0,0,0,0,0,0,0,0,0,0,0,0,0,0,0,0,0,0,0,0,0,0,0,0,0,0,0,0,0,0,0,0,0,0,0,0,0,0,0,0,0,0,0,0,0,0,0,0,0,0,0,0,0,0,0,0,0,0,0,0,0,0,0,0,0,0,
0,0,0,0,0,0,0,0,0,0,0,0,0,0,0,0,0,0,0,0,0,0,0,0,0,0,0,0,0,0,0,0,0,0,0,0,0,0,0,0,0,0,0,0,0,0,0,0,0,0,0,0,0,0,0,0,0,0,0,0,0,0,0,0,0,0,0,0,0,0,0,0,0,0,0,0,0,0,0,0,
0,0,0,0,0,0,0,0,0,0,0,0,0,0,0,0,0,0,0,0,0,0,0,0,0,0,0,0,0,0,0,0,0,0,0,0,0,0,0,0,0,0,0,0,0,0,0,0,0,0,0,0,0,0,0,0,0,0,0,0,0,0,0,0,0,0,0,0,0,0,0,0,0,0,0,0,0,0,0,0,
0,0,0,0,0,0,0,0,0,0,0,0,0,0,0,0,0,0,0,0,0,0,0,0,0,0,0,0,0,0,0,0,0,0,0,0,0,0,0,0,0,0,0,0,0,0,0,0,0,0,0,0,0,0,0,0,0,0,0,0,0,0,0,0,0,0,0,0,0,0,0,0,0,0,0,0,0,0,0,0,
0,0,0,0,0,0,0,0,0,0,0,0,0,0,0,0,0,0,0,0,0,0,0,0,0,0,0,0,0,0,0,0,0,0,0,0,0,0,0,0,0,0,0,0,0,0,0,0,0,0,0,0,0,0,0,0,0,0,0,0,0,0,0,0,0,0,0,0,0,0,0,0,0,0,0,0,0,0,0,0,
0,0,0,0,0,0,0,0,0,0,0,0,0,0,0,0,0,0,0,0,0,0,0,0,0,0,0,0,0,0,0,0,0,0,0,0,0,0,0,0,0,0,0,0,0,0,0,0,0,0,0,0,0,0,0,0,0,0,0,0,0,0,0,0,0,0,0,0,0,0,0,0,0,0,0,0,0,0,0,0,
0,0,0,0,0,0,0,0,0,0,0,0,0,0,0,0,0,0,0,0,0,0,0,0,0,0,0,0,0,0,0,0,0,0,0,0,0,0,0,0,0,0,0,0,0,0,0,0,0,0,0,0,0,0,0,0,0,0,0,0,0,0,0,0,0,0,0,0,0,0,0,0,0,0,0,0,0,0,0,0,
0,0,0,0,0,0,0,0,0,0,0,0,0,0,0,0,0,0,0,0,0,0,0,0,0,0,0,0,0,0,0,0,0,0,0,0,0,0,0,0,0,0,0,0,0,0,0,0,0,0,0,0,0,0,0,0,0,0,0,0,0,0,0,0,0,0,0,0,0,0,0,0,0,0,0,0,0,0,0,0,
0,0,0,0,0,0,0,0,0,0,0,0,0,0,0,0,0,0,0,0,0,0,0,0,0,0,0,0,0,0,0,0,0,0,0,0,0,0,0,0,0,0,0,0,0,0,0,0,0,0,0,0,0,0,0,0,0,0,0,0,0,0,0,0,0,0,0,0,0,0,0,0,0,0,0,0,0,0,0,0,
0,0,0,0,0,0,0,0,0,0,0,0,0,0,0,0,0,0,0,0,0,0,0,0,0,0,0,0,0,0,0,0,0,0,0,0,0,0,0,0,0,0,0,0,0,0,0,0,0,0,0,0,0,0,0,0,0,0,0,0,0,0,0,0,0,0,0,0,0,0,0,0,0,0,0,0,0,0,0,0,
0,0,0,0,0,0,0,0,0,0,0,0,0,0,0,0,0,0,0,0,0,0,0,0,0,0,0,0,0,0,0,0,0,0,0,0,0,0,0,0,0,0,0,0,0,0,0,0,0,0,0,0,0,0,0,0,0,0,0,0,0,0,0,0,0,0,0,0,0,0,0,0,0,0,0,0,0,0,0,0,
0,0,0,0,0,0,0,0,0,0,0,0,0,0,0,0,0,0,0,0,0,0,0,0,0,0,0,0,0,0,0,0,0,0,0,0,0,0,0,0,0,0,0,0,0,0,0,0,0,0,0,0,0,0,0,0,0,0,0,0,0,0,0,0,0,0,0,0,0,0,0,0,0,0,0,0,0,0,0,0,
0,0,0,0,0,0,0,0,0,0,0,0,0,0,0,0,0,0,0,0,0,0,0,0,0,0,0,0,0,0,0,0,0,0,0,0,0,0,0,0,0,0,0,0,0,0,0,0,0,0,0,0,0,0,0,0,0,0,0,0,0,0,0,0,0,0,0,0,0,0,0,0,0,0,0,0,0,0,0,0,
0,0,0,0,0,0,0,0,0,0,0,0,0,0,0,0,0,0,0,0,0,0,0,0,0,0,0,0,0,0,0,0,0,0,0,0,0,0,0,0,0,0,0,0,0,0,0,0,0,0,0,0,0,0,0,0,0,0,0,0,0,0,0,0,0,0,0,0,0,0,0,0,0,0,0,0,0,0,0,0,
0,0,0,0,0,0,0,0,0,0,0,0,0,0,0,0,0,0,0,0,0,0,0,0,0,0,0,0,0,0,0,0,0,0,0,0,0,0,0,0,0,0,0,0,0,0,0,0,0,0,0,0,0,0,0,0,0,0,0,0,0,0,0,0,0,0,0,0,0,0,0,0,0,0,0,0,0,0,0,0,
0,0,0,0,0,0,0,0,0,0,0,0,0,0,0,0,0,0,0,0,0,0,0,0,0,0,0,0,0,0,0,0,0,0,0,0,0,0,0,0,0,0,0,0,0,0,0,0,0,0,0,0,0,0,0,0,0,0,0,0,0,0,0,0,0,0,0,0,0,0,0,0,0,0,0,0,0,0,0,0,
0,0,0,0,0,0,0,0,0,0,0,0,0,0,0,0,0,0,0,0,0,0,0,0,0,0,0,0,0,0,0,0,0,0,0,0,0,0,0,0,0,0,0,0,0,0,0,0,0,0,0,0,0,0,0,0,0,0,0,0,0,0,0,0,0,0,0,0,0,0,0,0,0,0,0,0,0,0,0,0,
0,0,0,0,0,0,0,0,0,0,0,0,0,0,0,0,0,0,0,0,0,0,0,0,0,0,0,0,0,0,0,0,0,0,0,0,0,0,0,0,0,0,0,0,0,0,0,0,0,0,0,0,0,0,0,0,0,0,0,0,0,0,0,0,0,0,0,0,0,0,0,0,0,0,0,0,0,0,0,0,
0,0,0,0,0,0,0,0,0,0,0,0,0,0,0,0,0,0,0,0,0,0,0,0,0,0,0,0,0,0,0,0,0,0,0,0,0,0,0,0,0,0,0,0,0,0,0,0,0,0,0,0,0,0,0,0,0,0,0,0,0,0,0,0,0,0,0,0,0,0,0,0,0,0,0,0,0,0,0,0,
0,0,0,0,0,0,0,0,0,0,0,0,0,0,0,0,0,0,0,0,0,0,0,0,0,0,0,0,0,0,0,0,0,0,0,0,0,0,0,0,0,0,0,0,0,0,0,0,0,0,0,0,0,0,0,0,0,0,0,0,0,0,0,0,0,0,0,0,0,0,0,0,0,0,0,0,0,0,0,0,
0,0,0,0,0,0,0,0,0,0,0,0,0,0,0,0,0,0,0,0,0,0,0,0,0,0,0,0,0,0,0,0,0,0,0,0,0,0,0,0,0,0,0,0,0,0,0,0,0,0,0,0,0,0,0,0,0,0,0,0,0,0,0,0,0,0,0,0,0,0,0,0,0,0,0,0,0,0,0,0,
0,0,0,0,0,0,0,0,0,0,0,0,0,0,0,0,0,0,0,0,0,0,0,0,0,0,0,0,0,0,0,0,0,0,0,0,0,0,0,0,0,0,0,0,0,0,0,0,0,0,0,0,0,0,0,0,0,0,0,0,0,0,0,0,0,0,0,0,0,0,0,0,0,0,0,0,0,0,0,0,
0,0,0,0,0,0,0,0,0,0,0,0,0,0,0,0,0,0,0,0,0,0,0,0,0,0,0,0,0,0,0,0,0,0,0,0,0,0,0,0,0,0,0,0,0,0,0,0,0,0,0,0,0,0,0,0,0,0,0,0,0,0,0,0,0,0,0,0,0,0,0,0,0,0,0,0,0,0,0,0,
0,0,0,0,0,0,0,0,0,0,0,0,0,0,0,0,0,0,0,0,0,0,0,0,0,0,0,0,0,0,0,0,0,0,0,0,0,0,0,0,0,0,0,0,0,0,0,0,0,0,0,0,0,0,0,0,0,0,0,0,0,0,0,0,0,0,0,0,0,0,0,0,0,0,0,0,0,0,0,0,
0,0,0,0,0,0,0,0,0,0,0,0,0,0,0,0,0,0,0,0,0,0,0,0,0,0,0,0,0,0,0,0,0,0,0,0,0,0,0,0,0,0,0,0,0,0,0,0,0,0,0,0,0,0,0,0,0,0,0,0,0,0,0,0,0,0,0,0,0,0,0,0,0,0,0,0,0,0,0,0,
0,0,0,0,0,0,0,0,0,0,0,0,0,0,0,0,0,0,0,0,0,0,0,0,0,0,0,0,0,0,0,0,0,0,0,0,0,0,0,0,0,0,0,0,0,0,0,0,0,0,0,0,0,0,0,0,0,0,0,0,0,0,0,0,0,0,0,0,0,0,0,0,0,0,0,0,0,0,0,0,
0,0,0,0,0,0,0,0,0,0,0,0,0,0,0,0,0,0,0,0,0,0,0,0,0,0,0,0,0,0,0,0,0,0,0,0,0,0,0,0,0,0,0,0,0,0,0,0,0,0,0,0,0,0,0,0,0,0,0,0,0,0,0,0,0,0,0,0,0,0,0,0,0,0,0,0,0,0,0,0
</data>
 </layer>
 <layer id="4" name="Test" width="80" height="52">
  <data encoding="csv">
0,0,0,0,0,0,0,0,0,0,0,0,0,0,0,0,0,0,0,0,0,0,0,0,0,0,0,0,0,0,0,0,0,0,0,0,0,0,0,0,0,0,0,0,0,0,0,0,0,0,0,0,0,0,0,0,0,0,0,0,0,0,0,0,0,0,0,0,0,0,0,0,0,0,0,0,0,0,0,0,
0,0,0,0,0,0,0,0,0,0,0,0,0,0,0,0,0,0,0,0,0,0,0,0,0,0,0,0,0,0,0,0,0,0,0,0,0,0,0,0,0,0,0,0,0,0,0,0,0,0,0,0,0,0,0,0,0,0,0,0,0,0,0,0,0,0,0,0,0,0,0,0,0,0,0,0,0,0,0,0,
0,0,0,0,0,0,0,0,0,0,0,0,0,0,0,0,0,0,0,0,0,0,0,0,0,0,0,0,0,0,0,0,0,0,0,0,0,0,0,0,0,0,0,0,0,0,0,0,0,0,0,0,0,0,0,0,0,0,0,0,0,0,0,0,0,0,0,0,0,0,0,0,0,0,0,0,0,0,0,0,
0,0,0,0,0,0,0,0,0,0,0,0,0,0,0,0,0,0,0,0,0,0,0,0,0,0,0,0,0,0,0,0,0,0,0,0,0,0,0,0,0,0,0,0,0,0,0,0,0,0,0,0,0,0,0,0,0,0,0,0,0,0,0,0,0,0,0,0,0,0,0,0,0,0,0,0,0,0,0,0,
0,0,0,0,0,0,0,0,0,0,0,0,0,0,0,0,0,0,0,0,0,0,0,0,0,0,0,0,0,0,0,0,0,0,0,0,0,0,0,0,0,0,0,0,0,0,0,0,0,0,0,0,0,0,0,0,0,0,0,0,0,0,0,0,0,0,0,0,0,0,0,0,0,0,0,0,0,0,0,0,
0,0,0,0,0,0,0,0,0,0,0,0,0,0,0,0,0,0,0,0,0,0,0,0,0,0,0,0,0,0,0,0,0,0,0,0,0,0,0,0,0,0,0,0,0,0,0,0,0,0,0,0,0,0,0,0,0,0,0,0,0,0,0,0,0,0,0,0,0,0,0,0,0,0,0,0,0,0,0,0,
0,0,0,0,0,0,0,0,0,0,0,0,0,0,0,0,0,0,0,0,0,0,0,0,0,0,0,0,0,0,0,0,0,0,0,0,0,0,0,0,0,0,0,0,0,0,0,0,0,0,0,0,0,0,0,0,0,0,0,0,0,0,0,0,0,0,0,0,0,0,0,0,0,0,0,0,0,0,0,0,
0,0,0,0,0,0,0,0,0,0,0,0,0,0,0,0,0,0,0,0,0,0,0,0,0,0,0,0,0,0,0,0,0,0,0,0,0,0,0,0,0,0,0,0,0,0,0,0,0,0,0,0,0,0,0,0,0,0,0,0,0,0,0,0,0,0,0,0,0,0,0,0,0,0,0,0,0,0,0,0,
0,0,0,0,0,0,0,0,0,0,0,0,0,0,0,0,0,0,0,0,0,0,0,0,0,0,0,0,0,0,0,0,0,0,0,0,0,0,0,0,0,0,0,0,0,0,0,0,0,0,0,0,0,0,0,0,0,0,0,0,0,0,0,0,0,0,0,0,0,0,0,0,0,0,0,0,0,0,0,0,
0,0,0,0,0,0,0,0,0,0,0,0,0,0,0,0,0,0,0,0,0,0,0,0,0,0,0,0,0,0,0,0,0,0,0,0,0,0,0,0,0,0,0,0,0,0,0,0,0,0,0,0,0,0,0,0,0,0,0,0,0,0,0,0,0,0,0,0,0,0,0,0,0,0,0,0,0,0,0,0,
0,0,0,0,0,0,0,0,0,0,0,0,0,0,0,0,0,0,0,0,0,0,0,0,0,0,0,0,0,0,0,0,0,0,0,0,0,0,0,0,0,0,0,0,0,0,0,0,0,0,0,0,0,0,0,0,0,0,0,0,0,0,0,0,0,0,0,0,0,0,0,0,0,0,0,0,0,0,0,0,
0,0,0,0,0,0,0,0,0,0,0,0,0,0,0,0,0,0,0,0,0,0,0,0,0,0,0,0,0,0,0,0,0,0,0,0,0,0,0,0,0,0,0,0,0,0,0,0,0,0,0,0,0,0,0,0,0,0,0,0,0,0,0,0,0,0,0,0,0,0,0,0,0,0,0,0,0,0,0,0,
0,0,0,0,0,0,0,0,0,0,0,0,0,0,0,0,0,0,0,0,0,0,0,0,0,0,0,0,0,0,0,0,0,0,0,0,0,0,0,0,0,0,0,0,0,0,0,0,0,0,0,0,0,0,0,0,0,0,0,0,0,0,0,0,0,0,0,0,0,0,0,0,0,0,0,0,0,0,0,0,
0,0,0,0,0,0,0,0,0,0,0,0,0,0,0,0,0,0,0,0,0,0,0,0,0,0,0,0,0,0,0,0,0,0,0,0,0,0,0,0,0,0,0,0,0,0,0,0,0,0,0,0,0,0,0,0,0,0,0,0,0,0,0,0,0,0,0,0,0,0,0,0,0,0,0,0,0,0,0,0,
0,0,0,0,0,0,0,0,0,0,0,0,0,0,0,0,0,0,0,0,0,0,0,0,0,0,0,0,0,0,0,0,0,0,0,0,0,0,0,0,0,0,0,0,0,0,0,0,0,0,0,0,0,0,0,0,0,0,0,0,0,0,0,0,0,0,0,0,0,0,0,0,0,0,0,0,0,0,0,0,
0,0,0,0,0,0,0,0,0,0,0,0,0,0,0,0,0,0,0,0,0,0,0,0,0,0,0,0,0,0,0,0,0,0,0,0,0,0,0,0,0,0,0,0,0,0,0,0,0,0,0,0,0,0,0,0,0,0,0,0,0,0,0,0,0,0,0,0,0,0,0,0,0,0,0,0,0,0,0,0,
0,0,0,0,0,0,0,0,0,0,0,0,0,0,0,0,0,0,0,0,0,0,0,0,0,0,0,0,0,0,0,0,0,0,0,0,0,0,0,0,0,0,0,0,0,0,0,0,0,0,0,0,0,0,0,0,0,0,0,0,0,0,0,0,0,0,0,0,0,0,0,0,0,0,0,0,0,0,0,0,
0,0,0,0,0,0,0,0,0,0,0,0,0,0,0,0,0,0,0,0,0,0,0,0,0,0,0,0,0,0,0,0,0,0,0,0,0,0,0,0,0,0,0,0,0,0,0,0,0,0,0,0,0,0,0,0,0,0,0,0,0,0,0,0,0,0,0,0,0,0,0,0,0,0,0,0,0,0,0,0,
0,0,0,0,0,0,0,0,0,0,0,0,0,0,0,0,0,0,0,0,0,0,0,0,0,0,0,0,0,0,0,0,0,0,0,0,0,0,0,0,0,0,0,0,0,0,0,0,0,0,0,0,0,0,0,0,0,0,0,0,0,0,0,0,0,0,0,0,0,0,0,0,0,0,0,0,0,0,0,0,
0,0,0,0,0,0,0,0,0,0,0,0,0,0,0,0,0,0,0,0,0,0,0,0,0,0,0,0,0,0,0,0,0,0,0,0,0,0,0,0,0,0,0,0,0,0,0,0,0,0,0,0,0,0,0,0,0,0,0,0,0,0,0,0,0,0,0,0,0,0,0,0,0,0,0,0,0,0,0,0,
0,0,0,0,0,0,0,0,0,0,0,0,0,0,0,0,0,0,0,0,0,0,0,0,0,0,0,0,0,0,0,0,0,0,0,0,0,0,0,0,0,0,0,0,0,0,0,0,0,0,0,0,0,0,0,0,0,0,0,0,0,0,0,0,0,0,0,0,0,0,0,0,0,0,0,0,0,0,0,0,
0,0,0,0,0,0,0,0,0,0,0,0,0,0,0,0,0,0,0,0,0,0,0,0,0,0,0,0,0,0,0,0,0,0,0,0,0,0,0,0,0,0,0,0,0,0,0,0,0,0,0,0,0,0,0,0,0,0,0,0,0,0,0,0,0,0,0,0,0,0,0,0,0,0,0,0,0,0,0,0,
0,0,0,0,0,0,0,0,0,0,0,0,0,0,0,0,0,0,0,0,0,0,0,0,0,0,0,0,0,0,0,0,0,0,0,0,0,0,0,0,0,0,0,0,0,0,0,0,0,0,0,0,0,0,0,0,0,0,0,0,0,0,0,0,0,0,0,0,0,0,0,0,0,0,0,0,0,0,0,0,
0,0,0,0,0,0,0,0,0,0,0,0,0,0,0,0,0,0,0,0,0,0,0,0,0,0,0,0,0,0,0,0,0,0,0,0,0,0,0,0,0,0,0,0,0,0,0,0,0,0,0,0,0,0,0,0,0,0,0,0,0,0,0,0,0,0,0,0,0,0,0,0,0,0,0,0,0,0,0,0,
0,0,0,0,0,0,0,0,0,0,0,0,0,0,0,0,0,0,0,0,0,0,0,0,0,0,0,0,0,0,0,0,0,0,0,0,0,0,0,0,0,0,0,0,0,0,0,0,0,0,0,0,0,0,0,0,0,0,0,0,0,0,0,0,0,0,0,0,0,0,0,0,0,0,0,0,0,0,0,0,
0,0,0,0,0,0,0,0,0,0,0,0,0,0,0,0,0,0,0,0,0,0,0,0,0,0,0,0,0,0,0,0,0,0,0,0,0,0,0,0,0,0,0,0,0,0,0,0,0,0,0,0,0,0,0,0,0,0,0,0,0,0,0,0,0,0,0,0,0,0,0,0,0,0,0,0,0,0,0,0,
0,0,0,0,0,0,0,0,0,0,0,0,0,0,0,0,0,0,0,0,0,0,0,0,0,0,0,0,0,0,0,0,0,0,0,0,0,0,0,0,0,0,0,0,0,0,0,0,0,0,0,0,0,0,0,0,0,0,0,0,0,0,0,0,0,0,0,0,0,0,0,0,0,0,0,0,0,0,0,0,
0,0,0,0,0,0,0,0,0,0,0,0,0,0,0,0,0,0,0,0,0,0,0,0,0,0,0,0,0,0,0,0,0,0,0,0,0,0,0,0,0,0,0,0,0,0,0,0,0,0,0,0,0,0,0,0,0,0,0,0,0,0,0,0,0,0,0,0,0,0,0,0,0,0,0,0,0,0,0,0,
0,0,0,0,0,0,0,0,0,0,0,0,0,0,0,0,0,0,0,0,0,0,0,0,0,0,0,0,0,0,0,0,0,0,0,0,0,0,0,0,0,0,0,0,0,0,0,0,0,0,0,0,0,0,0,0,0,0,0,0,0,0,0,0,0,0,0,0,0,0,0,0,0,0,0,0,0,0,0,0,
0,0,0,0,0,0,0,0,0,0,0,0,0,0,0,0,0,0,0,0,0,0,0,0,0,0,0,0,0,0,0,0,0,0,0,0,0,0,0,0,0,0,0,0,0,0,0,0,0,0,0,0,0,0,0,0,0,0,0,0,0,0,0,0,0,0,0,0,0,0,0,0,0,0,0,0,0,0,0,0,
0,0,0,0,0,0,0,0,0,0,0,0,0,0,0,0,0,0,0,0,0,0,0,0,0,0,0,0,0,0,0,0,0,0,0,0,0,0,0,0,0,0,0,0,0,0,0,0,0,0,0,0,0,0,0,0,0,0,0,0,0,0,0,0,0,0,0,0,0,0,0,0,0,0,0,0,0,0,0,0,
0,0,0,0,0,0,0,0,0,0,0,0,0,0,0,0,0,0,0,0,0,0,0,0,0,0,0,0,0,0,0,0,0,0,0,0,0,0,0,0,0,0,0,0,0,0,0,0,0,0,0,0,0,0,0,0,0,0,0,0,0,0,0,0,0,0,0,0,0,0,0,0,0,0,0,0,0,0,0,0,
0,0,0,0,0,0,0,0,0,0,0,0,0,0,0,0,0,0,0,0,0,0,0,0,0,0,0,0,0,0,0,0,0,0,0,0,0,0,0,0,0,0,0,0,0,0,0,0,0,0,0,0,0,0,0,0,0,0,0,0,0,0,0,0,0,0,0,0,0,0,0,0,0,0,0,0,0,0,0,0,
0,0,0,0,0,0,0,0,0,0,0,0,0,0,0,0,0,0,0,0,0,0,0,0,0,0,0,0,0,0,0,0,0,0,0,0,0,0,0,0,0,0,0,0,0,0,0,0,0,0,0,0,0,0,0,0,0,0,0,0,0,0,0,0,0,0,0,0,0,0,0,0,0,0,0,0,0,0,0,0,
0,0,0,0,0,0,0,0,0,0,0,0,0,0,0,0,0,0,0,0,0,0,0,0,0,0,0,0,0,0,0,0,0,0,0,0,0,0,0,0,0,0,0,0,0,0,0,0,0,0,0,0,0,0,0,0,0,0,0,0,0,0,0,0,0,0,0,0,0,0,0,0,0,0,0,0,0,0,0,0,
0,0,0,0,0,0,0,0,0,0,0,0,0,0,0,0,0,0,0,0,0,0,0,0,0,0,0,0,0,0,0,0,0,0,0,0,0,0,0,0,0,0,0,0,0,0,0,0,0,0,0,0,0,0,0,0,0,0,0,0,0,0,0,0,0,0,0,0,0,0,0,0,0,0,0,0,0,0,0,0,
0,0,0,0,0,0,0,0,0,0,0,0,0,0,0,0,0,0,0,0,0,0,0,0,0,0,0,0,0,0,0,0,0,0,0,0,0,0,0,0,0,0,0,0,0,0,0,0,0,0,0,0,0,0,0,0,0,0,0,0,0,0,0,0,0,0,0,0,0,0,0,0,0,0,0,0,0,0,0,0,
0,0,0,0,0,0,0,0,0,0,0,0,0,0,0,0,0,0,0,0,0,0,0,0,0,0,0,0,0,0,0,0,0,0,0,0,0,0,0,0,0,0,0,0,0,0,0,0,0,0,0,0,0,0,0,0,0,0,0,0,0,0,0,0,0,0,0,0,0,0,0,0,0,0,0,0,0,0,0,0,
0,0,0,0,0,0,0,0,0,0,0,0,0,0,0,0,0,0,0,0,0,0,0,0,0,0,0,0,0,0,0,0,0,0,0,0,0,0,0,0,0,0,0,0,0,0,0,0,0,0,0,0,0,0,0,0,0,0,0,0,0,0,0,0,0,0,0,0,0,0,0,0,0,0,0,0,0,0,0,0,
0,0,0,0,0,0,0,0,0,0,0,0,0,0,0,0,0,0,0,0,0,0,0,0,0,0,0,0,0,0,0,0,0,0,0,0,0,0,0,0,0,0,0,0,0,0,0,0,0,0,0,0,0,0,0,0,0,0,0,0,0,0,0,0,0,0,0,0,0,0,0,0,0,0,0,0,0,0,0,0,
0,0,0,0,0,0,0,0,0,0,0,0,0,0,0,0,0,0,0,0,0,0,0,0,0,0,0,0,0,0,0,0,0,0,0,0,0,0,0,0,0,0,0,0,0,0,0,0,0,0,0,0,0,0,0,0,0,0,0,0,0,0,0,0,0,0,0,0,0,0,0,0,0,0,0,0,0,0,0,0,
0,0,0,0,0,0,0,0,0,0,0,0,0,0,0,0,0,0,0,0,0,0,0,0,0,0,0,0,0,0,0,0,0,0,0,0,0,0,0,0,0,0,0,0,0,0,0,0,0,0,0,0,0,0,0,0,0,0,0,0,0,0,0,0,0,0,0,0,0,0,0,0,0,0,0,0,0,0,0,0,
0,0,0,0,0,0,0,0,0,0,0,0,0,0,0,0,0,0,0,0,0,0,0,0,0,0,0,0,0,0,0,0,0,0,0,0,0,0,0,0,0,0,0,0,0,0,0,0,0,0,0,0,0,0,0,0,0,0,0,0,0,0,0,0,0,0,0,0,0,0,0,0,0,0,0,0,0,0,0,0,
0,0,0,0,0,0,0,0,0,0,0,0,0,0,0,0,0,0,0,0,0,0,0,0,0,0,0,0,0,0,0,0,0,0,0,0,0,0,0,0,0,0,0,0,0,0,0,0,0,0,0,0,0,0,0,0,0,0,0,0,0,0,0,0,0,0,0,0,0,0,0,0,0,0,0,0,0,0,0,0,
0,0,0,0,0,0,0,0,0,0,0,0,0,0,0,0,0,0,0,0,0,0,0,0,0,0,0,0,0,0,0,0,0,0,0,0,0,0,0,0,0,0,0,0,0,0,0,0,0,0,0,0,0,0,0,0,0,0,0,0,0,0,0,0,0,0,0,0,0,0,0,0,0,0,0,0,0,0,0,0,
0,0,0,0,0,0,0,0,0,0,0,0,0,0,0,0,0,0,0,0,0,0,0,0,0,0,0,0,0,0,0,0,0,0,0,0,0,0,0,0,0,0,0,0,0,0,0,0,0,0,0,0,0,0,0,0,0,0,0,0,0,0,0,0,0,0,0,0,0,0,0,0,0,0,0,0,0,0,0,0,
0,0,0,0,0,0,0,0,0,0,0,0,0,0,0,0,0,0,0,0,0,0,0,0,0,0,0,0,0,0,0,0,0,0,0,0,0,0,0,0,0,0,0,0,0,0,0,0,0,0,0,0,0,0,0,0,0,0,0,0,0,0,0,0,0,0,0,0,0,0,0,0,0,0,0,0,0,0,0,0,
0,0,0,0,0,0,0,0,0,0,0,0,0,0,0,0,0,0,0,0,0,0,0,0,0,0,0,0,0,0,0,0,0,0,0,0,0,0,0,0,0,0,0,0,0,0,0,0,0,0,0,0,0,0,0,0,0,0,0,0,0,0,0,0,0,0,0,0,0,0,0,0,0,0,0,0,0,0,0,0,
0,0,0,0,0,0,0,0,0,0,0,0,0,0,0,0,0,0,0,0,0,0,0,0,0,0,0,0,0,0,0,0,0,0,0,0,0,0,0,0,0,0,0,0,0,0,0,0,0,0,0,0,0,0,0,0,0,0,0,0,0,0,0,0,0,0,0,0,0,0,0,0,0,0,0,0,0,0,0,0,
0,0,0,0,0,0,0,0,0,0,0,0,0,0,0,0,0,0,0,0,0,0,0,0,0,0,0,0,0,0,0,0,0,0,0,0,0,0,0,0,0,0,0,0,0,0,0,0,0,0,0,0,0,0,0,0,0,0,0,0,0,0,0,0,0,0,0,0,0,0,0,0,0,0,0,0,0,0,0,0,
0,0,0,0,0,0,0,0,0,0,0,0,0,0,0,0,0,0,0,0,0,0,0,0,0,0,0,0,0,0,0,0,0,0,0,0,0,0,0,0,0,0,0,0,0,0,0,0,0,0,0,0,0,0,0,0,0,0,0,0,0,0,0,0,0,0,0,0,0,0,0,0,0,0,0,0,0,0,0,0,
0,0,0,0,0,0,0,0,0,0,0,0,0,0,0,0,0,0,0,0,0,0,0,0,0,0,0,0,0,0,0,0,0,0,0,0,0,0,0,0,0,0,0,0,0,0,0,0,0,0,0,0,0,0,0,0,0,0,0,0,0,0,0,0,0,0,0,0,0,0,0,0,0,0,0,0,0,0,0,0
</data>
 </layer>
 <layer id="23" name="Top" width="80" height="52">
  <data encoding="csv">
0,0,0,0,0,0,0,0,0,0,0,0,0,0,0,0,0,0,0,0,0,0,0,0,0,0,0,0,0,0,0,0,0,0,0,0,0,0,0,0,0,0,0,0,0,0,0,0,0,0,0,0,0,0,0,0,0,0,0,0,0,0,0,0,0,0,0,0,0,0,0,0,0,0,0,0,0,0,0,0,
0,0,0,0,0,0,0,0,0,0,0,0,0,0,0,0,0,0,0,0,0,0,0,0,0,0,0,0,0,0,0,0,0,0,0,0,0,0,0,0,0,0,0,0,0,0,0,0,0,0,0,0,0,0,0,0,0,0,0,0,0,0,0,0,0,0,0,0,0,0,0,0,0,0,0,0,0,0,0,0,
0,0,0,0,0,0,0,0,0,0,0,0,0,0,0,0,0,0,0,0,0,0,0,0,0,0,0,0,0,0,0,0,0,0,0,0,0,0,0,0,0,0,0,0,0,0,0,0,0,0,0,0,0,0,0,0,0,0,0,0,0,0,0,0,0,0,0,0,0,0,0,0,0,0,0,0,0,0,0,0,
0,0,0,0,0,0,0,0,0,0,0,0,0,0,0,0,0,0,0,0,0,0,0,0,0,0,0,0,0,0,0,0,0,0,0,0,0,0,0,0,0,0,0,0,0,0,0,0,0,0,0,0,0,0,0,0,0,0,0,0,0,0,0,0,0,0,0,0,0,0,0,0,0,0,0,0,0,0,0,0,
0,0,0,0,0,0,0,0,0,0,0,0,0,0,0,0,0,0,0,0,0,0,0,0,0,0,0,0,0,0,0,0,0,0,0,0,0,0,0,0,0,0,0,0,0,0,0,0,0,0,0,0,0,0,0,0,0,0,0,0,0,0,0,0,0,0,0,0,0,0,0,0,0,0,0,0,0,0,0,0,
0,0,0,0,0,0,0,0,0,0,0,0,0,0,0,0,0,0,0,0,0,0,0,0,0,0,0,0,0,0,0,0,0,0,0,0,0,0,0,0,0,0,0,0,0,0,0,0,0,0,0,0,0,0,0,0,0,0,0,0,0,0,0,0,0,0,0,0,0,0,0,0,0,0,0,0,0,0,0,0,
0,0,0,0,0,0,0,0,0,0,0,0,0,0,0,0,0,0,0,0,0,0,0,0,0,0,0,0,0,0,0,0,0,0,0,0,0,0,0,0,0,0,0,0,0,0,0,0,0,0,0,0,0,0,0,0,0,0,0,0,0,0,0,0,0,0,0,0,0,0,0,0,0,0,0,0,0,0,0,0,
0,0,0,0,0,0,0,0,0,0,0,0,0,0,0,0,0,0,0,0,0,0,0,0,0,0,0,0,0,0,0,0,0,0,0,0,0,0,0,0,0,0,0,0,0,0,0,0,0,0,0,0,0,0,0,0,0,0,0,0,0,0,0,0,0,0,0,0,0,0,0,0,0,0,0,0,0,0,0,0,
0,0,0,0,0,0,0,0,0,0,0,0,0,0,0,0,0,0,0,0,0,0,0,0,0,0,0,0,0,0,0,0,0,0,0,0,0,0,0,0,0,0,0,0,0,0,0,0,0,0,0,0,0,0,0,0,0,0,0,0,0,0,0,0,0,0,0,0,0,0,0,0,0,0,0,0,0,0,0,0,
0,0,0,0,0,0,0,0,0,0,0,0,0,0,0,0,0,0,0,0,0,0,0,0,0,0,0,0,0,0,0,0,0,0,0,0,0,0,0,0,0,0,0,0,0,0,0,0,0,0,0,0,0,0,0,0,0,0,0,0,0,0,0,0,0,0,0,0,0,0,0,0,0,0,0,0,0,0,0,0,
0,0,0,0,0,0,0,0,0,0,0,0,0,0,0,0,0,0,0,0,0,0,0,0,0,0,0,0,0,0,0,0,0,0,0,0,0,0,0,0,0,0,0,0,0,0,0,0,0,0,0,0,0,0,0,0,0,0,0,0,0,0,0,0,0,0,0,0,0,0,0,0,0,0,0,0,0,0,0,0,
0,0,0,0,0,0,0,0,0,0,0,0,0,0,0,0,0,0,0,0,0,0,0,0,0,0,0,0,0,0,0,0,0,0,0,0,0,0,0,0,0,0,0,0,0,0,0,0,0,0,0,0,0,0,0,0,0,0,0,0,0,0,0,0,0,0,0,0,0,0,0,0,0,0,0,0,0,0,0,0,
0,0,0,0,0,0,0,0,0,0,0,0,0,0,0,0,0,0,0,0,0,0,0,0,0,0,0,0,0,0,0,0,0,0,0,0,0,0,0,0,0,0,0,0,0,0,0,0,0,0,0,0,0,0,0,0,0,0,0,0,0,0,0,0,0,0,0,0,0,0,0,0,0,0,0,0,0,0,0,0,
0,0,0,0,0,0,0,0,0,0,0,0,0,0,0,0,0,0,0,0,0,0,0,0,0,0,0,0,0,0,0,0,0,0,0,0,0,0,0,0,0,0,0,0,0,0,0,0,0,0,0,0,0,0,0,0,0,0,0,0,0,0,0,0,0,0,0,0,0,0,0,0,0,0,0,0,0,0,0,0,
0,0,0,0,0,0,0,0,0,0,0,0,0,0,0,0,0,0,0,0,0,0,0,0,0,0,0,0,0,0,0,0,0,0,0,0,0,0,0,0,0,0,0,0,0,0,0,0,0,0,0,0,0,0,0,0,0,0,0,0,0,0,0,0,0,0,0,0,0,0,0,0,0,0,0,0,0,0,0,0,
0,0,0,0,0,0,0,0,0,0,0,0,0,0,0,0,0,0,0,0,0,0,0,0,0,0,0,0,0,0,0,0,0,0,0,0,0,0,0,0,0,0,0,0,0,0,0,0,0,0,0,0,0,0,0,0,0,0,0,0,0,0,0,0,0,0,0,0,0,0,0,0,0,0,0,0,0,0,0,0,
0,0,0,0,0,0,0,0,0,0,0,0,0,0,0,0,0,0,0,0,0,0,0,0,0,0,0,0,0,0,0,0,0,0,0,0,0,0,0,0,0,0,0,0,0,0,0,0,0,0,0,0,0,0,0,0,0,0,0,0,0,0,0,0,0,0,0,0,0,0,0,0,0,0,0,0,0,0,0,0,
0,0,0,0,0,0,0,0,0,0,0,0,0,0,0,0,0,0,0,0,0,0,0,0,0,0,0,0,0,0,0,0,0,0,0,0,0,0,0,0,0,0,0,0,0,0,0,0,0,0,0,0,0,0,0,0,0,0,0,0,0,0,0,0,0,0,0,0,0,0,0,0,0,0,0,0,0,0,0,0,
0,0,0,0,0,0,0,0,0,0,0,0,0,0,0,0,0,0,0,0,0,0,0,0,0,0,0,0,0,0,0,0,0,0,0,0,0,0,0,0,0,0,0,0,0,0,0,0,0,0,0,0,0,0,0,0,0,0,0,0,0,0,0,0,0,0,0,0,0,0,0,0,0,0,0,0,0,0,0,0,
0,0,0,0,0,0,0,0,0,0,0,0,0,0,0,0,0,0,0,0,0,0,0,0,0,0,0,0,0,0,0,0,0,0,0,0,0,0,0,0,0,0,0,0,0,0,0,0,0,0,0,0,0,0,0,0,0,0,0,0,0,0,0,0,0,0,0,0,0,0,0,0,0,0,0,0,0,0,0,0,
0,0,0,0,0,0,0,0,0,0,0,0,0,0,0,0,0,0,0,0,0,0,0,0,0,0,0,0,0,0,0,0,0,0,0,0,0,0,0,0,0,0,0,0,0,0,0,0,0,0,0,0,0,0,0,0,0,0,0,0,0,0,0,0,0,0,0,0,0,0,0,0,0,0,0,0,0,0,0,0,
0,0,0,0,0,0,0,0,0,0,0,0,0,0,0,0,0,0,0,0,0,0,0,0,0,0,0,0,0,0,0,0,0,0,0,0,0,0,0,0,0,0,0,0,0,0,0,0,0,0,0,0,0,0,0,0,0,0,0,0,0,0,0,0,0,0,0,0,0,0,0,0,0,0,0,0,0,0,0,0,
0,0,0,0,0,0,0,0,0,0,0,0,0,0,0,0,0,0,0,0,0,0,0,0,0,0,0,0,0,0,0,0,0,0,0,0,0,0,0,0,0,0,0,0,0,0,0,0,0,0,0,0,0,0,0,0,0,0,0,0,0,0,0,0,0,0,0,0,0,0,0,0,0,0,0,0,0,0,0,0,
0,0,0,0,0,0,0,0,0,0,0,0,0,0,0,0,0,0,0,0,0,0,0,0,0,0,0,0,0,0,0,0,0,0,0,0,0,0,0,0,0,0,0,0,0,0,0,0,0,0,0,0,0,0,0,0,0,0,0,0,0,0,0,0,0,0,0,0,0,0,0,0,0,0,0,0,0,0,0,0,
0,0,0,0,0,0,0,0,0,0,0,0,0,0,0,0,0,0,0,0,0,0,0,0,0,0,0,0,0,0,0,0,0,0,0,0,0,0,0,0,0,0,0,0,0,0,0,0,0,0,0,0,0,0,0,0,0,0,0,0,0,0,0,0,0,0,0,0,0,0,0,0,0,0,0,0,0,0,0,0,
0,0,0,0,0,0,0,0,0,0,0,0,0,0,0,0,0,0,0,0,0,0,0,0,0,0,0,0,0,0,0,0,0,0,0,0,0,0,0,0,0,0,0,0,0,0,0,0,0,0,0,0,0,0,0,0,0,0,0,0,0,0,0,0,0,0,0,0,0,0,0,0,0,0,0,0,0,0,0,0,
0,0,0,0,0,0,0,0,0,0,0,0,0,0,0,0,0,0,0,0,0,0,0,0,0,0,0,0,0,0,0,0,0,0,0,0,0,0,0,0,0,0,0,0,0,0,0,0,0,0,0,0,0,0,0,0,0,0,0,0,0,0,0,0,0,0,0,0,0,0,0,0,0,0,0,0,0,0,0,0,
0,0,0,0,0,0,0,0,0,0,0,0,0,0,0,0,0,0,0,0,0,0,0,0,0,0,0,0,0,0,0,0,0,0,0,0,0,0,0,0,0,0,0,0,0,0,0,0,0,0,0,0,0,0,0,0,0,0,0,0,0,0,0,0,0,0,0,0,0,0,0,0,0,0,0,0,0,0,0,0,
0,0,0,0,0,0,0,0,0,0,0,0,0,0,0,0,0,0,0,0,0,0,0,0,0,0,0,0,0,0,0,0,0,0,0,0,0,0,0,0,0,0,0,0,0,0,0,0,0,0,0,0,0,0,0,0,0,0,0,0,0,0,0,0,0,0,0,0,0,0,0,0,0,0,0,0,0,0,0,0,
0,0,0,0,0,0,0,0,0,0,0,0,0,0,0,0,0,0,0,0,0,0,0,0,0,0,0,0,0,0,0,0,0,0,0,0,0,0,0,0,0,0,0,0,0,0,0,0,0,0,0,0,0,0,0,0,0,0,0,0,0,0,0,0,0,0,0,0,0,0,0,0,0,0,0,0,0,0,0,0,
0,0,0,0,0,0,0,0,0,0,0,0,0,0,0,0,0,0,0,0,0,0,0,0,0,0,0,0,0,0,0,0,0,0,0,0,0,0,0,0,0,0,0,0,0,0,0,0,0,0,0,0,0,0,0,0,0,0,0,0,0,0,0,0,0,0,0,0,0,0,0,0,0,0,0,0,0,0,0,0,
0,0,0,0,0,0,0,0,0,0,0,0,0,0,0,0,0,0,0,0,0,0,0,0,0,0,0,0,0,0,0,0,0,0,0,0,0,0,0,0,0,0,0,0,0,0,0,0,0,0,0,0,0,0,0,0,0,0,0,0,0,0,0,0,0,0,0,0,0,0,0,0,0,0,0,0,0,0,0,0,
0,0,0,0,0,0,0,0,0,0,0,0,0,0,0,0,0,0,0,0,0,0,0,0,0,0,0,0,0,0,0,0,0,0,0,0,0,0,0,0,0,0,0,0,0,0,0,0,0,0,0,0,0,0,0,0,0,0,0,0,0,0,0,0,0,0,0,0,0,0,0,0,0,0,0,0,0,0,0,0,
0,0,0,0,0,0,0,0,0,0,0,0,0,0,0,0,0,0,0,0,0,0,0,0,0,0,0,0,0,0,0,0,0,0,0,0,0,0,0,0,0,0,0,0,0,0,0,0,0,0,0,0,0,0,0,0,0,0,0,0,0,0,0,0,0,0,0,0,0,0,0,0,0,0,0,0,0,0,0,0,
0,0,0,0,0,0,0,0,0,0,0,0,0,0,0,0,0,0,0,0,0,0,0,0,0,0,0,0,0,0,0,0,0,0,0,0,0,0,0,0,0,0,0,0,0,0,0,0,0,0,0,0,0,0,0,0,0,0,0,0,0,0,0,0,0,0,0,0,0,0,0,0,0,0,0,0,0,0,0,0,
0,0,0,0,0,0,0,0,0,0,0,0,0,0,0,0,0,0,0,0,0,0,0,0,0,0,0,0,0,0,0,0,0,0,0,0,0,0,0,0,0,0,0,0,0,0,0,0,0,0,0,0,0,0,0,0,0,0,0,0,0,0,0,0,0,0,0,0,0,0,0,0,0,0,0,0,0,0,0,0,
0,0,0,0,0,0,0,0,0,0,0,0,0,0,0,0,0,0,0,0,0,0,0,0,0,0,0,0,0,0,0,0,0,0,0,0,0,0,0,0,0,0,0,0,0,0,0,0,0,0,0,0,0,0,0,0,0,0,0,0,0,0,0,0,0,0,0,0,0,0,0,0,0,0,0,0,0,0,0,0,
0,0,0,0,0,0,0,0,0,0,0,0,0,0,0,0,0,0,0,0,0,0,0,0,0,0,0,0,0,0,0,0,0,0,0,0,0,0,0,0,0,0,0,0,0,0,0,0,0,0,0,0,0,0,0,0,0,0,0,0,0,0,0,0,0,0,0,0,0,0,0,0,0,0,0,0,0,0,0,0,
0,0,0,0,0,0,0,0,0,0,0,0,0,0,0,0,0,0,0,0,0,0,0,0,0,0,0,0,0,0,0,0,0,0,0,0,0,0,0,0,0,0,0,0,0,0,0,0,0,0,0,0,0,0,0,0,0,0,0,0,0,0,0,0,0,0,0,0,0,0,0,0,0,0,0,0,0,0,0,0,
0,0,0,0,0,0,0,0,0,0,0,0,0,0,0,0,0,0,0,0,0,0,0,0,0,0,0,0,0,0,0,0,0,0,0,0,0,0,0,0,0,0,0,0,0,0,0,0,0,0,0,0,0,0,0,0,0,0,0,0,0,0,0,0,0,0,0,0,0,0,0,0,0,0,0,0,0,0,0,0,
0,0,0,0,0,0,0,0,0,0,0,0,0,0,0,0,0,0,0,0,0,0,0,0,0,0,0,0,0,0,0,0,0,0,0,0,0,0,0,0,0,0,0,0,0,0,0,0,0,0,0,0,0,0,0,0,0,0,0,0,0,0,0,0,0,0,0,0,0,0,0,0,0,0,0,0,0,0,0,0,
0,0,0,0,0,0,0,0,0,0,0,0,0,0,0,0,0,0,0,0,0,0,0,0,0,0,0,0,0,0,0,0,0,0,0,0,0,0,0,0,0,0,0,0,0,0,0,0,0,0,0,0,0,0,0,0,0,0,0,0,0,0,0,0,0,0,0,0,0,0,0,0,0,0,0,0,0,0,0,0,
0,0,0,0,0,0,0,0,0,0,0,0,0,0,0,0,0,0,0,0,0,0,0,0,0,0,0,0,0,0,0,0,0,0,0,0,0,0,0,0,0,0,0,0,0,0,0,0,0,0,0,0,0,0,0,0,0,0,0,0,0,0,0,0,0,0,0,0,0,0,0,0,0,0,0,0,0,0,0,0,
0,0,0,0,0,0,0,0,0,0,0,0,0,0,0,0,0,0,0,0,0,0,0,0,0,0,0,0,0,0,0,0,0,0,0,0,0,0,0,0,0,0,0,0,0,0,0,0,0,0,0,0,0,0,0,0,0,0,0,0,0,0,0,0,0,0,0,0,0,0,0,0,0,0,0,0,0,0,0,0,
0,0,0,0,0,0,0,0,0,0,0,0,0,0,0,0,0,0,0,0,0,0,0,0,0,0,0,0,0,0,0,0,0,0,0,0,0,0,0,0,0,0,0,0,0,0,0,0,0,0,0,0,0,0,0,0,0,0,0,0,0,0,0,0,0,0,0,0,0,0,0,0,0,0,0,0,0,0,0,0,
0,0,0,0,0,0,0,0,0,0,0,0,0,0,0,0,0,0,0,0,0,0,0,0,0,0,0,0,0,0,0,0,0,0,0,0,0,0,0,0,0,0,0,0,0,0,0,0,0,0,0,0,0,0,0,0,0,0,0,0,0,0,0,0,0,0,0,0,0,0,0,0,0,0,0,0,0,0,0,0,
0,0,0,0,0,0,0,0,0,0,0,0,0,0,0,0,0,0,0,0,0,0,0,0,0,0,0,0,0,0,0,0,0,0,0,0,0,0,0,0,0,0,0,0,0,0,0,0,0,0,0,0,0,0,0,0,0,0,0,0,0,0,0,0,0,0,0,0,0,0,0,0,0,0,0,0,0,0,0,0,
0,0,0,0,0,0,0,0,0,0,0,0,0,0,0,0,0,0,0,0,0,0,0,0,0,0,0,0,0,0,0,0,0,0,0,0,0,0,0,0,0,0,0,0,0,0,0,0,0,0,0,0,0,0,0,0,0,0,0,0,0,0,0,0,0,0,0,0,0,0,0,0,0,0,0,0,0,0,0,0,
0,0,0,0,0,0,0,0,0,0,0,0,0,0,0,0,0,0,0,0,0,0,0,0,0,0,0,0,0,0,0,0,0,0,0,0,0,0,0,0,0,0,0,0,0,0,0,0,0,0,0,0,0,0,0,0,0,0,0,0,0,0,0,0,0,0,0,0,0,0,0,0,0,0,0,0,0,0,0,0,
0,0,0,0,0,0,0,0,0,0,0,0,0,0,0,0,0,0,0,0,0,0,0,0,0,0,0,0,0,0,0,0,0,0,0,0,0,0,0,0,0,0,0,0,0,0,0,0,0,0,0,0,0,0,0,0,0,0,0,0,0,0,0,0,0,0,0,0,0,0,0,0,0,0,0,0,0,0,0,0,
0,0,0,0,0,0,0,0,0,0,0,0,0,0,0,0,0,0,0,0,0,0,0,0,0,0,0,0,0,0,0,0,0,0,0,0,0,0,0,0,0,0,0,0,0,0,0,0,0,0,0,0,0,0,0,0,0,0,0,0,0,0,0,0,0,0,0,0,0,0,0,0,0,0,0,0,0,0,0,0,
0,0,0,0,0,0,0,0,0,0,0,0,0,0,0,0,0,0,0,0,0,0,0,0,0,0,0,0,0,0,0,0,0,0,0,0,0,0,0,0,0,0,0,0,0,0,0,0,0,0,0,0,0,0,0,0,0,0,0,0,0,0,0,0,0,0,0,0,0,0,0,0,0,0,0,0,0,0,0,0
</data>
 </layer>
 <objectgroup id="3" name="Walls">
  <object id="2008" name="blockadeVine" type="blockade" x="720" y="476" width="64" height="16">
   <properties>
    <property name="delay" type="bool" value="true"/>
   </properties>
  </object>
  <object id="2024" name="blockadeVine" type="blockade" x="492" y="528" width="16" height="48">
   <properties>
    <property name="delay" type="bool" value="true"/>
   </properties>
  </object>
  <object id="2551" x="128" y="-16" width="64" height="96"/>
  <object id="2556" x="128" y="208" width="80" height="48"/>
  <object id="2557" x="208" y="240" width="16" height="32"/>
  <object id="2558" x="224" y="256" width="112" height="32"/>
  <object id="2559" x="336" y="240" width="112" height="64"/>
  <object id="2560" x="448" y="272" width="64" height="48"/>
  <object id="2561" x="512" y="288" width="64" height="80"/>
  <object id="2562" x="560" y="368" width="32" height="32"/>
  <object id="2563" x="592" y="384" width="80" height="32"/>
  <object id="2564" x="672" y="400" width="16" height="16"/>
  <object id="2565" x="640" y="416" width="80" height="80"/>
  <object id="2566" x="576" y="464" width="64" height="48"/>
  <object id="2567" x="480" y="464" width="96" height="64"/>
  <object id="2568" x="448" y="432" width="48" height="32"/>
  <object id="2569" x="400" y="400" width="64" height="32"/>
  <object id="2571" x="256" y="384" width="144" height="32"/>
  <object id="2572" x="192" y="400" width="64" height="32"/>
  <object id="2573" x="-16" y="400" width="208" height="48"/>
  <object id="2574" x="-16" y="512" width="144" height="32"/>
  <object id="2575" x="128" y="496" width="112" height="48"/>
  <object id="2576" x="224" y="544" width="80" height="32"/>
  <object id="2577" x="304" y="560" width="144" height="32"/>
  <object id="2578" x="448" y="576" width="64" height="32"/>
  <object id="2579" x="512" y="592" width="16" height="48"/>
  <object id="2580" x="512" y="640" width="32" height="32"/>
  <object id="2581" x="544" y="656" width="96" height="32"/>
  <object id="2582" x="640" y="672" width="128" height="32"/>
  <object id="2583" x="768" y="656" width="32" height="32"/>
  <object id="2584" x="784" y="624" width="32" height="32"/>
  <object id="2585" x="800" y="496" width="32" height="128"/>
  <object id="2587" x="784" y="432" width="48" height="64"/>
  <object id="2588" x="832" y="400" width="48" height="48"/>
  <object id="2589" x="880" y="368" width="32" height="48"/>
  <object id="2590" x="896" y="320" width="32" height="48"/>
  <object id="2591" x="880" y="240" width="144" height="80"/>
  <object id="2593" x="608" y="160" width="128" height="64"/>
  <object id="2594" x="576" y="144" width="32" height="48"/>
  <object id="2595" x="656" y="80" width="32" height="80"/>
  <object id="2596" x="640" y="-16" width="32" height="96"/>
  <object id="2597" x="736" y="-16" width="128" height="112"/>
  <object id="2598" x="864" y="64" width="32" height="96"/>
  <object id="2599" x="896" y="144" width="192" height="48"/>
  <object id="2600" x="1088" y="176" width="192" height="48"/>
  <object id="2601" x="992" y="192" width="16" height="48"/>
  <object id="2602" x="448" y="128" width="128" height="48"/>
  <object id="2603" x="400" y="144" width="48" height="48"/>
  <object id="2605" x="368" y="128" width="32" height="48"/>
  <object id="2606" x="240" y="96" width="128" height="64"/>
  <object id="2607" x="256" y="48" width="32" height="48"/>
  <object id="2608" x="272" y="-16" width="32" height="64"/>
  <object id="2610" x="112" y="32" width="16" height="64"/>
  <object id="2611" x="80" y="64" width="32" height="160"/>
  <object id="2612" x="112" y="192" width="16" height="48"/>
 </objectgroup>
 <objectgroup id="10" name="Water">
  <object id="2644" x="672" y="0" width="64" height="80"/>
  <object id="2645" x="688" y="80" width="48" height="80"/>
  <object id="2647" x="736" y="96" width="160" height="116"/>
  <object id="2648" x="780" y="212" width="80" height="16"/>
  <object id="2649" x="860" y="212" width="36" height="32"/>
  <object id="2650" x="896" y="192" width="128" height="48"/>
  <object id="2651" x="1024" y="192" width="64" height="96"/>
  <object id="2652" x="1088" y="224" width="192" height="80"/>
 </objectgroup>
 <objectgroup id="5" name="Loot"/>
 <objectgroup id="12" name="Plants">
  <object id="2025" name="spike_vine" x="420" y="196">
   <point/>
  </object>
  <object id="2037" name="spike_vine" x="428" y="204">
   <point/>
  </object>
  <object id="2038" name="spike_vine" x="420" y="212">
   <point/>
  </object>
  <object id="2039" name="spike_vine" x="428" y="220">
   <point/>
  </object>
  <object id="2040" name="spike_vine" x="420" y="228">
   <point/>
  </object>
  <object id="2041" name="spike_vine" x="428" y="236">
   <point/>
  </object>
  <object id="2042" name="spike_vine" x="452" y="260">
   <point/>
  </object>
  <object id="2043" name="spike_vine" x="460" y="268">
   <point/>
  </object>
  <object id="2044" name="spike_vine" x="468" y="260">
   <point/>
  </object>
  <object id="2045" name="spike_vine" x="476" y="268">
   <point/>
  </object>
  <object id="2046" name="spike_vine" x="484" y="260">
   <point/>
  </object>
  <object id="2047" name="spike_vine" x="492" y="268">
   <point/>
  </object>
  <object id="2048" name="spike_vine" x="500" y="260">
   <point/>
  </object>
  <object id="2049" name="spike_vine" x="508" y="268">
   <point/>
  </object>
  <object id="2050" name="spike_vine" x="564" y="180">
   <point/>
  </object>
  <object id="2051" name="spike_vine" x="572" y="188">
   <point/>
  </object>
  <object id="2052" name="spike_vine" x="564" y="196">
   <point/>
  </object>
  <object id="2053" name="spike_vine" x="572" y="204">
   <point/>
  </object>
  <object id="2054" name="spike_vine" x="564" y="212">
   <point/>
  </object>
  <object id="2055" name="spike_vine" x="572" y="220">
   <point/>
  </object>
  <object id="2056" name="spike_vine" x="580" y="196">
   <point/>
  </object>
  <object id="2057" name="spike_vine" x="588" y="204">
   <point/>
  </object>
  <object id="2058" name="spike_vine" x="580" y="212">
   <point/>
  </object>
  <object id="2059" name="spike_vine" x="588" y="220">
   <point/>
  </object>
  <object id="2060" name="spike_vine" x="596" y="196">
   <point/>
  </object>
  <object id="2061" name="spike_vine" x="604" y="204">
   <point/>
  </object>
  <object id="2062" name="spike_vine" x="596" y="212">
   <point/>
  </object>
  <object id="2063" name="spike_vine" x="604" y="220">
   <point/>
  </object>
  <object id="2064" name="spike_vine" x="612" y="228">
   <point/>
  </object>
  <object id="2065" name="spike_vine" x="620" y="236">
   <point/>
  </object>
  <object id="2066" name="spike_vine" x="612" y="244">
   <point/>
  </object>
  <object id="2067" name="spike_vine" x="620" y="252">
   <point/>
  </object>
  <object id="2068" name="spike_vine" x="612" y="260">
   <point/>
  </object>
  <object id="2069" name="spike_vine" x="620" y="268">
   <point/>
  </object>
  <object id="2070" name="spike_vine" x="612" y="276">
   <point/>
  </object>
  <object id="2071" name="spike_vine" x="620" y="284">
   <point/>
  </object>
  <object id="2072" name="spike_vine" x="612" y="292">
   <point/>
  </object>
  <object id="2073" name="spike_vine" x="620" y="300">
   <point/>
  </object>
  <object id="2074" name="spike_vine" x="596" y="292">
   <point/>
  </object>
  <object id="2075" name="spike_vine" x="604" y="300">
   <point/>
  </object>
  <object id="2076" name="spike_vine" x="580" y="292">
   <point/>
  </object>
  <object id="2077" name="spike_vine" x="588" y="300">
   <point/>
  </object>
  <object id="2078" name="spike_vine" x="580" y="308">
   <point/>
  </object>
  <object id="2079" name="spike_vine" x="588" y="316">
   <point/>
  </object>
  <object id="2080" name="spike_vine" x="580" y="324">
   <point/>
  </object>
  <object id="2081" name="spike_vine" x="588" y="332">
   <point/>
  </object>
  <object id="2082" name="spike_vine" x="596" y="308">
   <point/>
  </object>
  <object id="2083" name="spike_vine" x="604" y="316">
   <point/>
  </object>
  <object id="2084" name="spike_vine" x="596" y="324">
   <point/>
  </object>
  <object id="2085" name="spike_vine" x="604" y="332">
   <point/>
  </object>
  <object id="2086" name="spike_vine" x="612" y="308">
   <point/>
  </object>
  <object id="2087" name="spike_vine" x="620" y="316">
   <point/>
  </object>
  <object id="2088" name="spike_vine" x="612" y="324">
   <point/>
  </object>
  <object id="2089" name="spike_vine" x="620" y="332">
   <point/>
  </object>
  <object id="2090" name="spike_vine" x="628" y="308">
   <point/>
  </object>
  <object id="2091" name="spike_vine" x="636" y="316">
   <point/>
  </object>
  <object id="2092" name="spike_vine" x="628" y="324">
   <point/>
  </object>
  <object id="2093" name="spike_vine" x="636" y="332">
   <point/>
  </object>
  <object id="2094" name="spike_vine" x="628" y="340">
   <point/>
  </object>
  <object id="2095" name="spike_vine" x="636" y="348">
   <point/>
  </object>
  <object id="2096" name="spike_vine" x="628" y="356">
   <point/>
  </object>
  <object id="2097" name="spike_vine" x="636" y="364">
   <point/>
  </object>
  <object id="2098" name="spike_vine" x="628" y="372">
   <point/>
  </object>
  <object id="2099" name="spike_vine" x="636" y="380">
   <point/>
  </object>
  <object id="2100" name="spike_vine" x="644" y="372">
   <point/>
  </object>
  <object id="2101" name="spike_vine" x="652" y="380">
   <point/>
  </object>
  <object id="2102" name="spike_vine" x="660" y="372">
   <point/>
  </object>
  <object id="2103" name="spike_vine" x="668" y="380">
   <point/>
  </object>
  <object id="2104" name="spike_vine" x="676" y="372">
   <point/>
  </object>
  <object id="2105" name="spike_vine" x="684" y="380">
   <point/>
  </object>
  <object id="2106" name="spike_vine" x="676" y="388">
   <point/>
  </object>
  <object id="2107" name="spike_vine" x="684" y="396">
   <point/>
  </object>
  <object id="2108" name="spike_vine" x="692" y="388">
   <point/>
  </object>
  <object id="2109" name="spike_vine" x="700" y="396">
   <point/>
  </object>
  <object id="2110" name="spike_vine" x="692" y="404">
   <point/>
  </object>
  <object id="2111" name="spike_vine" x="700" y="412">
   <point/>
  </object>
  <object id="2112" name="spike_vine" x="692" y="372">
   <point/>
  </object>
  <object id="2113" name="spike_vine" x="700" y="380">
   <point/>
  </object>
  <object id="2114" name="spike_vine" x="692" y="356">
   <point/>
  </object>
  <object id="2115" name="spike_vine" x="700" y="364">
   <point/>
  </object>
  <object id="2116" name="spike_vine" x="692" y="340">
   <point/>
  </object>
  <object id="2117" name="spike_vine" x="700" y="348">
   <point/>
  </object>
  <object id="2118" name="spike_vine" x="692" y="324">
   <point/>
  </object>
  <object id="2119" name="spike_vine" x="700" y="332">
   <point/>
  </object>
  <object id="2120" name="spike_vine" x="692" y="308">
   <point/>
  </object>
  <object id="2121" name="spike_vine" x="700" y="316">
   <point/>
  </object>
  <object id="2122" name="spike_vine" x="692" y="292">
   <point/>
  </object>
  <object id="2123" name="spike_vine" x="700" y="300">
   <point/>
  </object>
  <object id="2124" name="spike_vine" x="708" y="292">
   <point/>
  </object>
  <object id="2125" name="spike_vine" x="716" y="300">
   <point/>
  </object>
  <object id="2126" name="spike_vine" x="724" y="292">
   <point/>
  </object>
  <object id="2127" name="spike_vine" x="732" y="300">
   <point/>
  </object>
  <object id="2128" name="spike_vine" x="724" y="276">
   <point/>
  </object>
  <object id="2129" name="spike_vine" x="732" y="284">
   <point/>
  </object>
  <object id="2130" name="spike_vine" x="724" y="260">
   <point/>
  </object>
  <object id="2131" name="spike_vine" x="732" y="268">
   <point/>
  </object>
  <object id="2132" name="spike_vine" x="708" y="260">
   <point/>
  </object>
  <object id="2133" name="spike_vine" x="716" y="268">
   <point/>
  </object>
  <object id="2134" name="spike_vine" x="708" y="276">
   <point/>
  </object>
  <object id="2135" name="spike_vine" x="716" y="284">
   <point/>
  </object>
  <object id="2136" name="spike_vine" x="692" y="276">
   <point/>
  </object>
  <object id="2137" name="spike_vine" x="700" y="284">
   <point/>
  </object>
  <object id="2138" name="spike_vine" x="692" y="260">
   <point/>
  </object>
  <object id="2139" name="spike_vine" x="700" y="268">
   <point/>
  </object>
  <object id="2140" name="spike_vine" x="692" y="244">
   <point/>
  </object>
  <object id="2141" name="spike_vine" x="700" y="252">
   <point/>
  </object>
  <object id="2142" name="spike_vine" x="692" y="228">
   <point/>
  </object>
  <object id="2143" name="spike_vine" x="700" y="236">
   <point/>
  </object>
  <object id="2144" name="spike_vine" x="708" y="372">
   <point/>
  </object>
  <object id="2145" name="spike_vine" x="716" y="380">
   <point/>
  </object>
  <object id="2146" name="spike_vine" x="724" y="372">
   <point/>
  </object>
  <object id="2147" name="spike_vine" x="732" y="380">
   <point/>
  </object>
  <object id="2148" name="spike_vine" x="724" y="388">
   <point/>
  </object>
  <object id="2149" name="spike_vine" x="732" y="396">
   <point/>
  </object>
  <object id="2150" name="spike_vine" x="708" y="388">
   <point/>
  </object>
  <object id="2151" name="spike_vine" x="716" y="396">
   <point/>
  </object>
  <object id="2152" name="spike_vine" x="708" y="404">
   <point/>
  </object>
  <object id="2153" name="spike_vine" x="716" y="412">
   <point/>
  </object>
  <object id="2154" name="spike_vine" x="724" y="404">
   <point/>
  </object>
  <object id="2155" name="spike_vine" x="732" y="412">
   <point/>
  </object>
  <object id="2156" name="spike_vine" x="724" y="420">
   <point/>
  </object>
  <object id="2157" name="spike_vine" x="732" y="428">
   <point/>
  </object>
  <object id="2158" name="spike_vine" x="820" y="420">
   <point/>
  </object>
  <object id="2159" name="spike_vine" x="828" y="428">
   <point/>
  </object>
  <object id="2160" name="spike_vine" x="820" y="404">
   <point/>
  </object>
  <object id="2161" name="spike_vine" x="828" y="412">
   <point/>
  </object>
  <object id="2162" name="spike_vine" x="820" y="388">
   <point/>
  </object>
  <object id="2163" name="spike_vine" x="828" y="396">
   <point/>
  </object>
  <object id="2164" name="spike_vine" x="836" y="388">
   <point/>
  </object>
  <object id="2165" name="spike_vine" x="844" y="396">
   <point/>
  </object>
  <object id="2166" name="spike_vine" x="852" y="388">
   <point/>
  </object>
  <object id="2167" name="spike_vine" x="860" y="396">
   <point/>
  </object>
  <object id="2168" name="spike_vine" x="868" y="388">
   <point/>
  </object>
  <object id="2169" name="spike_vine" x="876" y="396">
   <point/>
  </object>
  <object id="2170" name="spike_vine" x="884" y="324">
   <point/>
  </object>
  <object id="2171" name="spike_vine" x="892" y="332">
   <point/>
  </object>
  <object id="2172" name="spike_vine" x="772" y="260">
   <point/>
  </object>
  <object id="2173" name="spike_vine" x="780" y="268">
   <point/>
  </object>
  <object id="2178" name="spike_vine" x="644" y="500">
   <point/>
  </object>
  <object id="2179" name="spike_vine" x="652" y="508">
   <point/>
  </object>
  <object id="2180" name="spike_vine" x="660" y="500">
   <point/>
  </object>
  <object id="2181" name="spike_vine" x="668" y="508">
   <point/>
  </object>
  <object id="2182" name="spike_vine" x="676" y="500">
   <point/>
  </object>
  <object id="2183" name="spike_vine" x="684" y="508">
   <point/>
  </object>
  <object id="2184" name="spike_vine" x="692" y="500">
   <point/>
  </object>
  <object id="2185" name="spike_vine" x="700" y="508">
   <point/>
  </object>
  <object id="2186" name="spike_vine" x="532" y="612">
   <point/>
  </object>
  <object id="2187" name="spike_vine" x="540" y="620">
   <point/>
  </object>
  <object id="2188" name="spike_vine" x="532" y="628">
   <point/>
  </object>
  <object id="2189" name="spike_vine" x="540" y="636">
   <point/>
  </object>
  <object id="2190" name="spike_vine" x="548" y="628">
   <point/>
  </object>
  <object id="2191" name="spike_vine" x="556" y="636">
   <point/>
  </object>
  <object id="2192" name="spike_vine" x="564" y="628">
   <point/>
  </object>
  <object id="2193" name="spike_vine" x="572" y="636">
   <point/>
  </object>
  <object id="2194" name="spike_vine" x="548" y="644">
   <point/>
  </object>
  <object id="2195" name="spike_vine" x="556" y="652">
   <point/>
  </object>
  <object id="2196" name="spike_vine" x="564" y="644">
   <point/>
  </object>
  <object id="2197" name="spike_vine" x="572" y="652">
   <point/>
  </object>
  <object id="2198" name="spike_vine" x="644" y="308">
   <point/>
  </object>
  <object id="2199" name="spike_vine" x="652" y="316">
   <point/>
  </object>
  <object id="2200" name="spike_vine" x="660" y="308">
   <point/>
  </object>
  <object id="2201" name="spike_vine" x="668" y="316">
   <point/>
  </object>
  <object id="2202" name="spike_vine" x="676" y="308">
   <point/>
  </object>
  <object id="2203" name="spike_vine" x="684" y="316">
   <point/>
  </object>
  <object id="2204" name="spike_vine" x="708" y="244">
   <point/>
  </object>
  <object id="2205" name="spike_vine" x="716" y="252">
   <point/>
  </object>
  <object id="2206" name="spike_vine" x="708" y="228">
   <point/>
  </object>
  <object id="2207" name="spike_vine" x="716" y="236">
   <point/>
  </object>
  <object id="2208" name="spike_vine" x="500" y="196">
   <point/>
  </object>
  <object id="2209" name="spike_vine" x="508" y="204">
   <point/>
  </object>
  <object id="2210" name="spike_vine" x="356" y="164">
   <point/>
  </object>
  <object id="2211" name="spike_vine" x="364" y="172">
   <point/>
  </object>
  <object id="2212" name="spike_vine" x="340" y="164">
   <point/>
  </object>
  <object id="2213" name="spike_vine" x="348" y="172">
   <point/>
  </object>
  <object id="2214" name="spike_vine" x="324" y="244">
   <point/>
  </object>
  <object id="2215" name="spike_vine" x="332" y="252">
   <point/>
  </object>
  <object id="2216" name="spike_vine" x="740" y="660">
   <point/>
  </object>
  <object id="2217" name="spike_vine" x="748" y="668">
   <point/>
  </object>
  <object id="2218" name="spike_vine" x="756" y="660">
   <point/>
  </object>
  <object id="2219" name="spike_vine" x="764" y="668">
   <point/>
  </object>
  <object id="2220" name="spike_vine" x="772" y="644">
   <point/>
  </object>
  <object id="2221" name="spike_vine" x="780" y="652">
   <point/>
  </object>
  <object id="2307" name="grass" x="60.5" y="497.75">
   <point/>
  </object>
  <object id="2308" name="grass" x="108" y="460">
   <point/>
  </object>
  <object id="2309" name="grass" x="192" y="480">
   <point/>
  </object>
  <object id="2310" name="grass" x="248" y="468">
   <point/>
  </object>
  <object id="2311" name="grass" x="236" y="456">
   <point/>
  </object>
  <object id="2312" name="grass" x="308" y="500">
   <point/>
  </object>
  <object id="2313" name="grass" x="352" y="544">
   <point/>
  </object>
  <object id="2314" name="grass" x="392" y="524">
   <point/>
  </object>
  <object id="2315" name="grass" x="416" y="484">
   <point/>
  </object>
  <object id="2316" name="grass" x="396" y="440">
   <point/>
  </object>
  <object id="2317" name="grass" x="452" y="532">
   <point/>
  </object>
  <object id="2318" name="grass" x="476" y="560">
   <point/>
  </object>
  <object id="2319" name="grass" x="596" y="524">
   <point/>
  </object>
  <object id="2320" name="grass" x="548" y="581.25">
   <point/>
  </object>
  <object id="2321" name="grass" x="588" y="644">
   <point/>
  </object>
  <object id="2322" name="grass" x="632" y="636">
   <point/>
  </object>
  <object id="2323" name="grass" x="656" y="664">
   <point/>
  </object>
  <object id="2324" name="grass" x="672" y="656">
   <point/>
  </object>
  <object id="2325" name="grass" x="720" y="624">
   <point/>
  </object>
  <object id="2326" name="grass" x="710.25" y="661">
   <point/>
  </object>
  <object id="2327" name="grass" x="784" y="608">
   <point/>
  </object>
  <object id="2328" name="grass" x="768" y="588">
   <point/>
  </object>
  <object id="2329" name="grass" x="786.25" y="540.5">
   <point/>
  </object>
  <object id="2330" name="grass" x="792" y="508">
   <point/>
  </object>
  <object id="2331" name="grass" x="748" y="504">
   <point/>
  </object>
  <object id="2332" name="grass" x="712" y="528">
   <point/>
  </object>
  <object id="2333" name="grass" x="644" y="548">
   <point/>
  </object>
  <object id="2334" name="grass" x="732" y="456">
   <point/>
  </object>
  <object id="2335" name="grass" x="776" y="428">
   <point/>
  </object>
  <object id="2336" name="grass" x="808" y="368">
   <point/>
  </object>
  <object id="2337" name="grass" x="884" y="360">
   <point/>
  </object>
  <object id="2338" name="grass" x="866.75" y="274.25">
   <point/>
  </object>
  <object id="2339" name="grass" x="800" y="284">
   <point/>
  </object>
  <object id="2340" name="grass" x="743.75" y="235">
   <point/>
  </object>
  <object id="2341" name="grass" x="752" y="288">
   <point/>
  </object>
  <object id="2342" name="grass" x="672" y="352">
   <point/>
  </object>
  <object id="2343" name="grass" x="600" y="372">
   <point/>
  </object>
  <object id="2344" name="grass" x="664" y="232">
   <point/>
  </object>
  <object id="2345" name="grass" x="652" y="276">
   <point/>
  </object>
  <object id="2346" name="grass" x="669.5" y="287.75">
   <point/>
  </object>
  <object id="2347" name="grass" x="588" y="244">
   <point/>
  </object>
  <object id="2348" name="grass" x="572" y="268">
   <point/>
  </object>
  <object id="2349" name="grass" x="540" y="188">
   <point/>
  </object>
  <object id="2350" name="grass" x="528" y="224">
   <point/>
  </object>
  <object id="2351" name="grass" x="460" y="188">
   <point/>
  </object>
  <object id="2352" name="grass" x="468" y="232">
   <point/>
  </object>
  <object id="2353" name="grass" x="388" y="208">
   <point/>
  </object>
  <object id="2354" name="grass" x="360" y="228">
   <point/>
  </object>
  <object id="2355" name="grass" x="304" y="192">
   <point/>
  </object>
  <object id="2356" name="grass" x="289.75" y="224.75">
   <point/>
  </object>
  <object id="2357" name="grass" x="240" y="172">
   <point/>
  </object>
  <object id="2358" name="grass" x="219.25" y="234.75">
   <point/>
  </object>
  <object id="2359" name="grass" x="192" y="196">
   <point/>
  </object>
  <object id="2360" name="grass" x="224" y="108">
   <point/>
  </object>
  <object id="2361" name="grass" x="196" y="92">
   <point/>
  </object>
  <object id="2362" name="grass" x="240" y="48">
   <point/>
  </object>
  <object id="2363" name="shrub" x="240" y="84">
   <point/>
  </object>
  <object id="2364" name="shrub" x="208" y="64">
   <point/>
  </object>
  <object id="2365" name="shrub" x="216" y="148">
   <point/>
  </object>
  <object id="2366" name="shrub" x="228" y="204">
   <point/>
  </object>
  <object id="2367" name="shrub" x="284" y="176">
   <point/>
  </object>
  <object id="2368" name="shrub" x="272" y="244">
   <point/>
  </object>
  <object id="2369" name="shrub" x="320" y="220">
   <point/>
  </object>
  <object id="2370" name="shrub" x="335.5" y="200">
   <point/>
  </object>
  <object id="2371" name="shrub" x="380" y="192">
   <point/>
  </object>
  <object id="2372" name="shrub" x="397.25" y="233.5">
   <point/>
  </object>
  <object id="2373" name="shrub" x="456" y="212">
   <point/>
  </object>
  <object id="2374" name="shrub" x="492" y="236">
   <point/>
  </object>
  <object id="2375" name="shrub" x="484" y="192">
   <point/>
  </object>
  <object id="2376" name="shrub" x="540" y="248">
   <point/>
  </object>
  <object id="2377" name="shrub" x="544" y="204">
   <point/>
  </object>
  <object id="2378" name="shrub" x="590.25" y="273.5">
   <point/>
  </object>
  <object id="2379" name="shrub" x="648" y="244">
   <point/>
  </object>
  <object id="2380" name="shrub" x="672" y="264">
   <point/>
  </object>
  <object id="2381" name="shrub" x="660" y="336">
   <point/>
  </object>
  <object id="2382" name="shrub" x="724" y="356">
   <point/>
  </object>
  <object id="2383" name="shrub" x="768" y="340">
   <point/>
  </object>
  <object id="2384" name="shrub" x="756" y="400">
   <point/>
  </object>
  <object id="2385" name="shrub" x="864" y="364">
   <point/>
  </object>
  <object id="2386" name="shrub" x="824" y="256">
   <point/>
  </object>
  <object id="2387" name="shrub" x="759.5" y="242">
   <point/>
  </object>
  <object id="2388" name="shrub" x="764" y="460">
   <point/>
  </object>
  <object id="2389" name="shrub" x="788" y="571.5">
   <point/>
  </object>
  <object id="2390" name="shrub" x="744" y="632">
   <point/>
  </object>
  <object id="2391" name="shrub" x="612" y="644">
   <point/>
  </object>
  <object id="2392" name="shrub" x="544" y="540">
   <point/>
  </object>
  <object id="2393" name="shrub" x="521.75" y="562.5">
   <point/>
  </object>
  <object id="2394" name="shrub" x="427.25" y="516">
   <point/>
  </object>
  <object id="2395" name="shrub" x="348" y="480">
   <point/>
  </object>
  <object id="2396" name="shrub" x="164" y="468">
   <point/>
  </object>
  <object id="2397" name="shrub" x="56" y="460">
   <point/>
  </object>
  <object id="2398" name="shrub" x="4" y="536">
   <point/>
  </object>
  <object id="2399" name="shrub" x="144" y="568">
   <point/>
  </object>
  <object id="2400" name="shrub" x="187.75" y="520">
   <point/>
  </object>
  <object id="2401" name="shrub" x="240" y="588">
   <point/>
  </object>
  <object id="2402" name="shrub" x="356" y="580">
   <point/>
  </object>
  <object id="2403" name="shrub" x="468" y="648">
   <point/>
  </object>
  <object id="2404" name="shrub" x="600" y="676">
   <point/>
  </object>
  <object id="2405" name="shrub" x="556" y="704">
   <point/>
  </object>
  <object id="2406" name="shrub" x="672" y="736">
   <point/>
  </object>
  <object id="2407" name="shrub" x="760" y="700">
   <point/>
  </object>
  <object id="2408" name="shrub" x="828" y="640">
   <point/>
  </object>
  <object id="2409" name="shrub" x="816" y="712">
   <point/>
  </object>
  <object id="2410" name="shrub" x="888" y="640">
   <point/>
  </object>
  <object id="2411" name="shrub" x="832" y="476">
   <point/>
  </object>
  <object id="2412" name="shrub" x="856" y="416">
   <point/>
  </object>
  <object id="2413" name="shrub" x="908" y="392">
   <point/>
  </object>
  <object id="2414" name="shrub" x="904" y="288">
   <point/>
  </object>
  <object id="2415" name="shrub" x="992" y="260">
   <point/>
  </object>
  <object id="2416" name="shrub" x="636" y="200">
   <point/>
  </object>
  <object id="2417" name="shrub" x="664" y="184">
   <point/>
  </object>
  <object id="2418" name="shrub" x="660" y="116">
   <point/>
  </object>
  <object id="2419" name="shrub" x="548" y="148">
   <point/>
  </object>
  <object id="2420" name="shrub" x="496.75" y="152.5">
   <point/>
  </object>
  <object id="2421" name="shrub" x="424" y="168">
   <point/>
  </object>
  <object id="2422" name="shrub" x="436" y="64">
   <point/>
  </object>
  <object id="2423" name="shrub" x="284" y="92">
   <point/>
  </object>
  <object id="2424" name="shrub" x="168" y="16">
   <point/>
  </object>
  <object id="2428" name="shrub" x="185.5" y="230.75">
   <point/>
  </object>
  <object id="2429" name="shrub" x="200" y="264">
   <point/>
  </object>
  <object id="2430" name="shrub" x="296" y="272">
   <point/>
  </object>
  <object id="2431" name="shrub" x="416" y="256">
   <point/>
  </object>
  <object id="2432" name="shrub" x="456" y="308">
   <point/>
  </object>
  <object id="2433" name="shrub" x="552" y="308">
   <point/>
  </object>
  <object id="2434" name="shrub" x="572" y="385.25">
   <point/>
  </object>
  <object id="2435" name="shrub" x="648" y="404">
   <point/>
  </object>
  <object id="2436" name="shrub" x="552" y="500">
   <point/>
  </object>
  <object id="2437" name="shrub" x="476" y="434.25">
   <point/>
  </object>
  <object id="2438" name="shrub" x="324" y="390.25">
   <point/>
  </object>
  <object id="2439" name="shrub" x="340" y="386.25">
   <point/>
  </object>
  <object id="2440" name="shrub" x="116" y="426.25">
   <point/>
  </object>
  <object id="2441" name="shrub" x="56" y="422.25">
   <point/>
  </object>
  <object id="2442" name="shrub" x="8" y="422.25">
   <point/>
  </object>
  <object id="2443" name="shrub" x="8" y="350.25">
   <point/>
  </object>
  <object id="2444" name="shrub" x="136" y="378.25">
   <point/>
  </object>
  <object id="2445" name="shrub" x="136" y="298.25">
   <point/>
  </object>
  <object id="2446" name="grass" x="60" y="538.25">
   <point/>
  </object>
  <object id="2447" name="grass" x="48" y="550.25">
   <point/>
  </object>
  <object id="2448" name="grass" x="4" y="582.25">
   <point/>
  </object>
  <object id="2449" name="grass" x="124" y="674.25">
   <point/>
  </object>
  <object id="2450" name="grass" x="152" y="610.25">
   <point/>
  </object>
  <object id="2451" name="grass" x="212" y="562.25">
   <point/>
  </object>
  <object id="2452" name="grass" x="292" y="594.25">
   <point/>
  </object>
  <object id="2453" name="grass" x="360" y="610.25">
   <point/>
  </object>
  <object id="2454" name="grass" x="428" y="578.25">
   <point/>
  </object>
  <object id="2455" name="grass" x="504" y="634.25">
   <point/>
  </object>
  <object id="2456" name="grass" x="568" y="678.25">
   <point/>
  </object>
  <object id="2457" name="grass" x="632" y="702.25">
   <point/>
  </object>
  <object id="2458" name="grass" x="612" y="722.25">
   <point/>
  </object>
  <object id="2459" name="grass" x="712" y="694.25">
   <point/>
  </object>
  <object id="2460" name="grass" x="700" y="758.25">
   <point/>
  </object>
  <object id="2461" name="grass" x="652" y="794.25">
   <point/>
  </object>
  <object id="2462" name="grass" x="768" y="762.25">
   <point/>
  </object>
  <object id="2463" name="grass" x="744" y="782.25">
   <point/>
  </object>
  <object id="2464" name="grass" x="788" y="678.25">
   <point/>
  </object>
  <object id="2465" name="grass" x="808" y="658.25">
   <point/>
  </object>
  <object id="2466" name="grass" x="848" y="722.25">
   <point/>
  </object>
  <object id="2467" name="grass" x="869.5" y="675.75">
   <point/>
  </object>
  <object id="2468" name="grass" x="928" y="618.25">
   <point/>
  </object>
  <object id="2469" name="grass" x="824" y="610.25">
   <point/>
  </object>
  <object id="2470" name="grass" x="836" y="562.25">
   <point/>
  </object>
  <object id="2471" name="grass" x="820" y="554.25">
   <point/>
  </object>
  <object id="2472" name="grass" x="820" y="490.25">
   <point/>
  </object>
  <object id="2473" name="grass" x="864" y="466.25">
   <point/>
  </object>
  <object id="2474" name="grass" x="800" y="450.25">
   <point/>
  </object>
  <object id="2475" name="grass" x="916" y="442.25">
   <point/>
  </object>
  <object id="2476" name="grass" x="960" y="478.25">
   <point/>
  </object>
  <object id="2477" name="grass" x="948" y="522.25">
   <point/>
  </object>
  <object id="2478" name="grass" x="988" y="478.25">
   <point/>
  </object>
  <object id="2479" name="grass" x="952" y="566.25">
   <point/>
  </object>
  <object id="2480" name="grass" x="920" y="362.25">
   <point/>
  </object>
  <object id="2481" name="grass" x="948" y="346.25">
   <point/>
  </object>
  <object id="2482" name="grass" x="936" y="338.25">
   <point/>
  </object>
  <object id="2483" name="grass" x="920" y="306.25">
   <point/>
  </object>
  <object id="2484" name="grass" x="952" y="258.25">
   <point/>
  </object>
  <object id="2485" name="grass" x="992" y="282.25">
   <point/>
  </object>
  <object id="2486" name="grass" x="1008" y="266.25">
   <point/>
  </object>
  <object id="2487" name="grass" x="1024" y="306.25">
   <point/>
  </object>
  <object id="2488" name="grass" x="672" y="198.25">
   <point/>
  </object>
  <object id="2489" name="grass" x="644" y="178.25">
   <point/>
  </object>
  <object id="2490" name="grass" x="600" y="162.25">
   <point/>
  </object>
  <object id="2491" name="grass" x="596" y="98.25">
   <point/>
  </object>
  <object id="2492" name="grass" x="616" y="26.25">
   <point/>
  </object>
  <object id="2493" name="grass" x="640" y="42.25">
   <point/>
  </object>
  <object id="2494" name="grass" x="644" y="74.25">
   <point/>
  </object>
  <object id="2495" name="grass" x="456" y="154.25">
   <point/>
  </object>
  <object id="2496" name="grass" x="496" y="110.25">
   <point/>
  </object>
  <object id="2497" name="grass" x="444" y="86.25">
   <point/>
  </object>
  <object id="2498" name="grass" x="439" y="138.75">
   <point/>
  </object>
  <object id="2499" name="grass" x="368" y="130.25">
   <point/>
  </object>
  <object id="2500" name="grass" x="312" y="34.25">
   <point/>
  </object>
  <object id="2501" name="grass" x="296" y="26.25">
   <point/>
  </object>
  <object id="2502" name="grass" x="170.5" y="34.5">
   <point/>
  </object>
  <object id="2506" name="grass" x="16" y="282.25">
   <point/>
  </object>
  <object id="2509" name="grass" x="160" y="254.25">
   <point/>
  </object>
  <object id="2510" name="grass" x="216" y="286.25">
   <point/>
  </object>
  <object id="2511" name="grass" x="268" y="302.25">
   <point/>
  </object>
  <object id="2512" name="grass" x="322.5" y="270.5">
   <point/>
  </object>
  <object id="2513" name="grass" x="308" y="286.25">
   <point/>
  </object>
  <object id="2514" name="grass" x="360" y="254.25">
   <point/>
  </object>
  <object id="2515" name="grass" x="428" y="306.25">
   <point/>
  </object>
  <object id="2516" name="grass" x="412" y="342.25">
   <point/>
  </object>
  <object id="2517" name="grass" x="424" y="362.25">
   <point/>
  </object>
  <object id="2518" name="grass" x="432" y="342.25">
   <point/>
  </object>
  <object id="2519" name="grass" x="496" y="338.25">
   <point/>
  </object>
  <object id="2520" name="grass" x="540" y="302.25">
   <point/>
  </object>
  <object id="2521" name="grass" x="556" y="350.25">
   <point/>
  </object>
  <object id="2522" name="grass" x="616" y="398.25">
   <point/>
  </object>
  <object id="2523" name="grass" x="656" y="414.25">
   <point/>
  </object>
  <object id="2524" name="grass" x="700" y="442.25">
   <point/>
  </object>
  <object id="2525" name="grass" x="656" y="462.25">
   <point/>
  </object>
  <object id="2526" name="grass" x="696" y="475.25">
   <point/>
  </object>
  <object id="2527" name="grass" x="620" y="490.25">
   <point/>
  </object>
  <object id="2528" name="grass" x="500" y="454.25">
   <point/>
  </object>
  <object id="2529" name="grass" x="448" y="406.25">
   <point/>
  </object>
  <object id="2530" name="grass" x="512" y="414.25">
   <point/>
  </object>
  <object id="2531" name="grass" x="392" y="394.25">
   <point/>
  </object>
  <object id="2532" name="grass" x="308" y="366.25">
   <point/>
  </object>
  <object id="2533" name="grass" x="284" y="390.25">
   <point/>
  </object>
  <object id="2534" name="grass" x="248" y="378.25">
   <point/>
  </object>
  <object id="2535" name="grass" x="172.25" y="426.75">
   <point/>
  </object>
  <object id="2536" name="grass" x="128" y="422.25">
   <point/>
  </object>
  <object id="2537" name="grass" x="124" y="382.25">
   <point/>
  </object>
  <object id="2538" name="grass" x="80" y="382.25">
   <point/>
  </object>
  <object id="2539" name="grass" x="80" y="426.25">
   <point/>
  </object>
  <object id="2540" name="grass" x="36" y="342.25">
   <point/>
  </object>
  <object id="2541" name="grass" x="84" y="318.25">
   <point/>
  </object>
  <object id="2542" name="grass" x="36" y="306.25">
   <point/>
  </object>
  <object id="2544" name="grass" x="176" y="302.25">
   <point/>
  </object>
  <object id="2545" name="grass" x="128" y="318.25">
   <point/>
  </object>
  <object id="2547" name="grass" x="28" y="530.25">
   <point/>
  </object>
  <object id="2549" name="grass" x="80" y="578.25">
   <point/>
  </object>
  <object id="2550" name="grass" x="365.5" y="552.5">
   <point/>
  </object>
  <object id="2621" name="grass" x="94.5" y="18.5">
   <point/>
  </object>
  <object id="2622" name="grass" x="98.5" y="74.5">
   <point/>
  </object>
  <object id="2623" name="grass" x="90.5" y="126.5">
   <point/>
  </object>
  <object id="2624" name="grass" x="54.5" y="78.5">
   <point/>
  </object>
  <object id="2625" name="grass" x="50.5" y="118.5">
   <point/>
  </object>
  <object id="2626" name="grass" x="72.5" y="165.5">
   <point/>
  </object>
  <object id="2627" name="grass" x="86.5" y="182.5">
   <point/>
  </object>
  <object id="2628" name="grass" x="66.5" y="190.5">
   <point/>
  </object>
  <object id="2629" name="grass" x="122.5" y="222.5">
   <point/>
  </object>
  <object id="2630" name="grass" x="118.5" y="254.5">
   <point/>
  </object>
  <object id="2631" name="grass" x="102.5" y="218.5">
   <point/>
  </object>
  <object id="2632" name="grass" x="154.5" y="226.5">
   <point/>
  </object>
  <object id="2633" name="shrub" x="92.25" y="47.75">
   <point/>
  </object>
  <object id="2634" name="shrub" x="60" y="16">
   <point/>
  </object>
  <object id="2635" name="shrub" x="36" y="68">
   <point/>
  </object>
  <object id="2637" name="shrub" x="88" y="148">
   <point/>
  </object>
  <object id="2638" name="shrub" x="80" y="204">
   <point/>
  </object>
  <object id="2639" name="shrub" x="140" y="256">
   <point/>
  </object>
  <object id="2640" name="shrub" x="180" y="280">
   <point/>
  </object>
  <object id="2641" name="shrub" x="8" y="240">
   <point/>
  </object>
  <object id="2642" name="shrub" x="120" y="60">
   <point/>
  </object>
  <object id="2643" name="sink_fish" x="840" y="120">
   <point/>
  </object>
 </objectgroup>
 <objectgroup id="14" name="NPC"/>
 <objectgroup id="17" name="Rocks"/>
 <objectgroup id="9" name="Trees">
  <object id="1837" name="big" type="fake" x="924" y="500">
   <point/>
  </object>
  <object id="1871" name="big" type="fake" x="584.5" y="802">
   <point/>
  </object>
  <object id="1886" name="standard" type="fake" x="832" y="756">
   <point/>
  </object>
  <object id="1887" name="standard" type="fake" x="672" y="820">
   <point/>
  </object>
  <object id="2174" name="standard" x="789.25" y="311.625">
   <point/>
  </object>
  <object id="2175" name="standard" x="831.5" y="285.375">
   <point/>
  </object>
  <object id="2176" name="standard" x="596.375" y="353.875">
   <point/>
  </object>
  <object id="2177" name="standard" x="536" y="278">
   <point/>
  </object>
  <object id="2223" name="stump" x="825" y="333.625">
   <point/>
  </object>
  <object id="2229" name="campfire" x="266.75" y="519.125">
   <point/>
  </object>
  <object id="2235" name="banner2" type="right" x="160" y="420">
   <point/>
  </object>
  <object id="2236" name="banner2" type="right" x="160" y="516">
   <point/>
  </object>
  <object id="2238" name="standard" type="fake" x="290" y="67">
   <point/>
  </object>
  <object id="2239" name="standard" x="400" y="149.25">
   <point/>
  </object>
  <object id="2240" name="standard" type="fake" x="468" y="74">
   <point/>
  </object>
  <object id="2241" name="standard" type="fake" x="702.5" y="193.75">
   <point/>
  </object>
  <object id="2243" name="standard" type="fake" x="254.25" y="289.5">
   <point/>
  </object>
  <object id="2244" name="standard" type="fake" x="381" y="268">
   <point/>
  </object>
  <object id="2245" name="standard" type="fake" x="484.75" y="309.25">
   <point/>
  </object>
  <object id="2246" name="standard" type="fake" x="278" y="372">
   <point/>
  </object>
  <object id="2247" name="standard" type="fake" x="514.25" y="498.5">
   <point/>
  </object>
  <object id="2248" name="standard" type="fake" x="685.25" y="461.75">
   <point/>
  </object>
  <object id="2249" name="standard" type="fake" x="815.75" y="461.75">
   <point/>
  </object>
  <object id="2250" name="standard" type="fake" x="909.5" y="262.25">
   <point/>
  </object>
  <object id="2251" name="standard" type="fake" x="675.25" y="698">
   <point/>
  </object>
  <object id="2252" name="standard" type="fake" x="492.5" y="615">
   <point/>
  </object>
  <object id="2253" name="standard" type="fake" x="390" y="587.75">
   <point/>
  </object>
  <object id="2254" name="standard" type="fake" x="103.25" y="550.25">
   <point/>
  </object>
  <object id="2255" name="standard" type="fake" x="76.25" y="655.75">
   <point/>
  </object>
  <object id="2256" name="standard" type="fake" x="244.75" y="669.25">
   <point/>
  </object>
  <object id="2257" name="standard" type="fake" x="484.75" y="753.25">
   <point/>
  </object>
  <object id="2258" name="standard" type="fake" x="960.75" y="689.25">
   <point/>
  </object>
  <object id="2259" name="standard" type="fake" x="992.75" y="541.25">
   <point/>
  </object>
  <object id="2260" name="big" type="fake" x="967.5" y="380">
   <point/>
  </object>
  <object id="2261" name="big" type="fake" x="835.75" y="679.75">
   <point/>
  </object>
  <object id="2262" name="big" type="fake" x="537.25" y="433.25">
   <point/>
  </object>
  <object id="2263" name="big" type="fake" x="430.25" y="397">
   <point/>
  </object>
  <object id="2264" name="big" type="fake" x="28" y="412">
   <point/>
  </object>
  <object id="2265" name="big" type="fake" x="159.5" y="334">
   <point/>
  </object>
  <object id="2267" name="big" type="fake" x="372" y="96">
   <point/>
  </object>
  <object id="2268" name="big" type="fake" x="588.75" y="143.25">
   <point/>
  </object>
  <object id="2269" name="big" type="fake" x="151.25" y="48.25">
   <point/>
  </object>
  <object id="2270" name="standard" type="fake" x="314.25" y="313.5">
   <point/>
  </object>
  <object id="2272" name="standard" x="477.25" y="140.75">
   <point/>
  </object>
  <object id="2273" name="standard" x="533" y="112.5">
   <point/>
  </object>
  <object id="2274" name="standard" type="fake" x="610.75" y="427.25">
   <point/>
  </object>
  <object id="2275" name="standard" type="fake" x="593" y="481.75">
   <point/>
  </object>
  <object id="2276" name="standard" type="fake" x="865.25" y="444">
   <point/>
  </object>
  <object id="2277" name="standard" type="fake" x="865.25" y="536">
   <point/>
  </object>
  <object id="2278" name="standard" type="fake" x="913.25" y="596">
   <point/>
  </object>
  <object id="2279" name="standard" type="fake" x="897.25" y="744">
   <point/>
  </object>
  <object id="2280" name="standard" type="fake" x="733.25" y="728">
   <point/>
  </object>
  <object id="2281" name="standard" type="fake" x="516.75" y="689.25">
   <point/>
  </object>
  <object id="2282" name="standard" type="fake" x="416.75" y="669.25">
   <point/>
  </object>
  <object id="2283" name="standard" type="fake" x="320.5" y="620">
   <point/>
  </object>
  <object id="2284" name="standard" type="fake" x="270.5" y="576.5">
   <point/>
  </object>
  <object id="2285" name="standard" type="fake" x="196.75" y="616.5">
   <point/>
  </object>
  <object id="2286" name="standard" type="fake" x="208" y="530.5">
   <point/>
  </object>
  <object id="2287" name="standard" type="fake" x="101.25" y="412.75">
   <point/>
  </object>
  <object id="2288" name="standard" type="fake" x="220.75" y="400.5">
   <point/>
  </object>
  <object id="2289" name="standard" type="fake" x="372.75" y="384.5">
   <point/>
  </object>
  <object id="2290" name="big" type="fake" x="38.5" y="633.75">
   <point/>
  </object>
  <object id="2291" name="standard" type="fake" x="56.75" y="296">
   <point/>
  </object>
  <object id="2296" name="standard" type="fake" x="311.75" y="14">
   <point/>
  </object>
  <object id="2297" name="standard" type="fake" x="26.5" y="261.25">
   <point/>
  </object>
  <object id="2298" name="standard" type="fake" x="1041.5" y="330.25">
   <point/>
  </object>
  <object id="2299" name="standard" type="fake" x="997.5" y="430.25">
   <point/>
  </object>
  <object id="2300" name="standard" type="fake" x="1065.5" y="466.25">
   <point/>
  </object>
  <object id="2301" name="big" type="fake" x="360.5" y="722">
   <point/>
  </object>
  <object id="2302" name="standard" type="fake" x="89.25" y="348.75">
   <point/>
  </object>
  <object id="2303" name="standard" type="forestFruit1" x="160" y="116">
   <properties>
    <property name="fruit" value="apple"/>
   </properties>
   <point/>
  </object>
  <object id="2304" name="standard" type="forestFruit1" x="160" y="172">
   <properties>
    <property name="fruit" value="apple"/>
   </properties>
   <point/>
  </object>
  <object id="2613" name="big" type="fake" x="79.25" y="256.25">
   <point/>
  </object>
  <object id="2614" name="big" type="fake" x="76.25" y="111">
   <point/>
  </object>
  <object id="2615" name="standard" type="fake" x="46.5" y="153.25">
   <point/>
  </object>
  <object id="2616" name="standard" type="fake" x="14.5" y="209.25">
   <point/>
  </object>
  <object id="2617" name="standard" type="fake" x="14.5" y="105.25">
   <point/>
  </object>
  <object id="2618" name="standard" type="fake" x="35.25" y="39.75">
   <point/>
  </object>
  <object id="2619" name="standard" type="fake" x="118.5" y="14.75">
   <point/>
  </object>
 </objectgroup>
 <objectgroup id="22" name="Props">
  <object id="2230" name="logs" x="311.159" y="553.636">
   <point/>
  </object>
  <object id="2231" name="logs" x="327.159" y="553.636">
   <point/>
  </object>
  <object id="2232" name="box" x="424" y="440">
   <point/>
  </object>
  <object id="2233" name="box" x="440" y="440">
   <point/>
  </object>
  <object id="2234" name="box2" x="472" y="472">
   <point/>
  </object>
 </objectgroup>
 <objectgroup id="8" name="Chests"/>
 <objectgroup id="26" name="Challenges">
  <object id="2022" name="forestFight1" x="696" y="584">
   <properties>
    <property name="triggerType" value="below"/>
    <property name="triggerVal" type="int" value="498"/>
    <property name="triggerX" type="int" value="752"/>
    <property name="triggerY" type="int" value="498"/>
   </properties>
   <point/>
  </object>
 </objectgroup>
 <objectgroup id="6" name="Enemies"/>
 <objectgroup id="13" name="Portals"/>
 <objectgroup id="7" name="Transitions">
  <object id="2237" name="3_town" type="left" x="-16" y="448" width="16" height="64">
   <properties>
    <property name="destX" type="int" value="1458"/>
    <property name="destY" type="int" value="-1"/>
   </properties>
  </object>
  <object id="2305" name="1_meadow" type="up" x="192" y="-16" width="80" height="16">
   <properties>
    <property name="destX" type="int" value="-1"/>
    <property name="destY" type="int" value="792"/>
   </properties>
  </object>
  <object id="2306" name="1_meadow" type="up" x="672" y="-16" width="64" height="16">
   <properties>
    <property name="destX" type="int" value="-1"/>
    <property name="destY" type="int" value="792"/>
   </properties>
  </object>
 </objectgroup>
 <objectgroup id="18" name="Tutorials">
  <object id="2222" name="dodge" x="286.5" y="207.5">
   <properties>
    <property name="ambience" value="wind"/>
   </properties>
   <point/>
  </object>
  <object id="2224" name="heal" x="328" y="472">
   <point/>
  </object>
 </objectgroup>
 <objectgroup id="19" name="Weapons">
  <object id="1828" name="greataxe" x="828.092" y="328.715">
   <point/>
  </object>
  <object id="2225" name="torch" x="280" y="424">
   <point/>
  </object>
  <object id="2226" name="spear" x="312" y="424">
   <point/>
  </object>
  <object id="2227" name="torch" x="376" y="424">
   <point/>
  </object>
  <object id="2228" name="spear" x="344" y="424">
   <point/>
  </object>
 </objectgroup>
</map>
