<?xml version="1.0" encoding="UTF-8"?>
<map version="1.10" tiledversion="1.10.2" orientation="orthogonal" renderorder="right-down" width="92" height="52" tilewidth="16" tileheight="16" infinite="0" nextlayerid="28" nextobjectid="2218">
 <editorsettings>
  <export target="3_town.lua" format="lua"/>
 </editorsettings>
 <properties>
  <property name="ambience" value="wind"/>
  <property name="background" value="fog2"/>
  <property name="dark" type="int" value="16"/>
  <property name="darkType" value="parallax"/>
  <property name="defaultX" type="int" value="656"/>
  <property name="defaultY" type="int" value="400"/>
  <property name="music" value="town"/>
  <property name="shader" value="saturation"/>
  <property name="shaderVal" type="float" value="1.15"/>
  <property name="weather" value="petals"/>
 </properties>
 <tileset firstgid="1" name="houses" tilewidth="16" tileheight="16" tilecount="640" columns="40">
  <image source="_tilesets/houses.png" width="640" height="256"/>
 </tileset>
 <tileset firstgid="641" name="terrain" tilewidth="16" tileheight="16" tilecount="4000" columns="50">
  <image source="_tilesets/terrain.png" width="800" height="1280"/>
  <tile id="59" probability="0.015"/>
  <tile id="60" probability="0.015"/>
  <tile id="61" probability="0.015"/>
  <tile id="62" probability="0.015"/>
  <tile id="63" probability="0.015"/>
  <tile id="64" probability="0.025"/>
  <tile id="107" probability="0.015"/>
  <tile id="108" probability="0.015"/>
  <tile id="109" probability="0.015"/>
  <tile id="110" probability="0.015"/>
  <tile id="111" probability="0.015"/>
  <tile id="112" probability="0.015"/>
  <tile id="113" probability="0.015"/>
  <tile id="251">
   <animation>
    <frame tileid="251" duration="350"/>
    <frame tileid="254" duration="350"/>
    <frame tileid="257" duration="350"/>
    <frame tileid="260" duration="350"/>
   </animation>
  </tile>
  <tile id="253">
   <animation>
    <frame tileid="253" duration="350"/>
    <frame tileid="256" duration="350"/>
    <frame tileid="259" duration="350"/>
    <frame tileid="262" duration="350"/>
   </animation>
  </tile>
  <tile id="264">
   <animation>
    <frame tileid="264" duration="350"/>
    <frame tileid="314" duration="350"/>
    <frame tileid="364" duration="350"/>
    <frame tileid="414" duration="350"/>
   </animation>
  </tile>
  <tile id="265">
   <animation>
    <frame tileid="265" duration="350"/>
    <frame tileid="315" duration="350"/>
    <frame tileid="365" duration="350"/>
    <frame tileid="415" duration="350"/>
   </animation>
  </tile>
  <tile id="301">
   <animation>
    <frame tileid="301" duration="350"/>
    <frame tileid="304" duration="350"/>
    <frame tileid="307" duration="350"/>
    <frame tileid="310" duration="350"/>
   </animation>
  </tile>
  <tile id="303">
   <animation>
    <frame tileid="303" duration="350"/>
    <frame tileid="306" duration="350"/>
    <frame tileid="309" duration="350"/>
    <frame tileid="312" duration="350"/>
   </animation>
  </tile>
  <tile id="351">
   <animation>
    <frame tileid="351" duration="350"/>
    <frame tileid="354" duration="350"/>
    <frame tileid="357" duration="350"/>
    <frame tileid="360" duration="350"/>
   </animation>
  </tile>
  <tile id="352">
   <animation>
    <frame tileid="352" duration="350"/>
    <frame tileid="355" duration="350"/>
    <frame tileid="358" duration="350"/>
    <frame tileid="361" duration="350"/>
   </animation>
  </tile>
  <tile id="353">
   <animation>
    <frame tileid="353" duration="350"/>
    <frame tileid="356" duration="350"/>
    <frame tileid="359" duration="350"/>
    <frame tileid="362" duration="350"/>
   </animation>
  </tile>
  <tile id="451">
   <animation>
    <frame tileid="451" duration="350"/>
    <frame tileid="453" duration="350"/>
    <frame tileid="455" duration="350"/>
    <frame tileid="457" duration="350"/>
   </animation>
  </tile>
  <tile id="452">
   <animation>
    <frame tileid="452" duration="350"/>
    <frame tileid="454" duration="350"/>
    <frame tileid="456" duration="350"/>
    <frame tileid="458" duration="350"/>
   </animation>
  </tile>
  <tile id="501">
   <animation>
    <frame tileid="501" duration="350"/>
    <frame tileid="503" duration="350"/>
    <frame tileid="505" duration="350"/>
    <frame tileid="507" duration="350"/>
   </animation>
  </tile>
  <tile id="502">
   <animation>
    <frame tileid="502" duration="350"/>
    <frame tileid="504" duration="350"/>
    <frame tileid="506" duration="350"/>
    <frame tileid="508" duration="350"/>
   </animation>
  </tile>
  <tile id="606">
   <animation>
    <frame tileid="606" duration="100"/>
    <frame tileid="607" duration="100"/>
    <frame tileid="608" duration="100"/>
   </animation>
  </tile>
  <tile id="656">
   <animation>
    <frame tileid="656" duration="100"/>
    <frame tileid="657" duration="100"/>
    <frame tileid="658" duration="100"/>
   </animation>
  </tile>
  <tile id="706">
   <animation>
    <frame tileid="706" duration="100"/>
    <frame tileid="707" duration="100"/>
    <frame tileid="708" duration="100"/>
   </animation>
  </tile>
  <tile id="756">
   <animation>
    <frame tileid="756" duration="200"/>
    <frame tileid="806" duration="200"/>
    <frame tileid="856" duration="200"/>
   </animation>
  </tile>
  <tile id="757">
   <animation>
    <frame tileid="757" duration="200"/>
    <frame tileid="807" duration="200"/>
    <frame tileid="857" duration="200"/>
   </animation>
  </tile>
  <tile id="758">
   <animation>
    <frame tileid="758" duration="200"/>
    <frame tileid="808" duration="200"/>
    <frame tileid="858" duration="200"/>
   </animation>
  </tile>
  <wangsets>
   <wangset name="Grasslands" type="corner" tile="59">
    <wangcolor name="Elevation" color="#ff0000" tile="-1" probability="1"/>
    <wangcolor name="Grass Edges" color="#00ff00" tile="-1" probability="1"/>
    <wangcolor name="Water Edges" color="#00ffff" tile="-1" probability="1"/>
    <wangcolor name="Path" color="#ff7700" tile="-1" probability="1"/>
    <wangcolor name="Grass Edges 2" color="#00aa00" tile="-1" probability="1"/>
    <wangcolor name="Dirt" color="#ff00d8" tile="-1" probability="1"/>
    <wangtile tileid="51" wangid="0,0,0,1,0,0,0,0"/>
    <wangtile tileid="52" wangid="0,0,0,1,0,1,0,0"/>
    <wangtile tileid="53" wangid="0,0,0,0,0,1,0,0"/>
    <wangtile tileid="55" wangid="0,1,0,0,0,1,0,1"/>
    <wangtile tileid="56" wangid="0,1,0,1,0,0,0,1"/>
    <wangtile tileid="65" wangid="0,2,0,0,0,2,0,2"/>
    <wangtile tileid="66" wangid="0,2,0,0,0,0,0,2"/>
    <wangtile tileid="67" wangid="0,2,0,2,0,0,0,2"/>
    <wangtile tileid="68" wangid="0,0,0,2,0,0,0,0"/>
    <wangtile tileid="69" wangid="0,0,0,0,0,2,0,0"/>
    <wangtile tileid="71" wangid="0,0,0,5,0,0,0,0"/>
    <wangtile tileid="72" wangid="0,0,0,5,0,5,0,0"/>
    <wangtile tileid="73" wangid="0,0,0,0,0,5,0,0"/>
    <wangtile tileid="75" wangid="0,5,0,0,0,5,0,5"/>
    <wangtile tileid="76" wangid="0,5,0,5,0,0,0,5"/>
    <wangtile tileid="101" wangid="0,1,0,1,0,0,0,0"/>
    <wangtile tileid="102" wangid="0,1,0,1,0,1,0,1"/>
    <wangtile tileid="103" wangid="0,0,0,0,0,1,0,1"/>
    <wangtile tileid="105" wangid="0,0,0,1,0,1,0,1"/>
    <wangtile tileid="106" wangid="0,1,0,1,0,1,0,0"/>
    <wangtile tileid="115" wangid="0,0,0,0,0,2,0,2"/>
    <wangtile tileid="116" wangid="0,2,0,2,0,2,0,2"/>
    <wangtile tileid="117" wangid="0,2,0,2,0,0,0,0"/>
    <wangtile tileid="118" wangid="0,2,0,0,0,0,0,0"/>
    <wangtile tileid="119" wangid="0,0,0,0,0,0,0,2"/>
    <wangtile tileid="121" wangid="0,5,0,5,0,0,0,0"/>
    <wangtile tileid="122" wangid="0,5,0,5,0,5,0,5"/>
    <wangtile tileid="123" wangid="0,0,0,0,0,5,0,5"/>
    <wangtile tileid="125" wangid="0,0,0,5,0,5,0,5"/>
    <wangtile tileid="126" wangid="0,5,0,5,0,5,0,0"/>
    <wangtile tileid="151" wangid="0,1,0,0,0,0,0,0"/>
    <wangtile tileid="152" wangid="0,1,0,0,0,0,0,1"/>
    <wangtile tileid="153" wangid="0,0,0,0,0,0,0,1"/>
    <wangtile tileid="165" wangid="0,0,0,2,0,2,0,2"/>
    <wangtile tileid="166" wangid="0,0,0,2,0,2,0,0"/>
    <wangtile tileid="167" wangid="0,2,0,2,0,2,0,0"/>
    <wangtile tileid="171" wangid="0,5,0,0,0,0,0,0"/>
    <wangtile tileid="172" wangid="0,5,0,0,0,0,0,5"/>
    <wangtile tileid="173" wangid="0,0,0,0,0,0,0,5"/>
    <wangtile tileid="250" wangid="0,3,0,3,0,3,0,3"/>
    <wangtile tileid="251" wangid="0,3,0,0,0,3,0,3"/>
    <wangtile tileid="252" wangid="0,3,0,0,0,0,0,3"/>
    <wangtile tileid="253" wangid="0,3,0,3,0,0,0,3"/>
    <wangtile tileid="301" wangid="0,0,0,0,0,3,0,3"/>
    <wangtile tileid="303" wangid="0,3,0,3,0,0,0,0"/>
    <wangtile tileid="351" wangid="0,0,0,3,0,3,0,3"/>
    <wangtile tileid="352" wangid="0,0,0,3,0,3,0,0"/>
    <wangtile tileid="353" wangid="0,3,0,3,0,3,0,0"/>
    <wangtile tileid="451" wangid="0,0,0,3,0,0,0,0"/>
    <wangtile tileid="452" wangid="0,0,0,0,0,3,0,0"/>
    <wangtile tileid="501" wangid="0,3,0,0,0,0,0,0"/>
    <wangtile tileid="502" wangid="0,0,0,0,0,0,0,3"/>
    <wangtile tileid="951" wangid="0,0,0,4,0,0,0,0"/>
    <wangtile tileid="952" wangid="0,0,0,4,0,4,0,0"/>
    <wangtile tileid="953" wangid="0,0,0,0,0,4,0,0"/>
    <wangtile tileid="955" wangid="0,4,0,0,0,4,0,4"/>
    <wangtile tileid="956" wangid="0,4,0,4,0,0,0,4"/>
    <wangtile tileid="958" wangid="0,0,0,6,0,0,0,0"/>
    <wangtile tileid="959" wangid="0,0,0,6,0,6,0,0"/>
    <wangtile tileid="960" wangid="0,0,0,0,0,6,0,0"/>
    <wangtile tileid="962" wangid="0,6,0,0,0,6,0,6"/>
    <wangtile tileid="963" wangid="0,6,0,6,0,0,0,6"/>
    <wangtile tileid="1001" wangid="0,4,0,4,0,0,0,0"/>
    <wangtile tileid="1002" wangid="0,4,0,4,0,4,0,4"/>
    <wangtile tileid="1003" wangid="0,0,0,0,0,4,0,4"/>
    <wangtile tileid="1005" wangid="0,0,0,4,0,4,0,4"/>
    <wangtile tileid="1006" wangid="0,4,0,4,0,4,0,0"/>
    <wangtile tileid="1008" wangid="0,6,0,6,0,0,0,0"/>
    <wangtile tileid="1009" wangid="0,6,0,6,0,6,0,6"/>
    <wangtile tileid="1010" wangid="0,0,0,0,0,6,0,6"/>
    <wangtile tileid="1012" wangid="0,0,0,6,0,6,0,6"/>
    <wangtile tileid="1013" wangid="0,6,0,6,0,6,0,0"/>
    <wangtile tileid="1051" wangid="0,4,0,0,0,0,0,0"/>
    <wangtile tileid="1052" wangid="0,4,0,0,0,0,0,4"/>
    <wangtile tileid="1053" wangid="0,0,0,0,0,0,0,4"/>
    <wangtile tileid="1058" wangid="0,6,0,0,0,0,0,0"/>
    <wangtile tileid="1059" wangid="0,6,0,0,0,0,0,6"/>
    <wangtile tileid="1060" wangid="0,0,0,0,0,0,0,6"/>
   </wangset>
   <wangset name="New Grass" type="corner" tile="-1">
    <wangcolor name="Light" color="#ff0000" tile="-1" probability="1"/>
    <wangcolor name="Dark" color="#00ff00" tile="-1" probability="1"/>
    <wangcolor name="Dirt" color="#0000ff" tile="-1" probability="1"/>
    <wangcolor name="Thick Dark" color="#ff7700" tile="-1" probability="1"/>
    <wangtile tileid="1651" wangid="0,0,0,1,0,0,0,0"/>
    <wangtile tileid="1652" wangid="0,0,0,1,0,1,0,0"/>
    <wangtile tileid="1653" wangid="0,0,0,0,0,1,0,0"/>
    <wangtile tileid="1655" wangid="0,1,0,0,0,1,0,1"/>
    <wangtile tileid="1656" wangid="0,1,0,1,0,0,0,1"/>
    <wangtile tileid="1658" wangid="0,0,0,2,0,0,0,0"/>
    <wangtile tileid="1659" wangid="0,0,0,2,0,2,0,0"/>
    <wangtile tileid="1660" wangid="0,0,0,0,0,2,0,0"/>
    <wangtile tileid="1662" wangid="0,2,0,0,0,2,0,2"/>
    <wangtile tileid="1663" wangid="0,2,0,2,0,0,0,2"/>
    <wangtile tileid="1665" wangid="0,0,0,3,0,0,0,0"/>
    <wangtile tileid="1666" wangid="0,0,0,3,0,3,0,0"/>
    <wangtile tileid="1667" wangid="0,0,0,0,0,3,0,0"/>
    <wangtile tileid="1669" wangid="0,3,0,0,0,3,0,3"/>
    <wangtile tileid="1670" wangid="0,3,0,3,0,0,0,3"/>
    <wangtile tileid="1672" wangid="0,0,0,4,0,0,0,0"/>
    <wangtile tileid="1673" wangid="0,0,0,4,0,4,0,0"/>
    <wangtile tileid="1674" wangid="0,0,0,0,0,4,0,0"/>
    <wangtile tileid="1676" wangid="0,4,0,0,0,4,0,4"/>
    <wangtile tileid="1677" wangid="0,4,0,4,0,0,0,4"/>
    <wangtile tileid="1701" wangid="0,1,0,1,0,0,0,0"/>
    <wangtile tileid="1702" wangid="0,1,0,1,0,1,0,1"/>
    <wangtile tileid="1703" wangid="0,0,0,0,0,1,0,1"/>
    <wangtile tileid="1705" wangid="0,0,0,1,0,1,0,1"/>
    <wangtile tileid="1706" wangid="0,1,0,1,0,1,0,0"/>
    <wangtile tileid="1708" wangid="0,2,0,2,0,0,0,0"/>
    <wangtile tileid="1709" wangid="0,2,0,2,0,2,0,2"/>
    <wangtile tileid="1710" wangid="0,0,0,0,0,2,0,2"/>
    <wangtile tileid="1712" wangid="0,0,0,2,0,2,0,2"/>
    <wangtile tileid="1713" wangid="0,2,0,2,0,2,0,0"/>
    <wangtile tileid="1715" wangid="0,3,0,3,0,0,0,0"/>
    <wangtile tileid="1716" wangid="0,3,0,3,0,3,0,3"/>
    <wangtile tileid="1717" wangid="0,0,0,0,0,3,0,3"/>
    <wangtile tileid="1719" wangid="0,0,0,3,0,3,0,3"/>
    <wangtile tileid="1720" wangid="0,3,0,3,0,3,0,0"/>
    <wangtile tileid="1722" wangid="0,4,0,4,0,0,0,0"/>
    <wangtile tileid="1723" wangid="0,4,0,4,0,4,0,4"/>
    <wangtile tileid="1724" wangid="0,0,0,0,0,4,0,4"/>
    <wangtile tileid="1726" wangid="0,0,0,4,0,4,0,4"/>
    <wangtile tileid="1727" wangid="0,4,0,4,0,4,0,0"/>
    <wangtile tileid="1751" wangid="0,1,0,0,0,0,0,0"/>
    <wangtile tileid="1752" wangid="0,1,0,0,0,0,0,1"/>
    <wangtile tileid="1753" wangid="0,0,0,0,0,0,0,1"/>
    <wangtile tileid="1758" wangid="0,2,0,0,0,0,0,0"/>
    <wangtile tileid="1759" wangid="0,2,0,0,0,0,0,2"/>
    <wangtile tileid="1760" wangid="0,0,0,0,0,0,0,2"/>
    <wangtile tileid="1765" wangid="0,3,0,0,0,0,0,0"/>
    <wangtile tileid="1766" wangid="0,3,0,0,0,0,0,3"/>
    <wangtile tileid="1767" wangid="0,0,0,0,0,0,0,3"/>
    <wangtile tileid="1772" wangid="0,4,0,0,0,0,0,0"/>
    <wangtile tileid="1773" wangid="0,4,0,0,0,0,0,4"/>
    <wangtile tileid="1774" wangid="0,0,0,0,0,0,0,4"/>
   </wangset>
  </wangsets>
 </tileset>
 <tileset firstgid="4641" name="objects" tilewidth="16" tileheight="16" tilecount="736" columns="23">
  <image source="_tilesets/objects.png" width="368" height="520"/>
 </tileset>
 <tileset firstgid="5377" name="water" tilewidth="16" tileheight="16" tilecount="1600" columns="40">
  <image source="_tilesets/water2.png" width="640" height="640"/>
  <tile id="41">
   <animation>
    <frame tileid="41" duration="150"/>
    <frame tileid="44" duration="150"/>
    <frame tileid="47" duration="150"/>
    <frame tileid="50" duration="150"/>
    <frame tileid="53" duration="150"/>
    <frame tileid="56" duration="150"/>
    <frame tileid="59" duration="150"/>
    <frame tileid="62" duration="150"/>
   </animation>
  </tile>
  <tile id="42">
   <animation>
    <frame tileid="42" duration="150"/>
    <frame tileid="45" duration="150"/>
    <frame tileid="48" duration="150"/>
    <frame tileid="51" duration="150"/>
    <frame tileid="54" duration="150"/>
    <frame tileid="57" duration="150"/>
    <frame tileid="60" duration="150"/>
    <frame tileid="63" duration="150"/>
   </animation>
  </tile>
  <tile id="43">
   <animation>
    <frame tileid="43" duration="150"/>
    <frame tileid="46" duration="150"/>
    <frame tileid="49" duration="150"/>
    <frame tileid="52" duration="150"/>
    <frame tileid="55" duration="150"/>
    <frame tileid="58" duration="150"/>
    <frame tileid="61" duration="150"/>
    <frame tileid="64" duration="150"/>
   </animation>
  </tile>
  <tile id="66">
   <animation>
    <frame tileid="66" duration="100"/>
    <frame tileid="67" duration="100"/>
    <frame tileid="68" duration="100"/>
   </animation>
  </tile>
  <tile id="70">
   <animation>
    <frame tileid="70" duration="150"/>
    <frame tileid="71" duration="150"/>
    <frame tileid="72" duration="150"/>
    <frame tileid="73" duration="150"/>
    <frame tileid="74" duration="150"/>
    <frame tileid="75" duration="150"/>
    <frame tileid="76" duration="150"/>
    <frame tileid="77" duration="150"/>
   </animation>
  </tile>
  <tile id="81">
   <animation>
    <frame tileid="81" duration="150"/>
    <frame tileid="84" duration="150"/>
    <frame tileid="87" duration="150"/>
    <frame tileid="90" duration="150"/>
    <frame tileid="93" duration="150"/>
    <frame tileid="96" duration="150"/>
    <frame tileid="99" duration="150"/>
    <frame tileid="102" duration="150"/>
   </animation>
  </tile>
  <tile id="82">
   <animation>
    <frame tileid="82" duration="150"/>
    <frame tileid="85" duration="150"/>
    <frame tileid="88" duration="150"/>
    <frame tileid="91" duration="150"/>
    <frame tileid="94" duration="150"/>
    <frame tileid="97" duration="150"/>
    <frame tileid="100" duration="150"/>
    <frame tileid="103" duration="150"/>
   </animation>
  </tile>
  <tile id="83">
   <animation>
    <frame tileid="83" duration="150"/>
    <frame tileid="86" duration="150"/>
    <frame tileid="89" duration="150"/>
    <frame tileid="92" duration="150"/>
    <frame tileid="95" duration="150"/>
    <frame tileid="101" duration="150"/>
    <frame tileid="104" duration="150"/>
   </animation>
  </tile>
  <tile id="106">
   <animation>
    <frame tileid="106" duration="100"/>
    <frame tileid="107" duration="100"/>
    <frame tileid="108" duration="100"/>
   </animation>
  </tile>
  <tile id="121">
   <animation>
    <frame tileid="121" duration="150"/>
    <frame tileid="124" duration="150"/>
    <frame tileid="127" duration="150"/>
    <frame tileid="130" duration="150"/>
    <frame tileid="133" duration="150"/>
    <frame tileid="136" duration="150"/>
    <frame tileid="139" duration="150"/>
    <frame tileid="142" duration="150"/>
   </animation>
  </tile>
  <tile id="122">
   <animation>
    <frame tileid="122" duration="150"/>
    <frame tileid="125" duration="150"/>
    <frame tileid="128" duration="150"/>
    <frame tileid="131" duration="150"/>
    <frame tileid="134" duration="150"/>
    <frame tileid="137" duration="150"/>
    <frame tileid="140" duration="150"/>
    <frame tileid="143" duration="150"/>
   </animation>
  </tile>
  <tile id="123">
   <animation>
    <frame tileid="123" duration="150"/>
    <frame tileid="126" duration="150"/>
    <frame tileid="129" duration="150"/>
    <frame tileid="132" duration="150"/>
    <frame tileid="135" duration="150"/>
    <frame tileid="138" duration="150"/>
    <frame tileid="141" duration="150"/>
    <frame tileid="144" duration="150"/>
   </animation>
  </tile>
  <tile id="146">
   <animation>
    <frame tileid="146" duration="100"/>
    <frame tileid="147" duration="100"/>
    <frame tileid="148" duration="100"/>
   </animation>
  </tile>
  <tile id="150">
   <animation>
    <frame tileid="150" duration="150"/>
    <frame tileid="151" duration="150"/>
    <frame tileid="152" duration="150"/>
    <frame tileid="153" duration="150"/>
    <frame tileid="154" duration="150"/>
    <frame tileid="155" duration="150"/>
    <frame tileid="156" duration="150"/>
    <frame tileid="157" duration="150"/>
   </animation>
  </tile>
  <tile id="186">
   <animation>
    <frame tileid="186" duration="200"/>
    <frame tileid="226" duration="200"/>
    <frame tileid="266" duration="200"/>
   </animation>
  </tile>
  <tile id="187">
   <animation>
    <frame tileid="187" duration="200"/>
    <frame tileid="227" duration="200"/>
    <frame tileid="267" duration="200"/>
   </animation>
  </tile>
  <tile id="188">
   <animation>
    <frame tileid="188" duration="200"/>
    <frame tileid="228" duration="200"/>
    <frame tileid="268" duration="200"/>
   </animation>
  </tile>
  <tile id="201">
   <animation>
    <frame tileid="201" duration="150"/>
    <frame tileid="204" duration="150"/>
    <frame tileid="207" duration="150"/>
    <frame tileid="210" duration="150"/>
    <frame tileid="213" duration="150"/>
    <frame tileid="216" duration="150"/>
    <frame tileid="219" duration="150"/>
    <frame tileid="222" duration="150"/>
   </animation>
  </tile>
  <tile id="202">
   <animation>
    <frame tileid="202" duration="150"/>
    <frame tileid="205" duration="150"/>
    <frame tileid="208" duration="150"/>
    <frame tileid="211" duration="150"/>
    <frame tileid="214" duration="150"/>
    <frame tileid="217" duration="150"/>
    <frame tileid="220" duration="150"/>
    <frame tileid="223" duration="150"/>
   </animation>
  </tile>
  <tile id="203">
   <animation>
    <frame tileid="203" duration="150"/>
    <frame tileid="206" duration="150"/>
    <frame tileid="209" duration="150"/>
    <frame tileid="212" duration="150"/>
    <frame tileid="215" duration="150"/>
    <frame tileid="218" duration="150"/>
    <frame tileid="221" duration="150"/>
    <frame tileid="224" duration="150"/>
   </animation>
  </tile>
  <tile id="241">
   <animation>
    <frame tileid="241" duration="150"/>
    <frame tileid="244" duration="150"/>
    <frame tileid="247" duration="150"/>
    <frame tileid="250" duration="150"/>
    <frame tileid="253" duration="150"/>
    <frame tileid="256" duration="150"/>
    <frame tileid="259" duration="150"/>
    <frame tileid="262" duration="150"/>
   </animation>
  </tile>
  <tile id="243">
   <animation>
    <frame tileid="243" duration="150"/>
    <frame tileid="246" duration="150"/>
    <frame tileid="249" duration="150"/>
    <frame tileid="252" duration="150"/>
    <frame tileid="255" duration="150"/>
    <frame tileid="258" duration="150"/>
    <frame tileid="261" duration="150"/>
    <frame tileid="264" duration="150"/>
   </animation>
  </tile>
  <tile id="281">
   <animation>
    <frame tileid="281" duration="150"/>
    <frame tileid="284" duration="150"/>
    <frame tileid="287" duration="150"/>
    <frame tileid="290" duration="150"/>
    <frame tileid="293" duration="150"/>
    <frame tileid="296" duration="150"/>
    <frame tileid="299" duration="150"/>
    <frame tileid="302" duration="150"/>
   </animation>
  </tile>
  <tile id="282">
   <animation>
    <frame tileid="282" duration="150"/>
    <frame tileid="285" duration="150"/>
    <frame tileid="288" duration="150"/>
    <frame tileid="291" duration="150"/>
    <frame tileid="294" duration="150"/>
    <frame tileid="297" duration="150"/>
    <frame tileid="300" duration="150"/>
    <frame tileid="303" duration="150"/>
   </animation>
  </tile>
  <tile id="283">
   <animation>
    <frame tileid="283" duration="150"/>
    <frame tileid="286" duration="150"/>
    <frame tileid="289" duration="150"/>
    <frame tileid="292" duration="150"/>
    <frame tileid="295" duration="150"/>
    <frame tileid="298" duration="150"/>
    <frame tileid="301" duration="150"/>
    <frame tileid="304" duration="150"/>
   </animation>
  </tile>
  <tile id="361">
   <animation>
    <frame tileid="361" duration="150"/>
    <frame tileid="401" duration="150"/>
    <frame tileid="441" duration="150"/>
    <frame tileid="481" duration="150"/>
   </animation>
  </tile>
  <tile id="362">
   <animation>
    <frame tileid="362" duration="150"/>
    <frame tileid="402" duration="150"/>
    <frame tileid="442" duration="150"/>
    <frame tileid="482" duration="150"/>
   </animation>
  </tile>
  <tile id="364">
   <animation>
    <frame tileid="364" duration="150"/>
    <frame tileid="404" duration="150"/>
    <frame tileid="444" duration="150"/>
    <frame tileid="484" duration="150"/>
   </animation>
  </tile>
  <tile id="365">
   <animation>
    <frame tileid="365" duration="150"/>
    <frame tileid="405" duration="150"/>
    <frame tileid="445" duration="150"/>
    <frame tileid="485" duration="150"/>
   </animation>
  </tile>
  <tile id="367">
   <animation>
    <frame tileid="367" duration="150"/>
    <frame tileid="407" duration="150"/>
    <frame tileid="447" duration="150"/>
    <frame tileid="487" duration="150"/>
   </animation>
  </tile>
  <tile id="368">
   <animation>
    <frame tileid="368" duration="150"/>
    <frame tileid="408" duration="150"/>
    <frame tileid="448" duration="150"/>
    <frame tileid="488" duration="150"/>
   </animation>
  </tile>
  <tile id="370">
   <animation>
    <frame tileid="370" duration="150"/>
    <frame tileid="410" duration="150"/>
    <frame tileid="450" duration="150"/>
    <frame tileid="490" duration="150"/>
   </animation>
  </tile>
  <tile id="371">
   <animation>
    <frame tileid="371" duration="150"/>
    <frame tileid="411" duration="150"/>
    <frame tileid="451" duration="150"/>
    <frame tileid="491" duration="150"/>
   </animation>
  </tile>
  <tile id="372">
   <animation>
    <frame tileid="372" duration="150"/>
    <frame tileid="412" duration="150"/>
    <frame tileid="452" duration="150"/>
    <frame tileid="492" duration="150"/>
   </animation>
  </tile>
  <tile id="374">
   <animation>
    <frame tileid="374" duration="150"/>
    <frame tileid="414" duration="150"/>
    <frame tileid="454" duration="150"/>
    <frame tileid="494" duration="150"/>
   </animation>
  </tile>
  <tile id="375">
   <animation>
    <frame tileid="375" duration="150"/>
    <frame tileid="415" duration="150"/>
    <frame tileid="455" duration="150"/>
    <frame tileid="495" duration="150"/>
   </animation>
  </tile>
  <tile id="379">
   <animation>
    <frame tileid="379" duration="150"/>
    <frame tileid="419" duration="150"/>
    <frame tileid="459" duration="150"/>
    <frame tileid="499" duration="150"/>
   </animation>
  </tile>
  <tile id="380">
   <animation>
    <frame tileid="380" duration="150"/>
    <frame tileid="420" duration="150"/>
    <frame tileid="460" duration="150"/>
    <frame tileid="500" duration="150"/>
   </animation>
  </tile>
  <tile id="382">
   <animation>
    <frame tileid="382" duration="150"/>
    <frame tileid="422" duration="150"/>
    <frame tileid="462" duration="150"/>
    <frame tileid="502" duration="150"/>
   </animation>
  </tile>
  <tile id="383">
   <animation>
    <frame tileid="383" duration="150"/>
    <frame tileid="423" duration="150"/>
    <frame tileid="463" duration="150"/>
    <frame tileid="503" duration="150"/>
   </animation>
  </tile>
  <tile id="385">
   <animation>
    <frame tileid="385" duration="150"/>
    <frame tileid="425" duration="150"/>
    <frame tileid="465" duration="150"/>
    <frame tileid="505" duration="150"/>
   </animation>
  </tile>
  <tile id="386">
   <animation>
    <frame tileid="386" duration="150"/>
    <frame tileid="426" duration="150"/>
    <frame tileid="466" duration="150"/>
    <frame tileid="506" duration="150"/>
   </animation>
  </tile>
  <tile id="388">
   <animation>
    <frame tileid="388" duration="150"/>
    <frame tileid="428" duration="150"/>
    <frame tileid="468" duration="150"/>
    <frame tileid="508" duration="150"/>
   </animation>
  </tile>
  <tile id="389">
   <animation>
    <frame tileid="389" duration="150"/>
    <frame tileid="429" duration="150"/>
    <frame tileid="469" duration="150"/>
    <frame tileid="509" duration="150"/>
   </animation>
  </tile>
  <tile id="390">
   <animation>
    <frame tileid="390" duration="150"/>
    <frame tileid="430" duration="150"/>
    <frame tileid="470" duration="150"/>
    <frame tileid="510" duration="150"/>
   </animation>
  </tile>
  <tile id="392">
   <animation>
    <frame tileid="392" duration="150"/>
    <frame tileid="432" duration="150"/>
    <frame tileid="472" duration="150"/>
    <frame tileid="512" duration="150"/>
   </animation>
  </tile>
  <tile id="393">
   <animation>
    <frame tileid="393" duration="150"/>
    <frame tileid="433" duration="150"/>
    <frame tileid="473" duration="150"/>
    <frame tileid="513" duration="150"/>
   </animation>
  </tile>
  <tile id="395">
   <animation>
    <frame tileid="395" duration="150"/>
    <frame tileid="435" duration="150"/>
    <frame tileid="475" duration="150"/>
    <frame tileid="515" duration="150"/>
   </animation>
  </tile>
  <tile id="396">
   <animation>
    <frame tileid="396" duration="150"/>
    <frame tileid="436" duration="150"/>
    <frame tileid="476" duration="150"/>
    <frame tileid="516" duration="150"/>
   </animation>
  </tile>
  <tile id="561">
   <animation>
    <frame tileid="561" duration="150"/>
    <frame tileid="564" duration="150"/>
    <frame tileid="567" duration="150"/>
    <frame tileid="570" duration="150"/>
   </animation>
  </tile>
  <tile id="563">
   <animation>
    <frame tileid="563" duration="150"/>
    <frame tileid="566" duration="150"/>
    <frame tileid="569" duration="150"/>
    <frame tileid="572" duration="150"/>
   </animation>
  </tile>
  <tile id="579">
   <animation>
    <frame tileid="579" duration="150"/>
    <frame tileid="582" duration="150"/>
    <frame tileid="585" duration="150"/>
    <frame tileid="588" duration="150"/>
   </animation>
  </tile>
  <tile id="581">
   <animation>
    <frame tileid="581" duration="150"/>
    <frame tileid="584" duration="150"/>
    <frame tileid="587" duration="150"/>
    <frame tileid="590" duration="150"/>
   </animation>
  </tile>
  <tile id="641">
   <animation>
    <frame tileid="641" duration="150"/>
    <frame tileid="644" duration="150"/>
    <frame tileid="647" duration="150"/>
    <frame tileid="650" duration="150"/>
    <frame tileid="653" duration="150"/>
    <frame tileid="656" duration="150"/>
    <frame tileid="659" duration="150"/>
    <frame tileid="662" duration="150"/>
   </animation>
  </tile>
  <tile id="642">
   <animation>
    <frame tileid="642" duration="150"/>
    <frame tileid="645" duration="150"/>
    <frame tileid="648" duration="150"/>
    <frame tileid="651" duration="150"/>
    <frame tileid="654" duration="150"/>
    <frame tileid="657" duration="150"/>
    <frame tileid="660" duration="150"/>
    <frame tileid="663" duration="150"/>
   </animation>
  </tile>
  <tile id="643">
   <animation>
    <frame tileid="643" duration="150"/>
    <frame tileid="646" duration="150"/>
    <frame tileid="649" duration="150"/>
    <frame tileid="652" duration="150"/>
    <frame tileid="655" duration="150"/>
    <frame tileid="658" duration="150"/>
    <frame tileid="661" duration="150"/>
    <frame tileid="664" duration="150"/>
   </animation>
  </tile>
  <tile id="681">
   <animation>
    <frame tileid="681" duration="150"/>
    <frame tileid="684" duration="150"/>
    <frame tileid="687" duration="150"/>
    <frame tileid="690" duration="150"/>
    <frame tileid="693" duration="150"/>
    <frame tileid="696" duration="150"/>
    <frame tileid="699" duration="150"/>
    <frame tileid="702" duration="150"/>
   </animation>
  </tile>
  <tile id="682">
   <animation>
    <frame tileid="682" duration="150"/>
    <frame tileid="685" duration="150"/>
    <frame tileid="688" duration="150"/>
    <frame tileid="691" duration="150"/>
    <frame tileid="694" duration="150"/>
    <frame tileid="697" duration="150"/>
    <frame tileid="700" duration="150"/>
    <frame tileid="703" duration="150"/>
   </animation>
  </tile>
  <tile id="683">
   <animation>
    <frame tileid="683" duration="150"/>
    <frame tileid="686" duration="150"/>
    <frame tileid="689" duration="150"/>
    <frame tileid="692" duration="150"/>
    <frame tileid="695" duration="150"/>
    <frame tileid="698" duration="150"/>
    <frame tileid="701" duration="150"/>
    <frame tileid="704" duration="150"/>
   </animation>
  </tile>
  <tile id="721">
   <animation>
    <frame tileid="721" duration="150"/>
    <frame tileid="724" duration="150"/>
    <frame tileid="727" duration="150"/>
    <frame tileid="730" duration="150"/>
    <frame tileid="733" duration="150"/>
    <frame tileid="736" duration="150"/>
    <frame tileid="739" duration="150"/>
    <frame tileid="742" duration="150"/>
   </animation>
  </tile>
  <tile id="722">
   <animation>
    <frame tileid="722" duration="150"/>
    <frame tileid="725" duration="150"/>
    <frame tileid="728" duration="150"/>
    <frame tileid="731" duration="150"/>
    <frame tileid="734" duration="150"/>
    <frame tileid="737" duration="150"/>
    <frame tileid="740" duration="150"/>
    <frame tileid="743" duration="150"/>
   </animation>
  </tile>
  <tile id="723">
   <animation>
    <frame tileid="723" duration="150"/>
    <frame tileid="726" duration="150"/>
    <frame tileid="729" duration="150"/>
    <frame tileid="732" duration="150"/>
    <frame tileid="735" duration="150"/>
    <frame tileid="738" duration="150"/>
    <frame tileid="741" duration="150"/>
    <frame tileid="744" duration="150"/>
   </animation>
  </tile>
  <tile id="801">
   <animation>
    <frame tileid="801" duration="150"/>
    <frame tileid="804" duration="150"/>
    <frame tileid="807" duration="150"/>
    <frame tileid="810" duration="150"/>
    <frame tileid="813" duration="150"/>
    <frame tileid="816" duration="150"/>
    <frame tileid="819" duration="150"/>
    <frame tileid="822" duration="150"/>
   </animation>
  </tile>
  <tile id="802">
   <animation>
    <frame tileid="802" duration="150"/>
    <frame tileid="805" duration="150"/>
    <frame tileid="808" duration="150"/>
    <frame tileid="811" duration="150"/>
    <frame tileid="814" duration="150"/>
    <frame tileid="817" duration="150"/>
    <frame tileid="820" duration="150"/>
    <frame tileid="823" duration="150"/>
   </animation>
  </tile>
  <tile id="803">
   <animation>
    <frame tileid="803" duration="150"/>
    <frame tileid="806" duration="150"/>
    <frame tileid="809" duration="150"/>
    <frame tileid="812" duration="150"/>
    <frame tileid="815" duration="150"/>
    <frame tileid="818" duration="150"/>
    <frame tileid="821" duration="150"/>
    <frame tileid="824" duration="150"/>
   </animation>
  </tile>
  <tile id="841">
   <animation>
    <frame tileid="841" duration="150"/>
    <frame tileid="844" duration="150"/>
    <frame tileid="847" duration="150"/>
    <frame tileid="850" duration="150"/>
    <frame tileid="853" duration="150"/>
    <frame tileid="856" duration="150"/>
    <frame tileid="859" duration="150"/>
    <frame tileid="862" duration="150"/>
   </animation>
  </tile>
  <tile id="843">
   <animation>
    <frame tileid="843" duration="150"/>
    <frame tileid="846" duration="150"/>
    <frame tileid="849" duration="150"/>
    <frame tileid="852" duration="150"/>
    <frame tileid="855" duration="150"/>
    <frame tileid="858" duration="150"/>
    <frame tileid="861" duration="150"/>
    <frame tileid="864" duration="150"/>
   </animation>
  </tile>
  <tile id="881">
   <animation>
    <frame tileid="881" duration="150"/>
    <frame tileid="884" duration="150"/>
    <frame tileid="887" duration="150"/>
    <frame tileid="890" duration="150"/>
    <frame tileid="893" duration="150"/>
    <frame tileid="896" duration="150"/>
    <frame tileid="899" duration="150"/>
    <frame tileid="902" duration="150"/>
   </animation>
  </tile>
  <tile id="882">
   <animation>
    <frame tileid="882" duration="150"/>
    <frame tileid="885" duration="150"/>
    <frame tileid="888" duration="150"/>
    <frame tileid="891" duration="150"/>
    <frame tileid="894" duration="150"/>
    <frame tileid="897" duration="150"/>
    <frame tileid="900" duration="150"/>
    <frame tileid="903" duration="150"/>
   </animation>
  </tile>
  <tile id="883">
   <animation>
    <frame tileid="883" duration="150"/>
    <frame tileid="886" duration="150"/>
    <frame tileid="889" duration="150"/>
    <frame tileid="892" duration="150"/>
    <frame tileid="895" duration="150"/>
    <frame tileid="898" duration="150"/>
    <frame tileid="901" duration="150"/>
    <frame tileid="904" duration="150"/>
   </animation>
  </tile>
  <wangsets>
   <wangset name="Water" type="corner" tile="-1">
    <wangcolor name="Dirt Edge" color="#ff0000" tile="-1" probability="1"/>
    <wangtile tileid="641" wangid="0,0,0,1,0,0,0,0"/>
    <wangtile tileid="642" wangid="0,0,0,1,0,1,0,0"/>
    <wangtile tileid="643" wangid="0,0,0,0,0,1,0,0"/>
    <wangtile tileid="681" wangid="0,1,0,1,0,0,0,0"/>
    <wangtile tileid="682" wangid="0,1,0,1,0,1,0,1"/>
    <wangtile tileid="683" wangid="0,0,0,0,0,1,0,1"/>
    <wangtile tileid="721" wangid="0,1,0,0,0,0,0,0"/>
    <wangtile tileid="722" wangid="0,1,0,0,0,0,0,1"/>
    <wangtile tileid="723" wangid="0,0,0,0,0,0,0,1"/>
    <wangtile tileid="801" wangid="0,1,0,0,0,1,0,1"/>
    <wangtile tileid="802" wangid="0,1,0,0,0,0,0,1"/>
    <wangtile tileid="803" wangid="0,1,0,1,0,0,0,1"/>
    <wangtile tileid="841" wangid="0,0,0,0,0,1,0,1"/>
    <wangtile tileid="843" wangid="0,1,0,1,0,0,0,0"/>
    <wangtile tileid="881" wangid="0,0,0,1,0,1,0,1"/>
    <wangtile tileid="882" wangid="0,0,0,1,0,1,0,0"/>
    <wangtile tileid="883" wangid="0,1,0,1,0,1,0,0"/>
   </wangset>
  </wangsets>
 </tileset>
 <tileset firstgid="6977" name="overworld" tilewidth="16" tileheight="16" tilecount="736" columns="23">
  <image source="_tilesets/overworld.png" width="368" height="520"/>
  <tile id="176">
   <animation>
    <frame tileid="176" duration="100"/>
    <frame tileid="177" duration="100"/>
    <frame tileid="178" duration="100"/>
   </animation>
  </tile>
  <tile id="199">
   <animation>
    <frame tileid="199" duration="100"/>
    <frame tileid="200" duration="100"/>
    <frame tileid="201" duration="100"/>
   </animation>
  </tile>
  <tile id="222">
   <animation>
    <frame tileid="222" duration="100"/>
    <frame tileid="223" duration="100"/>
    <frame tileid="224" duration="100"/>
   </animation>
  </tile>
  <tile id="245">
   <animation>
    <frame tileid="245" duration="200"/>
    <frame tileid="268" duration="200"/>
    <frame tileid="291" duration="200"/>
   </animation>
  </tile>
  <tile id="246">
   <animation>
    <frame tileid="246" duration="200"/>
    <frame tileid="269" duration="200"/>
    <frame tileid="292" duration="200"/>
   </animation>
  </tile>
  <tile id="247">
   <animation>
    <frame tileid="247" duration="200"/>
    <frame tileid="270" duration="200"/>
    <frame tileid="293" duration="200"/>
   </animation>
  </tile>
 </tileset>
 <layer id="26" name="Simple" width="92" height="52">
  <data encoding="csv">
2442,2442,2442,2442,2442,2442,2442,2442,2442,2442,2442,2442,2442,2442,2442,2442,2442,2442,2442,2442,2442,2442,2442,2442,2442,2442,2442,2442,2442,2442,2442,2442,2442,2442,2442,2442,2442,2442,2442,2442,2442,2442,2442,2442,2442,2442,2442,2442,2442,2442,2442,2442,2442,2442,2442,2442,2442,2442,2442,2442,2442,2442,2442,2442,2442,2442,2442,2442,2442,2442,2442,2442,2442,2442,2442,2442,2442,2442,2442,2442,2442,2442,2442,2442,2442,2442,2442,2442,2442,2442,2442,2442,
2442,2442,2442,2442,2442,2442,2442,2442,2442,2442,2442,2442,2442,2442,2442,2442,2442,2442,2442,2442,2442,2442,2442,2442,2442,2442,2442,2442,2442,2442,2442,2442,2442,2442,2442,2442,2442,2442,2442,2442,2442,2442,2442,2442,2442,2442,2442,2442,2442,2442,2442,2442,2442,2442,2442,2442,2442,2442,2442,2442,2442,2442,2442,2442,2442,2442,2442,2442,2442,2442,2442,2442,2442,2442,2442,2442,2442,2442,2442,2442,2442,2442,2442,2442,2442,2442,2442,2442,2442,2442,2442,2442,
2442,2442,2442,2442,2442,2442,2442,2442,2442,2442,2442,2442,2442,2442,2442,2442,2442,2442,2442,2442,2442,2442,2442,2442,2442,2442,2442,2442,2442,2442,2442,2442,2442,2442,2442,2442,2442,2442,2442,2442,2442,2442,2442,2442,2442,2442,2442,2442,2442,2442,2442,2442,2442,2442,2442,2442,2442,2442,2442,2442,2442,2442,2442,2442,2442,2442,2442,2442,2442,2442,2442,2442,2442,2442,2442,2442,2442,2442,2442,2442,2442,2442,2442,2442,2442,2442,2442,2442,2442,2442,2442,2442,
2442,2442,2442,2442,2442,2442,2442,2442,2442,2442,2442,2442,2442,2442,2442,2442,2442,2442,2442,2442,2442,2442,2442,2442,2442,2442,2442,2442,2442,2442,2442,2442,2442,2442,2442,2442,2442,2442,2442,2442,2442,2442,2442,2442,2442,2442,2442,2442,2442,2442,2442,2442,2442,2442,2442,2442,2442,2442,2442,2442,2442,2442,2442,2442,2442,2442,2442,2442,2442,2442,2442,2442,2442,2442,2442,2442,2442,2442,2442,2442,2442,2442,2442,2442,2442,2442,2442,2442,2442,2442,2442,2442,
2442,2442,2442,2442,2442,2442,2442,2442,2442,2442,2442,2442,2442,2442,2442,2442,2442,2442,2442,2442,2442,2442,2442,2442,2442,2442,2442,2442,2442,2442,2442,2442,2442,2442,2442,2442,2442,2442,2442,2442,2442,2442,2442,2442,2442,2442,2442,2442,2442,2442,2442,2442,2442,2442,2442,2442,2442,2442,2442,2442,2442,2442,2442,2442,2442,2442,2442,2442,2442,2442,2442,2442,2442,2442,2442,2442,2442,2442,2442,2442,2442,2442,2442,2442,2442,2442,2442,2442,2442,2442,2442,2442,
2442,2442,2442,2442,2442,2442,2442,2442,2442,2442,2442,2442,2442,2442,2442,2442,2442,2442,2442,2442,2442,2442,2442,2442,2442,2442,2442,2442,2442,2442,2442,2442,2442,2442,2442,2442,2442,2442,2442,2442,2442,2442,2442,2442,2442,2442,2442,2442,2442,2442,2442,2442,2442,2442,2442,2442,2442,2442,2442,2442,2442,2442,2442,2442,2442,2442,2442,2442,2442,2442,2442,2442,2442,2442,2442,2442,2442,2442,2442,2442,2442,2442,2442,2442,2442,2442,2442,2442,2442,2442,2442,2442,
2442,2442,2442,2442,2442,2442,2442,2442,2442,2442,2442,2442,2442,2442,2442,2442,2442,2442,2442,2442,2442,2442,2442,2442,2442,2442,2442,2442,2442,2442,2442,2442,2442,2442,2442,2442,2442,2442,2442,2442,2442,2442,2442,2442,2442,2442,2442,2442,2442,2442,2442,2442,2442,2442,2442,2442,2442,2442,2442,2442,2442,2442,2442,2442,2442,2442,2442,2442,2442,2442,2442,2442,2442,2442,2442,2442,2442,2442,2442,2442,2442,2442,2442,2442,2442,2442,2442,2442,2442,2442,2442,2442,
2442,2442,2442,2442,2442,2442,2442,2442,2442,2442,2442,2442,2442,2442,2442,2442,2442,2442,2442,2442,2442,2442,2442,2442,2442,2442,2442,2442,2442,2442,2442,2442,2442,2442,2442,2442,2442,2442,2442,2442,2442,2442,2442,2442,2442,2442,2442,2442,2442,2442,2442,2442,2442,2442,2442,2442,2442,2442,2442,2442,2442,2442,2442,2442,2442,2442,2442,2442,2442,2442,2442,2442,2442,2442,2442,2442,2442,2442,2442,2442,2442,2442,2442,2442,2442,2442,2442,2442,2442,2442,2442,2442,
2442,2442,2442,2442,2442,2442,2442,2442,2442,2442,2442,2442,2442,2442,2442,2442,2442,2442,2442,2442,2442,2442,2442,2442,2442,2442,2442,2442,2442,2442,2442,2442,2442,2442,2442,2442,2442,2442,2442,2442,2442,2442,2442,2442,2442,2442,2442,2442,2442,2442,2442,2442,2442,2442,2442,2442,2442,2442,2442,2442,2442,2442,2442,2442,2442,2442,2442,2442,2442,2442,2442,2442,2442,2442,2442,2442,2442,2442,2442,2442,2442,2442,2442,2442,2442,2442,2442,2442,2442,2442,2442,2442,
2442,2442,2442,2442,2442,2442,2442,2442,2442,2442,2442,2442,2442,2442,2442,2442,2442,2442,2442,2442,2442,2442,2442,2442,2442,2442,2442,2442,2442,2442,2442,2442,2442,2442,2442,2442,2442,2442,2442,2442,2442,2442,2442,2442,2442,2442,2442,2442,2442,2442,2442,2442,2442,2442,2442,2442,2442,2442,2442,2442,2442,2442,2442,2442,2442,2442,2442,2442,2442,2442,2442,2442,2442,2442,2442,2442,2442,2442,2442,2442,2442,2442,2442,2442,2442,2442,2442,2442,2442,2442,2442,2442,
2442,2442,2442,2442,2442,2442,2442,2442,2442,2442,2442,2442,2442,2442,2442,2442,2442,2442,2442,2442,2442,2442,2442,2442,2442,2442,2442,2442,2442,2442,2442,2442,2442,2442,2442,2442,2442,2442,2442,2442,2442,2442,2442,2442,2442,2442,2442,2442,2442,2442,2442,2442,2442,2442,2442,2442,2442,2442,2442,2442,2442,2442,2442,2442,2442,2442,2442,2442,2442,2442,2442,2442,2442,2442,2442,2442,2442,2442,2442,2442,2442,2442,2442,2442,2442,2442,2442,2442,2442,2442,2442,2442,
2442,2442,2442,2442,2442,2442,2442,2442,2442,2442,2442,2442,2442,2442,2442,2442,2442,2442,2442,2442,2442,2442,2442,2442,2442,2442,2442,2442,2442,2442,2442,2442,2442,2442,2442,2442,2442,2442,2442,2442,2442,2442,2442,2442,2442,2442,2442,2442,2442,2442,2442,2442,2442,2442,2442,2442,2442,2442,2442,2442,2442,2442,2442,2442,2442,2442,2442,2442,2442,2442,2442,2442,2442,2442,2442,2442,2442,2442,2442,2442,2442,2442,2442,2442,2442,2442,2442,2442,2442,2442,2442,2442,
2442,2442,2442,2442,2442,2442,2442,2442,2442,2442,2442,2442,2442,2442,2442,2442,2442,2442,2442,2442,2442,2442,2442,2442,2442,2442,2442,2442,2442,2442,2442,2442,2442,2442,2442,2442,2442,2442,2442,2442,2442,2442,2442,2442,2442,2442,2442,2442,2442,2442,2442,2442,2442,2442,2442,2442,2442,2442,2442,2442,2442,2442,2442,2442,2442,2442,2442,2442,2442,2442,2442,2442,2442,2442,2442,2442,2442,2442,2442,2442,2442,2442,2442,2442,2442,2442,2442,2442,2442,2442,2442,2442,
2442,2442,2442,2442,2442,2442,2442,2442,2442,2442,2442,2442,2442,2442,2442,2442,2442,2442,2442,2442,2442,2442,2442,2442,2442,2442,2442,2442,2442,2442,2442,2442,2442,2442,2442,2442,2442,2442,2442,2442,2442,2442,2442,2442,2442,2442,2442,2442,2442,2442,2442,2442,2442,2442,2442,2442,2442,2442,2442,2442,2442,2442,2442,2442,2442,2442,2442,2442,2442,699,2442,2442,2442,2442,2442,2442,2442,2442,2442,2442,2442,2442,2442,2442,2442,2442,2442,2442,2442,2442,2442,2442,
2442,2442,2442,2442,2442,2442,2442,2442,2442,2442,2442,2442,2442,2442,2442,2442,2442,2442,2442,2442,2442,2442,2442,2442,2442,2442,2442,2442,2442,2442,2442,2442,2442,2442,2442,2442,2442,2442,2442,2442,2442,2442,2442,2442,2442,2442,2442,2442,2442,2442,2442,2442,2442,2442,2442,2442,2442,2442,2442,2442,2442,2442,2442,2442,2442,2442,2442,2442,2442,699,2442,2442,2442,2442,2442,2442,2442,2442,2442,2442,2442,2442,2442,2442,2442,2442,2442,2442,2442,2442,2442,2442,
2442,2442,2442,2442,2442,2442,2442,2442,2442,2442,2442,2442,2442,2442,2442,2442,2442,2442,2442,2442,2442,2442,2442,2442,2442,2442,2442,2442,2442,2442,2442,2442,2442,2442,2442,2442,2442,2442,2442,2442,2442,2442,2442,2442,2442,2442,2442,2442,2442,2442,2442,2442,2442,2442,2442,2442,2442,2442,2442,2442,2442,2442,2442,2442,2442,2442,2442,2442,2442,699,2442,2442,699,2442,2442,2442,2442,2442,2442,2442,2442,2442,2442,2442,2442,2442,2442,2442,2442,2442,2442,2442,
2442,2442,2442,2442,2442,2442,2442,2442,2442,2442,2442,2442,2442,2442,2442,2442,2442,2442,2442,2442,2442,2442,2442,2442,2442,2442,2442,2442,2442,2442,2442,2442,2442,2442,2442,2442,2442,2442,2442,2442,2442,2442,2442,2442,2442,2442,2442,2442,2442,2442,2442,2442,2442,2442,2442,2442,2442,2442,2442,2442,2442,2442,2442,2442,2442,2442,2442,2442,2442,699,2442,2442,699,2442,2442,2442,2442,2442,2442,2442,2442,2442,2442,2442,2442,2442,2442,2442,2442,2442,2442,2442,
2442,2442,2442,2442,2442,2442,2442,2442,2442,2442,2442,2442,2442,2442,2442,2442,2442,2442,2442,2442,2442,2442,2442,2442,2442,2442,2442,2442,2442,2442,2442,2442,2442,2442,2442,2442,2442,2442,2442,2442,2442,2442,2442,2442,2442,2442,2442,2442,2442,2442,2442,2442,2442,2442,2442,2442,2442,2442,2442,2442,2442,2442,2442,2442,2442,2442,2442,2442,2442,2442,2442,2442,699,2442,2442,2442,2442,2442,2442,2442,2442,2442,2442,2442,2442,2442,2442,2442,2442,2442,2442,2442,
2442,2442,2442,2442,2442,2442,2442,2442,2442,2442,2442,2442,2442,2442,2442,2442,2442,2442,2442,2442,2442,2442,2442,2442,2442,2442,2442,2442,2442,2442,2442,2442,2442,2442,2442,2442,2442,2442,2442,2442,2442,2442,2442,2442,2442,2442,2442,2442,2442,2442,2442,2442,2442,2442,2442,2442,2442,2442,2442,2442,2442,2442,2442,2442,2442,2442,2442,2442,2442,2442,2442,2442,2442,2442,2442,2442,2442,2442,2442,2442,2442,2442,2442,2442,2442,2442,2442,2442,2442,2442,2442,2442,
2442,2442,2442,2442,2442,2442,2442,2442,2442,2442,2442,2442,2442,2442,2442,2442,2442,2442,2442,2442,2442,2442,2442,2442,2442,2442,2442,2442,2442,2442,2442,2442,2442,2442,2442,2442,2442,2442,2442,2442,2442,2442,2442,2442,2442,2442,2442,2442,2442,2442,2442,2442,2442,2442,2442,2442,2442,2442,2442,2442,2442,2442,2442,2442,2442,2442,2442,2442,2442,2442,2442,2442,2442,2442,2442,2442,2442,2442,2442,2442,2442,2442,2442,2442,2442,2442,2442,2442,2442,2442,2442,2442,
2442,2442,2442,2442,2442,2442,2442,2442,2442,2442,2442,2442,2442,2442,2442,2442,2442,2442,2442,2442,2442,2442,2442,2442,2442,2442,2442,2442,2442,2442,2442,2442,2442,2442,2442,2442,2442,2442,2442,2442,2442,2442,2442,2442,2442,2442,2442,2442,2442,2442,2442,2442,2442,2442,2442,2442,2442,2442,2442,2442,2442,2442,2442,2442,2442,2442,2442,2442,2442,2442,2442,2442,2442,2442,2442,2442,2442,2442,2442,2442,2442,2442,2442,2442,2442,2442,2442,2442,2442,2442,2442,2442,
2442,2442,2442,2442,2442,2442,2442,2442,2442,2442,2442,2442,2442,2442,2442,2442,2442,2442,2442,2442,2442,2442,2442,2442,2442,2442,2442,2442,2442,2442,2442,2442,2442,2442,2442,2442,2442,2442,2442,2442,2442,2442,2442,2442,2442,2442,2442,2442,2442,2442,2442,2442,2442,2442,2442,2442,2442,2442,2442,2442,2442,2442,2442,2442,2442,2442,2442,2442,2442,2442,2442,2442,2442,2442,2442,2442,2442,2442,2442,2442,2442,2442,2442,2442,2442,2442,2442,2442,2442,2442,2442,2442,
2442,2442,2442,2442,2442,2442,2442,2442,2442,2442,2442,2442,2442,2442,2442,2442,2442,2442,2442,2442,2442,2442,2442,2442,2442,2442,2442,2442,2442,2442,2442,2442,2442,2442,2442,2442,2442,2442,2442,2442,2442,2442,2442,2442,2442,2442,2442,2442,2442,2442,2442,2442,2442,2442,2442,2442,2442,2442,2442,2442,2442,2442,2442,2442,2442,2442,2442,2442,2442,2442,2442,2442,2442,2442,2442,2442,2442,2442,2442,2442,2442,2442,2442,2442,2442,2442,2442,2442,2442,2442,2442,2442,
2442,2442,2442,2442,2442,2442,2442,2442,2442,2442,2442,2442,2442,2442,2442,2442,2442,2442,2442,2442,2442,2442,2442,2442,2442,2442,2442,2442,2442,2442,2442,2442,2442,2442,2442,2442,2442,2442,2442,2442,2442,2442,2442,2442,2442,2442,2442,2442,2442,2442,2442,2442,2442,2442,2442,2442,2442,2442,2442,2442,2442,2442,2442,2442,2442,2442,2442,2442,2442,2442,2442,2442,2442,2442,2442,2442,2442,2442,2442,2442,2442,2442,2442,2442,2442,2442,2442,2442,2442,2442,2442,2442,
2442,2442,2442,2442,2442,2442,2442,2442,2442,2442,2442,2442,2442,2442,2442,2442,2442,2442,2442,2442,2442,2442,2442,2442,2442,2442,2442,2442,2442,2442,2442,2442,2442,2442,2442,2442,2442,2442,2442,2442,2442,2442,2442,2442,2442,2442,2442,2442,2442,2442,2442,2442,2442,2442,2442,2442,2442,2442,2442,2442,2442,2442,2442,2442,2442,2442,2442,2442,2442,2442,2442,2442,2442,2442,2442,2442,2442,2442,2442,2442,2442,2442,2442,2442,2442,2442,2442,2442,2442,2442,2442,2442,
2442,2442,2442,2442,2442,2442,2442,2442,2442,2442,2442,2442,2442,2442,2442,2442,2442,2442,2442,2442,2442,2442,2442,2442,2442,2442,2442,2442,2442,2442,2442,2442,2442,2442,2442,2442,2442,2442,2442,2442,2442,2442,2442,2442,2442,2442,2442,2442,2442,2442,2442,2442,2442,2442,2442,2442,2442,2442,2442,2442,2442,2442,2442,2442,2442,2442,2442,2442,2442,2442,2442,2442,2442,2442,2442,2442,2442,2442,2442,2442,2442,2442,2442,2442,2442,2442,2442,2442,2442,2442,2442,2442,
2442,2442,2442,2442,2442,2442,2442,2442,2442,2442,2442,2442,2442,2442,2442,2442,2442,2442,2442,2442,2442,2442,2442,2442,2442,2442,2442,2442,2442,2442,2442,2442,2442,2442,2442,2442,2442,2442,2442,2442,2442,2442,2442,2442,2442,2442,2442,2442,2442,2442,699,699,699,699,699,699,699,699,699,699,699,699,699,699,699,699,699,699,699,699,699,699,699,699,2442,2442,2442,2442,2442,2442,2442,2442,2442,2442,2442,2442,2442,2442,2442,2442,2442,2442,
2442,2442,2442,2442,2442,2442,2442,2442,2442,2442,2442,2442,2442,2442,2442,2442,2442,2442,2442,2442,2442,2442,2442,2442,2442,2442,2442,2442,2442,2442,2442,2442,2442,2442,2442,2442,2442,2442,2442,2442,2442,2442,2442,2442,2442,2442,2442,2442,2442,2442,699,699,699,699,699,699,699,699,699,699,699,699,699,699,699,699,699,699,699,699,699,699,699,699,2442,2442,2442,2442,2442,2442,2442,2442,2442,2442,2442,2442,2442,2442,703,2442,2442,701,
2442,2442,2442,2442,2442,2442,2442,2442,2442,2442,2442,2442,2442,2442,2442,2442,2442,2442,2442,2442,2442,2442,2442,2442,2442,2442,2442,2442,2442,2442,2442,2442,2442,2442,2442,2442,2442,2442,2442,2442,2442,2442,2442,2442,2442,2442,2442,2442,2442,2442,2442,2442,2442,2442,2442,2442,2442,2442,2442,2442,2442,2442,2442,2442,2442,2442,2442,2442,2442,2442,2442,2442,2442,2442,2442,2442,2442,2442,2442,2442,2442,2442,2442,2442,2442,2442,2442,2442,2442,2442,2442,2442,
2442,2442,2442,2442,2442,2442,2442,2442,2442,2442,2442,2442,2442,2442,2442,2442,2442,2442,2442,2442,2442,2442,2442,2442,2442,2442,2442,2442,2442,2442,2442,2442,2442,2442,2442,2442,2442,2442,2442,2442,2442,2442,2442,2442,2442,2442,2442,2442,2442,2442,2442,2442,2442,2442,2442,2442,2442,2442,2442,2442,2442,2442,2442,2442,2442,2442,2442,2442,2442,2442,2442,2442,2442,2442,2442,2442,2442,2442,2442,2442,2442,2442,2442,2442,2442,2442,2442,2442,2442,2442,2442,2442,
2442,2442,2442,2442,2442,2442,2442,2442,2442,2442,2442,2442,2442,2442,2442,2442,2442,2442,2442,2442,2442,2442,2442,2442,2442,2442,2442,2442,2442,2442,2442,2442,699,699,699,699,699,699,699,699,699,699,2442,2442,2442,2442,2442,2442,2442,2442,2442,2442,2442,2442,2442,2442,2442,2442,2442,2442,2442,2442,2442,2442,2442,2442,2442,2442,2442,2442,2442,2442,2442,2442,2442,2442,2442,2442,2442,2442,2442,2442,2442,2442,2442,2442,2442,2442,2442,2442,2442,2442,
2442,2442,2442,2442,2442,2442,2442,2442,2442,2442,2442,2442,2442,2442,2442,2442,2442,2442,2442,2442,2442,2442,2442,2442,2442,2442,2442,2442,2442,2442,2442,2442,2442,2442,2442,2442,2442,2442,2442,2442,2442,2442,2442,2442,2442,2442,2442,2442,2442,2442,2442,2442,2442,2442,2442,2442,2442,2442,2442,2442,2442,2442,2442,2442,2442,2442,2442,2442,2442,2442,2442,2442,2442,2442,2442,2442,2442,2442,2442,2442,2442,2442,2442,2442,2442,2442,2442,2442,2442,2442,2442,2442,
2442,2442,2442,2442,2442,2442,2442,2442,2442,2442,2442,2442,2442,2442,2442,2442,2442,2442,2442,2442,2442,2442,2442,2442,2442,2442,2442,2442,2442,2442,2442,2442,2442,2442,2442,2442,2442,2442,2442,2442,2442,2442,2442,2442,2442,2442,2442,2442,2442,2442,2442,2442,2442,2442,2442,2442,2442,2442,2442,2442,2442,2442,2442,2442,2442,2442,2442,2442,2442,2442,2442,2442,2442,2442,2442,2442,2442,2442,2442,2442,2442,2442,2442,2442,2442,2442,2442,2442,2442,2442,2442,2442,
2442,2442,2442,2442,2442,2442,2442,2442,2442,2442,2442,2442,2442,2442,2442,2442,2442,2442,2442,2442,2442,2442,2442,2442,2442,2442,2442,2442,2442,2442,2442,2442,2442,2442,2442,2442,2442,2442,2442,2442,2442,2442,2442,2442,2442,2442,2442,2442,2442,2442,2442,2442,2442,2442,2442,2442,2442,2442,2442,2442,2442,2442,2442,2442,2442,2442,2442,2442,2442,2442,2442,2442,2442,2442,2442,2442,2442,2442,2442,2442,2442,2442,2442,2442,2442,699,699,699,699,699,699,699,
2442,2442,2442,2442,2442,2442,2442,2442,2442,2442,2442,2442,2442,2442,2442,2442,2442,2442,2442,2442,2442,2442,2442,2442,2442,2442,2442,2442,2442,2442,2442,2442,2442,2442,2442,2442,2442,2442,2442,2442,2442,2442,2442,2442,2442,2442,2442,2442,2442,2442,2442,2442,2442,2442,2442,2442,2442,2442,2442,2442,2442,2442,2442,2442,2442,2442,2442,2442,2442,2442,2442,2442,2442,2442,2442,2442,2442,2442,2442,2442,2442,2442,2442,2442,2442,699,699,699,699,699,699,699,
2442,2442,2442,2442,2442,2442,2442,2442,2442,2442,2442,2442,2442,2442,2442,2442,2442,2442,2442,2442,2442,2442,2442,2442,2442,2442,2442,2442,2442,2442,2442,2442,2442,2442,2442,2442,2442,2442,2442,2442,2442,2442,2442,2442,2442,2442,2442,2442,2442,2442,2442,2442,2442,2442,2442,2442,2442,2442,2442,2442,2442,2442,2442,2442,2442,2442,2442,2442,2442,2442,2442,2442,2442,2442,2442,2442,2442,2442,2442,2442,2442,2442,2442,2442,2442,2442,2442,2442,2442,2442,2442,2442,
2442,2442,2442,2442,2442,2442,2442,2442,2442,2442,2442,2442,2442,2442,2442,2442,2442,2442,2442,2442,2442,2442,2442,2442,2442,2442,2442,2442,2442,2442,2442,2442,2442,2442,2442,2442,2442,2442,2442,2442,2442,2442,2442,2442,2442,2442,2442,2442,2442,2442,2442,2442,2442,2442,2442,2442,2442,2442,2442,2442,2442,2442,2442,2442,2442,2442,2442,2442,2442,2442,2442,2442,2442,2442,2442,2442,2442,2442,2442,2442,2442,2442,2442,2442,2442,2442,2442,2442,2442,2442,2442,2442,
2442,2442,2442,2442,2442,2442,2442,2442,2442,2442,2442,2442,2442,2442,2442,2442,2442,2442,2442,2442,2442,2442,2442,2442,2442,2442,2442,2442,2442,2442,2442,2442,2442,2442,2442,2442,2442,2442,2442,2442,2442,2442,2442,2442,2442,2442,2442,2442,2442,2442,2442,2442,2442,2442,2442,2442,2442,2442,2442,2442,2442,2442,2442,2442,2442,2442,2442,2442,2442,2442,2442,2442,2442,2442,2442,2442,2442,2442,2442,2442,2442,2442,2442,2442,2442,2442,2442,2442,2442,2442,2442,2442,
2442,2442,2442,2442,2442,2442,2442,2442,2442,2442,2442,2442,2442,2442,2442,2442,2442,2442,2442,2442,2442,2442,2442,2442,2442,2442,2442,2442,2442,2442,2442,2442,2442,2442,2442,2442,2442,2442,2442,2442,2442,2442,2442,2442,2442,2442,2442,2442,2442,2442,2442,2442,2442,2442,2442,2442,2442,2442,2442,2442,2442,2442,2442,2442,2442,2442,2442,2442,2442,2442,2442,2442,2442,2442,2442,2442,2442,2442,2442,2442,2442,2442,2442,2442,2442,2442,2442,2442,2442,2442,2442,2442,
2442,2442,2442,2442,2442,2442,2442,2442,2442,2442,2442,2442,2442,2442,2442,2442,2442,2442,2442,2442,2442,2442,2442,2442,2442,2442,2442,2442,2442,2442,2442,2442,2442,2442,2442,2442,2442,2442,2442,2442,2442,2442,2442,2442,2442,2442,2442,2442,2442,2442,2442,2442,2442,2442,2442,2442,2442,2442,2442,2442,2442,2442,2442,2442,2442,2442,2442,2442,2442,2442,2442,2442,2442,2442,2442,2442,2442,2442,2442,2442,2442,2442,2442,2442,2442,2442,2442,2442,2442,2442,2442,2442,
2442,2442,2442,2442,2442,2442,2442,2442,2442,2442,2442,2442,2442,2442,2442,2442,2442,2442,2442,2442,2442,2442,2442,2442,2442,2442,2442,2442,2442,2442,2442,2442,2442,2442,2442,2442,2442,2442,2442,2442,2442,2442,2442,2442,2442,2442,2442,2442,2442,2442,2442,2442,2442,2442,2442,2442,2442,2442,2442,2442,2442,2442,2442,2442,2442,2442,2442,2442,2442,2442,2442,2442,2442,2442,2442,2442,2442,2442,2442,2442,2442,2442,2442,2442,2442,2442,2442,2442,2442,2442,2442,2442,
2442,2442,2442,2442,2442,2442,2442,2442,2442,2442,2442,2442,2442,2442,2442,2442,2442,2442,2442,2442,2442,2442,2442,2442,2442,2442,2442,2442,2442,2442,2442,2442,2442,2442,2442,2442,2442,2442,2442,2442,2442,2442,2442,2442,2442,2442,2442,2442,2442,2442,2442,2442,2442,2442,2442,2442,2442,2442,2442,2442,2442,2442,2442,2442,2442,2442,2442,2442,2442,2442,2442,2442,2442,2442,2442,2442,2442,2442,2442,2442,2442,2442,2442,2442,2442,2442,2442,2442,2442,2442,2442,2442,
2442,2442,2442,2442,2442,2442,2442,2442,2442,2442,2442,2442,2442,2442,2442,2442,2442,2442,2442,2442,2442,2442,2442,2442,2442,2442,2442,2442,2442,2442,2442,2442,2442,2442,2442,2442,2442,2442,2442,2442,2442,2442,2442,2442,2442,2442,2442,2442,2442,2442,2442,2442,2442,2442,2442,2442,2442,2442,2442,2442,2442,2442,2442,2442,2442,2442,2442,2442,2442,2442,2442,2442,2442,2442,2442,2442,2442,2442,2442,2442,2442,2442,2442,2442,2442,2442,2442,2442,2442,2442,2442,2442,
2442,2442,2442,2442,2442,2442,2442,2442,2442,2442,2442,2442,2442,2442,2442,2442,2442,2442,2442,2442,2442,2442,2442,2442,2442,2442,2442,2442,2442,2442,2442,2442,2442,2442,2442,2442,2442,2442,2442,2442,2442,2442,2442,2442,2442,2442,2442,2442,2442,2442,2442,2442,2442,2442,2442,2442,2442,2442,2442,2442,2442,2442,2442,2442,2442,2442,2442,2442,2442,2442,2442,2442,2442,2442,2442,2442,2442,2442,2442,2442,2442,2442,2442,2442,2442,2442,2442,2442,2442,2442,2442,2442,
2442,2442,2442,2442,2442,2442,2442,2442,2442,2442,2442,2442,2442,2442,2442,2442,2442,2442,2442,2442,2442,2442,2442,2442,2442,2442,2442,2442,2442,2442,2442,2442,2442,2442,2442,2442,2442,2442,2442,2442,2442,2442,2442,2442,2442,2442,2442,2442,2442,2442,2442,2442,2442,2442,2442,2442,2442,2442,2442,2442,2442,2442,2442,2442,2442,2442,2442,2442,2442,2442,2442,2442,2442,2442,2442,2442,2442,2442,2442,2442,2442,2442,2442,2442,2442,2442,2442,2442,2442,2442,2442,2442,
2442,2442,2442,2442,2442,2442,2442,2442,2442,2442,2442,2442,2442,2442,2442,2442,2442,2442,2442,2442,2442,2442,2442,2442,2442,2442,2442,2442,2442,2442,2442,2442,2442,2442,2442,2442,2442,2442,2442,2442,2442,2442,2442,2442,2442,2442,2442,2442,2442,2442,2442,2442,2442,2442,2442,2442,2442,2442,2442,2442,2442,2442,2442,2442,2442,2442,2442,2442,2442,2442,2442,2442,2442,2442,2442,2442,2442,2442,2442,2442,2442,2442,2442,2442,2442,2442,2442,2442,2442,2442,2442,2442,
2442,2442,2442,2442,2442,2442,2442,2442,2442,2442,2442,2442,2442,2442,2442,2442,2442,2442,2442,2442,2442,2442,2442,2442,2442,2442,2442,2442,2442,2442,2442,2442,2442,2442,2442,2442,2442,2442,2442,2442,2442,2442,2442,2442,2442,2442,2442,2442,2442,2442,2442,2442,2442,2442,2442,2442,2442,2442,2442,2442,2442,2442,2442,2442,2442,2442,2442,2442,2442,2442,2442,2442,2442,2442,2442,2442,2442,2442,2442,2442,2442,2442,2442,2442,2442,2442,2442,2442,2442,2442,2442,2442,
2442,2442,2442,2442,2442,2442,2442,2442,2442,2442,2442,2442,2442,2442,2442,2442,2442,2442,2442,2442,2442,2442,2442,2442,2442,2442,2442,2442,2442,2442,2442,2442,2442,2442,2442,2442,2442,2442,2442,2442,2442,2442,2442,2442,2442,2442,2442,2442,2442,2442,2442,2442,2442,2442,2442,2442,2442,2442,2442,2442,2442,2442,2442,2442,2442,2442,2442,2442,2442,2442,2442,2442,2442,2442,2442,2442,2442,2442,2442,2442,2442,2442,2442,2442,2442,2442,2442,2442,2442,2442,2442,2442,
2442,2442,2442,2442,2442,2442,2442,2442,2442,2442,2442,2442,2442,2442,2442,2442,2442,2442,2442,2442,2442,2442,2442,2442,2442,2442,2442,2442,2442,2442,2442,2442,2442,2442,2442,2442,2442,2442,2442,2442,2442,2442,2442,2442,2442,2442,2442,2442,2442,2442,2442,2442,2442,2442,2442,2442,2442,2442,2442,2442,2442,2442,2442,2442,2442,2442,2442,2442,2442,2442,2442,2442,2442,2442,2442,2442,2442,2442,2442,2442,2442,2442,2442,2442,2442,2442,2442,2442,2442,2442,2442,2442,
2442,2442,2442,2442,2442,2442,2442,2442,2442,2442,2442,2442,2442,2442,2442,2442,2442,2442,2442,2442,2442,2442,2442,2442,2442,2442,2442,2442,2442,2442,2442,2442,2442,2442,2442,2442,2442,2442,2442,2442,2442,2442,2442,2442,2442,2442,2442,2442,2442,2442,2442,2442,2442,2442,2442,2442,2442,2442,2442,2442,2442,2442,2442,2442,2442,2442,2442,2442,2442,2442,2442,2442,2442,2442,2442,2442,2442,2442,2442,2442,2442,2442,2442,2442,2442,2442,2442,2442,2442,2442,2442,2442,
2442,2442,2442,2442,2442,2442,2442,2442,2442,2442,2442,2442,2442,2442,2442,2442,2442,2442,2442,2442,2442,2442,2442,2442,2442,2442,2442,2442,2442,2442,2442,2442,2442,2442,2442,2442,2442,2442,2442,2442,2442,2442,2442,2442,2442,2442,2442,2442,2442,2442,2442,2442,2442,2442,2442,2442,2442,2442,2442,2442,2442,2442,2442,2442,2442,2442,2442,2442,2442,2442,2442,2442,2442,2442,2442,2442,2442,2442,2442,2442,2442,2442,2442,2442,2442,2442,2442,2442,2442,2442,2442,2442,
2442,2442,2442,2442,2442,2442,2442,2442,2442,2442,2442,2442,2442,2442,2442,2442,2442,2442,2442,2442,2442,2442,2442,2442,2442,2442,2442,2442,2442,2442,2442,2442,2442,2442,2442,2442,2442,2442,2442,2442,2442,2442,2442,2442,2442,2442,2442,2442,2442,2442,2442,2442,2442,2442,2442,2442,2442,2442,2442,2442,2442,2442,2442,2442,2442,2442,2442,2442,2442,2442,2442,2442,2442,2442,2442,2442,2442,2442,2442,2442,2442,2442,2442,2442,2442,2442,2442,2442,2442,2442,2442,2442
</data>
 </layer>
 <layer id="1" name="Base" width="92" height="52">
  <data encoding="csv">
2364,2364,2364,2364,2364,2365,0,0,0,2363,2364,2364,2364,2364,2364,2364,2364,2364,2364,2364,2364,2364,2364,2364,2364,2364,2365,0,0,2363,2364,2364,2364,2364,2364,2364,2364,2364,2364,2364,2364,2364,2365,0,0,0,699,699,753,699,753,0,2313,2368,2365,0,2363,2364,2364,2364,2364,2364,2364,2364,2364,2364,2364,2364,2364,2364,2364,2317,2414,2415,2313,2314,2368,2364,2364,2364,2364,2364,2364,2364,2365,0,0,0,0,0,0,0,
2364,2364,2364,2364,2364,2365,0,0,0,2363,2364,2364,2364,2364,2364,2364,2364,2364,2364,2364,2364,2364,2364,2364,2364,2364,2365,0,0,2413,2318,2364,2364,2364,2364,2364,2364,2364,2364,2364,2364,2364,2365,0,0,0,701,699,699,699,699,0,2363,2364,2365,0,2413,2318,2364,2364,2364,2364,2364,2364,2364,2364,2364,2364,2364,2364,2317,2415,0,2313,2368,2364,2364,2364,2364,2364,2364,2364,2364,2364,2367,2314,2315,0,0,0,0,0,
2364,2364,2364,2364,2317,2415,0,0,2313,2368,2364,2364,2317,2318,2364,2317,2414,2414,2318,2364,2364,2364,2364,2364,2364,2317,2415,0,0,0,2413,2414,2414,2414,2318,2364,2364,2364,2364,2364,2317,2414,2415,0,699,0,699,753,702,752,699,0,2363,2364,2365,0,0,2363,2364,2364,2364,2364,2364,2364,2364,2364,2364,2364,2364,2364,2365,0,0,2363,2364,2364,2364,2364,2364,2364,2364,2364,2364,2364,2364,2364,2365,0,0,0,0,0,
2364,2364,2364,2364,2365,0,0,0,2363,2364,2317,2414,2415,2413,2414,2415,0,0,2413,2414,2414,2414,2318,2364,2364,2365,0,0,0,0,0,0,0,0,2363,2364,2364,2364,2317,2414,2415,0,0,0,699,699,699,749,699,699,0,2313,2368,2364,2365,0,0,2413,2318,2364,2364,2364,2364,2364,2364,2364,2364,2364,2364,2364,2365,0,2313,2368,2364,2364,2364,2364,2364,2364,2364,2364,2364,2364,2364,2364,2365,0,0,0,0,0,
2364,2364,2364,2317,2415,0,0,0,2363,2364,2365,0,0,0,0,0,0,0,0,0,0,0,2413,2414,2414,2415,0,0,0,0,0,0,0,0,2413,2414,2414,2414,2415,0,0,0,0,0,749,754,699,699,699,699,0,2363,2364,2364,2367,2315,0,0,2363,2364,2364,2364,2364,2364,2364,2364,2364,2364,2364,2317,2415,0,2363,2364,2364,2364,2364,2364,2364,2364,2364,2364,2364,2364,2364,2364,2365,0,0,0,0,0,
2364,2364,2364,2365,0,0,0,0,2413,2414,2415,0,0,0,0,0,2313,2314,2314,2314,2314,2315,0,0,0,0,0,0,0,0,2313,2314,2314,2315,0,0,0,0,0,0,0,0,0,702,700,699,702,701,699,754,0,2363,2364,2364,2364,2365,0,0,2413,2318,2364,2364,2364,2364,2364,2364,2364,2364,2317,2415,0,0,2363,2364,2364,2364,2364,2364,2364,2364,2364,2364,2364,2364,2364,2364,2367,2315,0,0,0,0,
2364,2364,2364,2365,0,0,2313,2314,2314,2315,0,0,0,0,0,2313,2368,2364,2364,2364,2364,2367,2314,2315,0,0,0,0,0,0,2363,2364,2364,2367,2314,2315,0,0,0,2306,2307,2308,699,699,699,699,699,699,701,700,0,2413,2318,2364,2364,2365,0,0,0,2363,2364,2364,2364,2364,2364,2364,2317,2414,2415,0,0,0,2413,2414,2414,2318,2364,2364,2364,2364,2364,2364,2364,2364,2364,2364,2364,2365,0,0,0,0,
2364,2364,2364,2365,0,0,2363,2364,2364,2367,2314,2314,2314,2315,0,2363,2364,2364,2364,2364,2364,2364,2364,2365,0,0,0,0,0,0,2413,2318,2364,2364,2364,2367,2315,0,2306,2361,2310,2408,699,701,699,699,753,699,699,6059,699,0,2363,2364,2364,2365,0,0,0,2363,2364,2364,2364,2364,2364,2364,2365,0,0,0,0,2313,2314,2314,2315,2413,2318,2364,2364,2364,2364,2364,2364,2364,2364,2364,2364,2365,0,0,0,0,
2364,2364,2364,2365,0,0,2363,2364,2364,2364,2364,2364,2364,2365,0,2363,2364,2364,2364,2364,2364,2364,2364,2367,2314,2314,2314,2314,2314,2315,0,2413,2318,2364,2364,2364,2365,0,2356,2546,2358,0,703,699,699,754,699,699,699,6059,699,699,2363,2364,2364,2365,0,0,0,2413,2414,2318,2364,2364,2364,2317,2415,0,0,2313,2314,2368,2364,2364,2367,2315,2413,2318,2364,2364,2364,2364,2364,2364,2317,2414,2414,2415,0,0,0,0,
2364,2364,2364,2365,0,0,2413,2414,2318,2364,2364,2364,2317,2415,0,2363,2364,2364,2364,2364,2364,2364,2364,2364,2364,2364,2364,2364,2364,2365,0,0,2363,2364,2364,2317,2415,0,2356,2310,2408,0,0,699,699,699,699,699,700,6059,0,0,2413,2318,2364,2365,0,0,0,0,0,2413,2414,2414,2414,2415,0,0,0,2363,2364,2364,2364,2364,2364,2365,0,2413,2414,2414,2318,2364,2364,2317,2415,0,0,0,0,0,0,0,
2364,2364,2364,2367,2315,0,0,0,2413,2414,2318,2364,2367,2315,0,2413,2318,2364,2364,2364,2364,2364,2364,2364,2364,2364,2364,2364,2364,2367,2314,2315,2413,2414,2414,2415,0,0,2406,2408,0,0,699,752,699,699,699,700,699,0,0,0,0,2413,2318,2365,0,0,0,0,0,0,0,0,0,0,0,0,0,2363,2364,2364,2364,2364,2317,2415,0,0,0,0,2413,2414,2414,2415,0,0,0,0,0,0,0,0,
2364,2364,2364,2364,2367,2315,0,0,0,0,2413,2318,2364,2367,2314,2314,2368,2364,2364,2364,2364,2364,2364,2364,2364,2364,2364,2364,2364,2364,2364,2367,2315,0,0,0,0,0,0,0,749,699,699,699,700,699,700,701,699,0,0,0,0,0,2363,2364,2315,699,699,699,699,752,699,699,699,699,699,753,699,2413,2318,2364,2364,2364,2365,2313,2314,2314,2315,0,0,0,0,0,0,0,0,0,0,0,2313,2314,
2364,2364,2364,2364,2364,2367,2314,2314,2315,0,0,2363,2364,2364,2364,2364,2364,2364,2364,2364,2364,2364,2364,2364,2364,2364,2364,2364,2364,2364,2364,2364,2365,0,0,0,0,0,0,0,699,699,752,699,699,699,752,699,699,743,0,0,0,0,2413,2414,2415,0,699,699,699,699,753,754,699,699,699,0,699,0,2363,2364,2364,2317,2415,2363,2364,2364,2367,2315,0,0,0,0,0,0,0,0,0,0,2363,2364,
2364,2364,2364,2364,2364,2364,2364,2364,2367,2315,0,2413,2414,2318,2364,2364,2364,2364,2364,2364,2364,2364,2364,2364,2364,2364,2364,2364,2364,2364,2364,2317,2415,0,2313,2314,2314,2315,0,0,699,754,699,699,752,703,699,699,703,743,0,0,0,0,0,0,0,699,699,699,699,699,699,699,699,750,754,0,743,0,2363,2364,2364,2365,0,2363,2364,2364,2364,2365,0,0,0,0,0,0,0,2313,2314,2314,2368,2364,
2364,2364,2364,2364,2364,2364,2364,2364,2364,2367,2315,0,0,2413,2414,2318,2364,2364,2364,2364,2364,2364,2364,2364,2364,2364,2364,2364,2317,2414,2414,2415,0,2313,2368,2364,2364,2365,0,0,699,704,699,699,699,699,699,704,704,743,0,0,0,0,0,0,0,699,699,699,699,699,699,699,752,699,749,0,0,0,2363,2364,2317,2415,0,2363,2364,2364,2364,2367,2314,2314,2314,2315,0,0,0,2363,2364,2364,2364,2364,
2364,2364,2364,2364,2364,2364,2364,2364,2364,2364,2365,0,0,0,2313,2368,2364,2364,2364,2364,2317,2414,2414,2414,2318,2364,2364,2364,2365,0,0,0,2313,2368,2364,2364,2364,2367,2315,0,6059,701,699,699,701,699,699,699,749,743,0,0,0,0,0,0,699,750,701,699,699,699,699,699,699,699,699,0,0,0,2363,2364,2365,0,0,2363,2364,2364,2364,2364,2364,2364,2364,2365,0,0,2313,2368,2364,2364,2364,2364,
2364,2364,2364,2364,2364,2364,2364,2364,2364,2317,2415,0,0,0,2363,2364,2364,2364,2364,2317,2415,0,0,0,2413,2414,2414,2414,2415,0,0,0,2363,2364,2364,2364,2364,2364,2365,0,699,699,699,699,699,699,699,699,699,0,0,0,0,0,0,0,703,699,699,699,699,699,699,699,702,699,700,0,0,0,2413,2414,2415,0,0,2413,2318,2364,2364,2364,2364,2364,2364,2367,2315,0,2363,2364,2364,2364,2364,2364,
2364,2364,2364,2364,2364,2364,2364,2364,2317,2415,0,0,0,0,2413,2414,2414,2414,2414,2415,0,0,0,0,0,0,0,0,0,0,0,0,2413,2414,2414,2318,2364,2317,2415,0,699,699,699,700,699,702,699,699,699,0,0,0,0,0,0,0,699,702,699,699,699,699,699,699,699,704,699,0,743,0,0,0,0,0,0,0,2413,2318,2364,2364,2364,2364,2364,2364,2367,2314,2368,2364,2364,2364,2364,2364,
2364,2364,2364,2364,2364,2364,2364,2364,2365,0,2313,2314,2314,2315,0,0,0,0,0,0,0,0,0,0,0,0,0,0,0,0,0,0,0,0,0,2413,2414,2415,0,0,0,0,0,0,0,0,0,0,0,0,0,0,0,0,0,0,0,0,0,0,0,0,0,0,0,0,0,0,743,0,699,699,0,0,0,0,0,2363,2364,2364,2364,2317,2414,2318,2364,2364,2364,2364,2364,2364,2364,2364,
2364,2364,2364,2364,2364,2364,2364,2364,2367,2314,2368,2364,2317,2415,0,0,0,0,0,753,699,699,699,754,0,699,0,0,0,0,0,699,699,703,699,699,752,699,699,699,699,699,750,699,699,752,699,699,0,0,0,0,0,0,0,0,0,0,0,0,0,0,0,0,0,0,0,0,699,699,703,750,0,0,0,0,0,2363,2364,2364,2317,2415,0,2413,2318,2364,2364,2317,2318,2364,2364,2364,
2364,2364,2364,2364,2364,2364,2317,2414,2318,2364,2364,2364,2365,0,0,0,0,0,2299,2300,2301,713,713,713,2299,0,0,2313,2314,2314,2314,2314,2314,2314,2314,2314,2314,2315,699,749,699,699,699,699,699,699,699,704,0,0,0,0,0,0,0,0,0,0,0,0,0,0,0,0,0,0,0,0,0,750,699,699,0,0,0,0,0,2413,2414,2414,2415,0,0,0,2413,2414,2414,2415,2363,2364,2364,2364,
2364,2364,2364,2364,2364,2317,2415,0,2363,2364,2317,2414,2415,0,0,2292,2294,749,2349,0,0,763,763,763,2349,0,0,2363,2364,2364,2364,2364,2364,2364,2364,2364,2364,2365,0,0,699,699,699,699,750,753,699,699,0,0,0,0,0,0,0,0,0,0,0,0,0,0,0,0,0,0,0,2313,2314,2314,2315,0,0,0,0,0,0,0,0,0,0,0,0,0,0,0,2313,2314,2368,2364,2364,2364,
2364,2364,2364,2364,2317,2415,0,0,2363,2317,2415,0,0,0,0,2342,0,0,0,0,0,699,701,699,2349,0,0,2363,2364,2296,2393,2393,2393,2393,2393,2297,2364,2365,0,0,699,699,703,699,699,699,699,699,0,0,0,0,0,0,0,0,0,0,0,0,0,0,0,0,0,0,0,2363,2364,2364,2367,2314,2315,0,0,0,0,0,0,0,0,0,0,0,0,0,2363,2364,2364,2364,2364,2317,
2364,2364,2364,2364,2365,0,0,0,2413,2415,0,0,0,0,0,2342,0,0,0,0,0,2300,2300,2300,2354,0,0,2363,2364,2346,2293,2293,2293,2293,2293,2347,2364,2365,0,0,699,699,699,0,699,699,699,699,699,0,0,0,0,0,0,0,0,0,0,0,0,0,0,0,0,0,0,2363,2364,2364,2364,2364,2367,2315,0,0,0,0,0,0,0,0,0,0,0,0,2363,2364,2364,2364,2364,2365,
2364,2364,2364,2364,2365,0,0,0,0,0,0,0,0,2292,2357,2358,0,0,0,0,0,0,0,0,0,0,0,2363,2364,2364,2364,2364,2364,2364,2364,2364,2364,2365,0,0,699,699,699,0,699,699,704,699,753,0,0,0,0,0,0,0,0,0,0,0,0,0,0,0,0,0,0,2413,2414,2318,2364,2364,2364,2365,2313,2314,2314,2314,2315,0,0,0,0,0,0,0,2413,2414,2414,2414,2414,2415,
2364,2364,2364,2317,2415,0,0,2292,2357,2357,2357,2357,2357,2357,2546,2358,0,0,0,0,0,0,0,0,0,0,0,2413,2414,2414,2414,2414,2414,2414,2414,2414,2414,2415,0,0,0,0,0,0,0,0,0,0,0,0,0,0,0,0,0,0,0,0,0,0,0,0,0,0,0,0,0,0,0,2413,2414,2414,2414,2415,2363,2364,2364,2364,2365,0,0,2306,2307,0,0,0,0,0,0,0,0,0,
2364,2317,2414,2415,0,0,0,2356,2357,2546,2500,2357,2501,2502,2357,2358,0,0,0,0,0,0,0,0,0,0,0,0,0,0,0,0,0,0,0,0,0,0,0,0,0,0,0,699,699,751,699,700,699,699,0,0,0,0,0,0,0,0,0,0,0,0,0,0,0,0,0,0,0,0,0,0,0,0,2363,2364,2364,2364,2365,0,2306,2361,2357,2357,2360,2408,0,0,0,0,0,0,
2364,2365,0,0,0,0,0,2406,2407,2407,2407,2311,2551,2552,2498,2358,0,0,0,0,0,0,0,0,0,0,0,0,0,0,0,0,0,0,0,0,0,0,0,0,0,0,0,699,699,699,699,699,699,749,0,0,0,0,0,0,0,0,0,0,0,0,0,0,0,0,0,0,0,0,0,0,0,0,2413,2414,2414,2414,2415,0,2356,2357,2357,2357,2357,0,2313,2368,2367,2314,2314,2314,
2414,2415,0,0,0,0,2315,0,0,0,0,2356,2357,2546,2310,2408,0,0,0,0,0,0,0,0,0,0,0,0,0,0,0,2313,2314,2314,2315,0,0,0,0,2313,2314,2314,2314,2315,0,0,0,699,699,699,2313,2314,2314,2315,0,0,0,0,0,0,0,0,0,0,0,0,0,0,0,0,0,0,0,0,0,0,0,0,2306,2307,2361,2357,2357,2357,2310,0,2363,2364,2364,2364,2364,2364,
2300,2300,2300,2300,2300,2300,2365,0,0,0,0,0,0,0,0,0,0,0,0,0,0,0,2306,2307,2307,2307,2307,2308,0,0,0,2363,2364,2364,2367,2315,0,0,0,2363,2364,2364,2317,2415,0,0,0,0,0,0,2363,2364,2364,2365,0,0,0,0,0,0,0,0,0,0,0,0,0,0,0,0,0,0,0,0,0,0,2306,2307,2361,2357,2357,2357,2357,2357,2358,2313,2368,2364,2364,2364,2364,2364,
2350,2350,2350,2350,2350,2350,2367,2315,0,0,2394,0,0,0,0,0,0,0,0,0,0,0,2356,2357,2357,2357,2357,2360,2308,0,0,2413,2414,2318,2364,2365,0,0,0,2413,2414,2414,2415,0,0,0,0,0,0,0,2363,2364,2317,2415,0,0,0,0,0,0,0,0,0,0,0,0,0,0,0,0,0,0,0,0,0,0,2406,2407,2407,2407,2407,2407,2407,2407,2408,2368,2364,2364,2364,2364,2364,2364,
2350,2350,2350,2350,2350,2350,2350,2367,2315,0,0,0,2313,2314,2314,2314,2314,2315,0,0,0,0,0,2357,2357,2357,2357,2357,2358,0,0,0,0,2413,2414,2415,0,0,0,0,0,0,0,0,0,0,0,0,0,0,2363,2364,2365,0,0,0,0,0,0,0,0,0,0,0,0,0,0,0,0,0,0,0,0,0,2313,2314,2314,2314,2314,2315,0,0,0,0,0,2364,2364,2364,2364,2364,2364,2364,
2350,2350,2350,2350,2350,2350,2350,2350,2365,0,0,0,2363,2364,2364,2364,2364,2365,0,0,0,0,0,0,0,0,2357,2547,2358,0,0,0,0,0,0,0,0,0,0,0,0,0,0,0,0,0,0,0,0,0,2363,2364,2367,2315,0,0,0,0,0,0,0,0,0,0,0,0,0,0,0,0,0,0,0,2313,2368,2364,2364,2364,2364,2365,0,0,0,0,0,0,2414,2414,2318,2364,2317,2414,
2350,2350,2350,2350,2350,2350,2350,2350,2365,0,0,0,2413,2318,2364,2364,2317,2415,0,0,2313,2314,2315,0,0,0,0,2357,2358,0,0,0,0,0,0,0,0,0,0,0,0,0,0,0,0,0,0,0,0,0,2413,2318,2364,2365,0,0,0,0,0,0,0,0,0,0,0,0,0,0,0,0,0,0,2313,2368,2364,2364,2364,2364,2364,2365,0,0,0,0,0,2313,2314,2315,0,0,0,0,
2350,2350,2350,2350,2303,2400,2400,2400,2401,0,0,0,0,2413,2414,2414,2415,0,0,0,2363,2364,2365,2313,2314,2314,2315,0,0,0,0,0,0,0,0,0,0,0,0,0,0,0,0,0,0,0,0,0,0,0,0,2413,2414,2415,0,0,0,0,0,0,0,0,0,0,0,0,0,0,0,0,0,0,2363,2364,2364,2364,2364,2364,2364,2365,0,0,0,0,0,2363,2364,2365,0,0,0,0,
2400,2400,2400,2400,2401,0,0,0,0,0,0,0,0,2313,2314,2314,2315,0,0,2313,2368,2364,2367,2368,2364,2364,2365,0,0,0,0,0,0,0,6059,6059,0,0,0,0,0,0,0,0,0,0,0,0,0,0,0,0,0,0,0,0,0,0,0,0,0,0,0,0,0,0,0,0,0,0,0,0,2363,2364,2364,2364,2364,2364,2364,2367,2315,0,0,0,2313,2368,2364,2367,2315,0,0,0,
2314,2315,0,0,0,0,0,0,0,2313,2314,2314,2314,2368,2364,2364,2367,2315,0,2363,2364,2364,2364,2364,2364,2364,2367,2315,0,0,0,0,0,0,5459,5459,0,0,0,0,0,0,0,0,0,0,0,0,0,0,0,0,0,0,0,0,0,0,0,0,0,0,2313,2314,0,0,2313,2314,2315,0,0,0,2363,2364,2364,2364,2364,2364,2364,2364,2365,0,0,0,2363,2364,2364,2364,2365,0,0,0,
2364,2367,2314,2314,2314,2314,2314,2315,2313,2368,2364,2364,2364,2364,2364,2364,2364,2365,0,2413,2414,2318,2364,2364,2364,2364,2364,2365,0,0,0,0,0,0,6059,6059,0,0,0,0,0,0,0,0,0,0,0,0,0,0,0,0,0,0,0,0,0,0,0,0,0,2313,2368,2364,0,0,2363,2364,2367,2315,0,0,2363,2364,2364,2317,2414,2414,2318,2364,2365,0,0,0,2363,2364,2364,2364,2365,0,0,0,
2364,2364,2364,2364,2364,2364,2364,2367,2368,2364,2364,2364,2364,2364,2364,2364,2364,2365,0,0,0,2363,2364,2364,2364,2364,2364,2365,0,0,0,0,0,0,5459,5459,0,0,0,0,0,0,0,0,0,0,0,0,0,0,0,0,0,0,0,0,0,0,0,0,0,2363,2364,2364,0,0,2363,2364,2364,2367,2315,0,2363,2364,2317,2415,0,0,2413,2414,2415,0,0,2313,2368,2364,2364,2364,2365,0,0,0,
2364,2364,2364,2364,2364,2364,2364,2364,2364,2364,2364,2364,2364,2364,2364,2364,2364,2365,0,0,0,2413,2318,2364,2364,2364,2317,2415,0,0,0,0,6059,6059,6059,6059,6059,6059,6059,0,0,0,0,0,0,0,0,0,0,0,0,0,0,0,0,0,0,0,0,0,0,0,0,0,0,2313,2368,2364,2364,2364,2365,0,2413,2414,2415,0,0,0,0,0,0,0,0,2363,2364,2364,2364,2317,2415,0,0,0,
2364,2364,2364,2364,2364,2364,2364,2364,2364,2364,2364,2364,2364,2364,2364,2364,2364,2365,0,0,0,0,2363,2364,2364,2364,2365,0,0,0,0,6059,6059,6059,6059,6059,6059,6059,6059,6059,6059,0,0,0,0,0,6059,0,0,0,6059,0,0,2313,2314,2315,0,0,0,0,0,0,0,2313,2314,2368,2364,2364,2364,2364,2365,0,0,0,0,0,0,0,0,0,0,0,0,2363,2364,2364,2364,2365,0,0,0,0,
2364,2364,2364,2364,2364,2364,2364,2364,2364,2364,2364,2364,2364,2364,2364,2364,2364,2365,0,0,0,0,2413,2318,2364,2364,2367,2315,0,0,0,0,6059,6059,6059,6059,6059,6059,6059,6059,0,0,0,0,0,0,6059,0,0,0,0,0,2313,2368,2364,2367,2314,2314,2314,2315,0,2313,2314,2368,2364,2364,2364,2364,2364,2364,2365,0,0,0,0,0,0,0,0,0,0,0,0,2363,2364,2364,2364,2367,2315,0,0,0,
2364,2364,2364,2364,2364,2364,2364,2364,2364,2364,2364,2364,2364,2364,2364,2364,2317,2415,0,0,0,0,0,2413,2318,2364,2364,2367,2315,0,0,0,6059,6059,6059,6059,6059,6059,6059,6059,6059,6059,6059,6059,6059,6059,6059,0,0,0,0,0,2363,2364,2364,2364,2364,2364,2364,2367,2314,2368,2364,2364,2364,2364,2364,2364,2364,2364,2365,0,2313,2314,2314,2315,2313,2314,2314,2314,2315,0,0,2413,2414,2318,2364,2364,2365,0,0,0,
2364,2364,2364,2364,2364,2364,2364,2364,2364,2364,2364,2364,2364,2364,2364,2364,2365,0,0,0,0,0,0,0,2413,2318,2364,2364,2365,0,0,0,0,6059,6059,6059,6059,6059,6059,6059,6059,6059,6059,6059,6059,6059,0,0,0,0,0,0,2413,2414,2318,2364,2364,2364,2364,2364,2364,2364,2364,2364,2364,2364,2364,2364,2364,2364,2367,2314,2368,2364,2364,2367,2368,2364,2364,2364,2367,2315,0,0,0,2413,2414,2414,2415,0,0,0,
2364,2364,2364,2364,2364,2364,2364,2364,2364,2364,2364,2364,2364,2364,2364,2364,2367,2314,2315,0,0,2313,2314,2314,2314,2368,2364,2364,2365,0,0,0,0,6059,0,0,0,0,0,0,0,0,0,0,0,0,0,0,0,0,0,0,0,0,2413,2318,2364,2364,2364,2364,2364,2364,2364,2364,2364,2364,2364,2364,2364,2364,2364,2364,2364,2364,2364,2364,2364,2364,2364,2364,2364,2365,0,0,0,0,0,0,0,0,0,0,
2364,2364,2364,2364,2364,2364,2364,2364,2364,2364,2364,2364,2364,2364,2364,2364,2364,2364,2365,0,0,2363,2364,2364,2364,2364,2364,2364,2365,0,0,0,0,6059,0,0,0,0,0,0,0,0,0,0,0,0,0,0,2313,2314,2314,2315,0,0,2313,2368,2364,2364,2364,2364,2364,2364,2364,2364,2364,2364,2364,2364,2364,2364,2364,2364,2364,2364,2364,2364,2364,2364,2364,2364,2364,2365,0,0,0,0,0,0,0,0,0,0,
2364,2364,2364,2364,2364,2364,2364,2364,2364,2364,2364,2364,2364,2364,2364,2364,2364,2364,2365,0,0,2363,2364,2364,2364,2364,2364,2364,2365,0,0,0,0,6059,0,0,0,0,0,0,0,0,0,0,0,6059,0,2313,2368,2364,2364,2367,2315,2313,2368,2364,2364,2364,2364,2364,2364,2364,2364,2364,2364,2364,2364,2364,2364,2364,2364,2364,2364,2364,2364,2364,2364,2364,2364,2364,2317,2415,0,0,0,0,0,0,0,0,0,0,
2364,2364,2364,2364,2364,2364,2364,2364,2364,2364,2364,2364,2364,2364,2364,2364,2364,2364,2367,2315,0,2363,2364,2364,2364,2364,2364,2364,2367,2315,0,0,0,0,0,0,0,0,0,0,0,0,0,0,0,0,0,2363,2364,2364,2364,2364,2365,2363,2364,2364,2364,2364,2364,2364,2364,2364,2364,2364,2364,2364,2364,2364,2364,2364,2364,2364,2364,2364,2364,2364,2364,2364,2317,2414,2415,0,0,0,0,0,0,0,0,0,0,0,
2364,2364,2364,2364,2364,2364,2364,2364,2364,2364,2364,2364,2364,2364,2364,2364,2364,2364,2364,2367,2315,2413,2318,2364,2364,2364,2364,2364,2364,2365,0,0,0,0,0,0,0,0,0,0,0,0,0,0,0,0,2313,2368,2364,2364,2364,2364,2365,2363,2364,2364,2364,2364,2364,2364,2364,2364,2364,2364,2364,2364,2364,2364,2364,2364,2364,2364,2317,2318,2364,2364,2317,2414,2415,0,0,0,0,0,0,0,0,0,0,0,0,0,
2364,2364,2364,2364,2364,2364,2364,2364,2364,2364,2364,2364,2364,2364,2364,2364,2364,2364,2364,2364,2365,0,2413,2414,2318,2364,2364,2364,2364,2365,0,0,0,0,0,0,0,0,0,0,0,0,0,0,0,0,2363,2364,2364,2364,2364,2317,2415,2413,2414,2414,2414,2318,2364,2364,2364,2364,2364,2364,2364,2364,2364,2364,2364,2364,2364,2364,2365,2413,2414,2414,2415,0,0,0,0,0,0,0,0,0,0,0,0,0,0,0,
2364,2364,2364,2364,2364,2364,2364,2364,2364,2364,2364,2364,2364,2364,2317,2414,2318,2364,2364,2364,2365,0,0,0,2363,2364,2364,2364,2364,2365,0,0,0,0,0,0,0,0,0,0,0,0,0,0,0,0,2413,2318,2364,2364,2364,2367,2315,0,0,0,0,2363,2364,2364,2364,2364,2364,2364,2364,2364,2364,2364,2364,2364,2364,2364,2367,2315,0,0,0,0,0,0,0,0,0,0,0,0,0,0,0,0,0,0,
2364,2364,2364,2364,2364,2364,2364,2364,2364,2364,2364,2317,2414,2414,2415,0,2363,2364,2364,2317,2415,0,0,0,2363,2364,2364,2364,2364,2365,0,0,0,0,0,0,0,0,0,0,0,0,0,0,0,0,0,2363,2364,2364,2364,2364,2365,0,0,0,0,2413,2414,2414,2318,2364,2364,2364,2364,2364,2364,2364,2364,2364,2364,2364,2364,2365,0,0,0,0,0,0,0,0,0,0,0,0,0,0,0,0,0,0
</data>
 </layer>
 <layer id="15" name="Terrain" width="92" height="52">
  <data encoding="csv">
0,0,0,0,0,0,0,0,0,0,0,0,0,0,0,0,0,0,0,0,0,0,0,0,0,0,0,0,0,0,0,0,0,0,0,0,0,0,0,0,0,0,0,0,0,0,6059,6059,6059,6059,6060,0,0,0,0,0,0,0,0,0,0,0,0,0,0,0,0,0,0,0,0,0,0,0,0,0,0,0,0,0,0,0,0,0,0,0,0,0,0,0,0,0,
0,0,0,0,0,0,0,0,0,0,0,0,0,0,0,0,0,0,0,0,0,0,0,0,0,0,0,0,0,0,0,0,0,0,0,0,0,0,0,0,0,0,0,0,0,0,6059,6059,6059,6059,6060,0,0,0,0,0,0,0,0,0,0,0,0,0,0,0,0,0,0,0,0,0,0,0,0,0,0,0,0,0,0,0,0,0,0,0,0,0,0,0,0,0,
0,0,0,0,0,0,0,0,0,0,0,0,0,0,0,0,0,0,0,0,0,0,0,0,0,0,0,0,0,0,0,0,0,0,0,0,0,0,0,0,0,0,0,0,0,6059,6059,6059,6059,6178,6100,0,0,0,0,0,0,0,0,0,0,0,0,0,0,0,0,0,0,0,0,0,0,0,0,0,0,0,0,0,0,0,0,0,0,0,0,0,0,0,0,0,
0,0,0,0,0,0,0,0,0,0,0,0,0,0,0,0,0,0,0,0,0,0,0,0,0,0,0,0,0,0,0,0,0,0,0,0,0,0,0,0,0,0,0,0,0,6059,6059,6059,6059,6060,0,0,0,0,0,0,0,0,0,0,0,0,0,0,0,0,0,0,0,0,0,0,0,0,0,0,0,0,0,0,0,0,0,0,0,0,0,0,0,0,0,0,
0,0,0,0,0,0,0,0,0,0,0,0,0,0,0,0,0,0,0,0,0,0,0,0,0,0,0,0,0,0,0,0,0,0,0,0,0,0,0,0,0,0,0,0,0,6059,6059,6059,6059,6060,0,0,0,0,0,0,0,0,0,0,0,0,0,0,0,0,0,0,0,0,0,0,0,0,0,0,0,0,0,0,0,0,0,0,0,0,0,0,0,0,0,0,
0,0,0,0,0,0,0,0,0,0,0,0,0,0,0,0,0,0,0,0,0,0,0,0,0,0,0,0,0,0,0,0,0,0,0,0,0,0,0,0,0,0,0,0,6059,6059,6059,6059,6059,6060,0,0,0,0,0,0,0,0,0,0,0,0,0,0,0,0,0,0,0,0,0,0,0,0,0,0,0,0,0,0,0,0,0,0,0,0,0,0,0,0,0,0,
0,0,0,0,0,0,0,0,0,0,0,0,0,0,0,0,0,0,0,0,0,0,0,0,0,0,0,0,0,0,0,0,0,0,0,0,0,0,0,0,0,0,0,6059,6059,6059,6059,6059,6059,6258,6020,0,0,0,0,0,0,0,0,0,0,0,0,0,0,0,0,0,0,0,0,0,0,0,0,0,0,0,0,0,0,0,0,0,0,0,0,0,0,0,0,0,
0,0,0,0,0,0,0,0,0,0,0,0,0,0,0,0,0,0,0,0,0,0,0,0,0,0,0,0,0,0,0,0,0,0,0,0,0,0,0,0,0,0,6058,6059,6059,6059,6059,6059,6059,0,6060,0,0,0,0,0,0,0,0,0,0,0,0,0,0,0,0,0,0,0,0,0,0,0,0,0,0,0,0,0,0,0,0,0,0,0,0,0,0,0,0,0,
0,0,0,0,0,0,0,0,0,0,0,0,0,0,0,0,0,0,0,0,0,0,0,0,0,0,0,0,0,0,0,0,0,0,0,0,0,0,0,0,0,0,6098,6180,6059,6059,6059,6059,6059,0,6258,6020,0,0,0,0,0,0,0,0,0,0,0,0,0,0,0,0,0,0,0,0,0,0,0,0,0,0,0,0,0,0,0,0,0,0,0,0,0,0,0,0,
0,0,0,0,0,0,0,0,0,0,0,0,0,0,0,0,0,0,0,0,0,0,0,0,0,0,0,0,0,0,0,0,0,0,0,0,0,0,0,0,0,0,0,6220,6059,6059,6059,6059,6059,0,6059,6060,0,0,0,0,0,0,0,0,0,0,0,0,0,0,0,0,0,0,0,0,0,0,0,0,0,0,0,0,0,0,0,0,0,0,0,0,0,0,0,0,
0,0,0,0,0,0,0,0,0,0,0,0,0,0,0,0,0,0,0,0,0,0,0,0,0,0,0,0,0,0,0,0,0,0,0,0,0,0,0,0,0,0,6018,6260,6059,6059,6059,6059,6059,6059,6059,6060,0,0,0,0,0,0,0,0,0,0,0,0,0,0,0,0,0,0,0,0,0,0,0,0,0,0,0,0,0,0,0,0,0,0,0,0,0,0,0,0,
0,0,0,0,0,0,0,0,0,0,0,0,0,0,0,0,0,0,0,0,0,0,0,0,0,0,0,0,0,0,0,0,0,0,0,0,0,0,1092,0,6018,6259,6260,6059,6059,6059,6059,6059,6059,6059,6178,6100,0,0,0,2364,2356,2357,0,0,0,0,0,763,763,2357,2358,2299,2301,0,0,0,0,0,0,0,0,0,0,0,0,0,0,0,0,0,0,0,0,0,0,0,
0,0,0,0,0,0,0,0,0,0,0,0,0,0,0,0,0,0,0,0,0,0,0,0,0,0,0,0,0,0,0,0,0,0,0,0,0,0,0,744,6260,6059,6059,6059,6059,6059,6059,6059,6059,6178,6100,0,0,0,0,0,2356,2357,0,0,0,0,0,0,0,2357,2358,2363,2351,0,0,0,0,0,0,0,0,0,0,0,0,0,0,0,0,0,0,0,0,0,0,0,
0,0,0,0,0,0,0,0,0,0,0,0,0,0,0,0,0,0,0,0,0,0,0,0,0,0,0,0,0,0,0,0,0,0,0,0,0,0,0,744,6059,6059,6059,6059,6059,6059,6059,6059,6059,6060,0,2313,2314,2315,0,0,2356,2357,0,0,0,0,0,0,0,2357,2358,2363,2353,2301,0,0,0,0,0,0,0,0,0,0,0,0,0,0,0,0,0,0,0,0,0,0,
0,0,0,0,0,0,0,0,0,0,0,0,0,0,0,0,0,0,0,0,0,0,0,0,0,0,0,0,0,0,0,0,0,0,0,0,0,0,0,744,6059,6059,6059,6059,6059,6059,6059,6059,6059,6060,0,2363,2364,2367,2315,0,2356,2357,0,0,0,0,0,0,0,2357,2358,2363,2350,2351,0,0,0,0,0,0,0,0,0,0,0,0,0,0,0,0,0,0,0,0,0,0,
0,0,0,0,0,0,0,0,0,0,0,0,0,0,0,0,0,0,0,0,0,0,0,0,0,0,0,0,0,0,0,0,0,0,0,0,0,0,0,746,694,6059,6059,6059,6059,6059,6059,6059,6178,6100,0,2413,2318,2364,2367,2315,2356,2357,0,0,0,0,0,0,0,2357,2358,2363,2364,2351,0,0,0,0,0,0,0,0,0,0,0,0,0,0,0,0,0,0,0,0,0,0,
0,0,0,0,0,0,0,0,0,0,0,0,0,0,0,0,0,0,0,0,0,0,0,0,0,0,0,0,0,0,0,0,0,0,0,0,0,0,0,0,744,6059,6059,6059,6059,6059,6059,6059,6060,0,0,0,2363,2364,2364,2365,2356,2357,2357,2357,2357,2357,2357,2357,2357,2357,2358,2413,2414,2401,0,0,0,0,0,0,0,0,0,0,0,0,0,0,0,0,0,0,0,0,0,0,
0,0,0,0,0,0,0,0,0,0,0,0,0,0,0,0,0,0,0,0,0,0,0,0,0,0,0,0,0,0,0,0,0,0,0,0,0,0,0,0,0,6059,6059,6059,6059,6059,6059,6178,6100,0,2313,2314,2368,2364,2364,2365,2406,2407,2407,2407,2311,2357,2310,2407,2407,2407,2408,0,2306,0,0,0,0,0,0,0,0,0,0,0,0,0,0,0,0,0,0,0,0,0,0,0,
0,0,0,0,0,0,0,0,0,0,0,0,0,0,0,0,0,0,0,0,0,0,0,0,0,0,0,0,0,0,0,0,0,0,0,0,0,0,0,0,0,6059,6059,6059,6059,6059,6059,6060,0,2313,2368,2364,2364,2364,2364,2367,2315,0,0,0,2356,2357,2358,0,0,0,0,0,2356,2357,2357,1650,1650,1650,1650,0,0,0,0,0,0,0,0,0,0,0,0,0,0,0,0,0,
0,0,0,0,0,0,0,0,0,0,0,0,0,0,0,0,0,0,0,0,0,0,0,0,0,0,0,0,0,0,0,0,0,0,0,0,0,0,0,0,0,6059,6059,6059,6059,6059,6059,6060,0,2363,2364,2364,2364,2364,2364,2364,2365,0,0,0,2356,2357,2358,0,0,0,0,0,2356,2498,2357,2357,2357,2357,1650,0,0,0,0,0,0,0,0,0,0,0,0,0,0,0,0,0,
0,0,0,0,0,0,0,0,0,0,0,0,0,0,0,0,0,0,2306,2307,2307,2307,2307,2307,2307,2307,2308,0,0,0,0,0,0,0,0,0,0,0,1142,0,0,6180,6059,6059,6059,6059,6059,6060,0,2363,2364,2364,2364,2364,2364,2317,2415,0,0,0,2356,2357,2358,0,0,0,0,0,2406,2407,2407,2311,2547,2357,2357,1650,0,0,0,0,0,0,0,0,0,0,0,0,0,0,0,0,
0,0,0,0,0,0,0,0,0,0,0,0,0,0,0,0,0,0,2356,2357,0,0,0,0,0,2357,2358,0,1792,1793,1793,1793,1793,1793,1793,1793,1794,0,0,0,0,6098,6179,6180,6059,6059,6059,6060,0,2363,2364,2364,2364,2364,2364,2365,2306,2307,2308,0,2356,2357,2358,0,2306,2307,2308,0,0,0,0,2406,2407,2311,2546,2357,0,0,0,0,0,0,0,0,0,0,0,0,0,0,0,0,
0,0,0,0,0,0,0,0,0,0,0,0,0,0,0,0,0,0,2356,2357,0,0,0,0,0,2357,2358,0,1842,1843,1843,1843,1843,1843,1843,1843,1844,0,0,0,2306,2307,2308,6098,6180,6059,6059,6060,0,2413,2414,2318,2364,2364,2364,2365,2356,2357,2358,0,2356,2357,2358,0,2356,2357,2358,0,0,0,0,0,0,2406,2311,2357,0,0,0,0,0,0,0,0,0,0,0,0,0,0,0,0,
0,0,0,0,0,0,0,0,0,0,0,0,0,0,0,0,0,0,2356,2357,0,812,0,0,0,2357,2358,0,1842,1843,1843,1843,1843,1843,1843,1843,1844,0,0,0,2356,2357,2358,0,6058,6059,6059,6258,6020,0,0,2363,2364,2364,2317,2415,2406,2407,2408,0,2356,2357,2358,0,2406,2407,2408,0,0,0,0,0,0,0,2406,2407,0,0,0,0,0,0,0,0,0,0,0,0,0,0,0,0,
0,0,0,0,0,0,0,0,0,0,0,0,0,0,0,0,0,0,2356,2357,2357,2357,2357,2357,2357,2357,2358,0,1892,1893,1893,1893,1893,1893,1893,1893,1894,0,0,0,2406,2407,2408,0,6058,6059,6059,6059,6060,0,0,2413,2318,2364,2365,0,0,0,0,0,2356,2357,2358,0,0,0,0,0,0,0,0,0,0,0,0,0,0,0,0,0,0,0,0,0,0,0,0,0,0,0,0,0,
0,0,0,0,0,0,0,0,0,0,0,0,0,0,0,0,0,0,2406,2407,2407,2311,2357,2310,2407,2407,2408,0,0,0,0,0,0,0,0,0,0,0,0,0,0,0,0,0,6058,6059,6059,6059,6060,0,0,0,2413,2414,2415,0,0,0,0,0,2356,2357,2358,0,0,0,0,0,0,0,0,0,0,0,0,0,0,0,0,0,0,0,0,0,0,0,0,0,0,0,0,0,
0,0,0,0,0,0,0,0,0,0,0,0,0,0,0,0,0,0,0,2513,2514,2668,2669,2667,2514,2514,2514,2514,2514,2514,2514,2514,2514,2514,2514,2514,2514,2514,2514,2514,2514,2514,2515,0,0,6059,6059,6059,0,0,2513,2514,2514,2514,2514,2514,2514,2514,2514,2514,2668,2669,2667,2514,2514,2514,2514,2514,2514,2514,2514,2514,2515,2512,0,0,0,0,0,0,0,0,2497,0,0,0,0,0,0,0,0,0,
0,0,0,0,0,0,0,0,0,0,0,0,0,0,0,0,0,0,0,2613,2614,2614,2614,2614,2614,2614,2614,2614,2614,2614,2614,2614,2614,2614,2614,2614,2768,2769,2767,2614,2614,2614,2615,0,0,6059,6059,6059,0,0,2613,2614,2614,2614,2614,2614,2614,2614,2614,2614,2614,2614,2614,2614,2614,2614,2614,2614,2614,2614,2614,2614,2615,2612,0,0,0,0,0,0,0,2547,0,0,2546,0,0,0,0,0,0,0,
0,0,0,0,0,0,0,0,0,0,0,0,0,0,0,0,0,0,0,0,0,0,0,0,0,0,0,0,0,0,0,0,0,0,0,0,2356,2357,2358,0,0,0,0,0,6058,6059,6059,6059,6060,0,0,0,0,0,0,0,0,0,0,0,0,0,0,0,0,0,0,0,0,0,0,0,0,0,0,0,0,0,0,0,0,0,2503,2504,0,0,0,0,0,0,0,0,
0,0,0,0,0,0,0,0,0,0,0,0,0,0,0,0,0,0,0,0,0,0,0,0,0,0,0,0,0,0,0,0,0,0,0,0,2356,2357,2358,0,0,0,0,6018,6260,6059,6059,6059,6060,0,0,0,0,0,0,0,0,0,0,0,0,0,0,0,0,0,0,0,0,2313,2314,2314,2314,2314,2314,2315,0,0,0,2546,0,2498,2553,2554,0,0,0,0,0,0,0,0,
0,0,0,0,0,0,0,0,0,0,0,0,0,0,0,0,0,0,0,0,0,0,0,0,0,0,0,0,0,0,0,0,0,0,0,0,2356,2357,2358,0,0,0,6018,6260,6059,6059,6059,6059,6258,6020,0,0,0,0,0,0,0,0,0,0,0,0,0,0,0,0,0,0,0,2363,2364,2364,2364,2364,2364,0,0,0,0,0,0,0,0,0,0,0,0,0,0,0,0,0,
0,0,0,0,0,0,0,0,0,0,0,0,0,0,0,0,0,0,0,0,0,0,0,0,0,0,0,0,0,0,0,0,0,0,0,0,2406,2407,2408,0,6018,6259,6260,6059,6059,6059,6059,6059,6059,6060,0,0,0,0,2306,2307,2307,2308,0,0,0,0,0,1650,1650,1650,1650,1650,0,2363,2364,0,0,0,0,0,0,0,0,0,0,0,0,0,0,0,0,0,0,0,0,0,
0,0,0,0,0,0,0,0,0,0,0,0,0,0,0,0,0,0,0,0,0,0,0,0,0,0,0,0,0,0,0,0,0,0,6018,6019,6019,6019,6019,6019,6260,6059,6059,6059,6059,6059,6059,6059,6059,6060,0,0,0,0,2356,2546,2357,2360,2307,2307,2307,2308,0,0,0,0,0,0,0,2363,2364,0,0,0,0,0,0,0,0,0,0,0,0,0,0,0,0,0,0,0,0,0,
0,0,0,0,0,0,0,0,0,0,0,0,0,0,0,0,0,0,0,0,0,0,0,0,0,0,0,0,0,0,0,0,6018,6019,6260,6059,6059,0,6059,6059,6059,6059,6059,6059,6059,6059,6059,6059,6059,6258,6020,0,0,0,2356,2357,2496,2147486145,2357,2357,2496,2358,0,0,0,0,0,0,0,2413,0,0,0,0,0,0,0,0,0,0,0,0,0,0,0,0,0,0,0,0,0,0,
0,0,0,0,0,0,0,0,0,0,0,0,0,0,0,0,0,0,0,0,0,0,0,0,0,0,0,0,0,0,0,0,6058,6059,6059,6059,6059,0,6059,6059,6059,6059,6059,6059,6059,6059,6059,6059,6059,6059,6060,0,0,0,2356,2357,2357,2357,2357,2357,2497,2358,0,0,0,0,0,0,0,0,0,0,0,0,0,0,0,0,0,0,0,0,0,0,0,0,0,0,0,0,0,0,
0,0,0,0,0,0,0,0,0,0,0,0,0,0,0,0,0,0,0,0,0,0,0,0,0,0,0,0,0,0,6018,6019,6260,6059,0,0,6059,0,6059,6059,6059,6059,6059,6059,6059,6059,6059,6059,6059,6059,6258,6020,0,0,2356,2498,2357,2357,2357,2357,2357,2358,0,0,0,0,1650,1650,0,0,0,0,0,0,0,0,0,0,0,0,0,0,0,0,0,0,0,0,0,0,0,0,
0,0,0,0,0,0,0,0,0,0,0,0,0,0,0,0,0,0,0,0,0,0,0,0,0,0,0,0,0,0,6260,6059,6059,6059,0,0,6059,0,6059,6059,6059,6059,6059,6059,6059,6059,6059,6059,6059,6059,6059,6060,0,0,2406,2407,2407,2407,2407,2407,2407,2408,0,0,0,0,0,0,0,0,0,0,0,0,0,0,0,0,0,0,0,0,0,0,0,0,0,0,0,0,0,0,
0,0,0,0,0,0,0,0,0,0,0,0,0,0,0,0,0,0,0,0,0,0,0,0,0,0,0,0,0,0,6059,6059,6059,6059,0,0,6059,0,6059,6059,6059,6059,6059,6059,6059,6059,6059,6059,6059,6059,6059,6060,0,0,0,0,0,0,0,0,0,0,0,0,0,0,0,0,0,0,0,0,0,0,0,0,0,0,0,0,0,0,0,0,0,0,0,0,0,0,0,0,
0,0,0,0,0,0,0,0,0,0,0,0,0,0,0,0,0,0,0,0,0,0,0,0,0,0,0,0,0,0,6059,6059,6059,6059,0,0,6059,6059,6059,6059,6059,6059,6059,6059,6059,6059,6059,6059,6059,6059,6059,0,0,0,0,0,0,0,0,0,0,0,0,0,0,0,0,0,0,0,0,0,0,0,0,0,0,0,0,0,0,0,0,0,0,0,0,0,0,0,0,0,
0,0,0,0,0,0,0,0,0,0,0,0,0,0,0,0,0,0,0,0,0,0,0,0,0,0,0,0,0,0,6059,6059,0,0,0,0,0,0,0,6059,6059,6059,6059,6059,6059,6059,6059,6059,6059,6059,6059,0,0,0,0,0,0,0,0,0,0,0,0,0,0,0,0,0,0,0,0,0,0,0,0,0,0,0,0,0,0,0,0,0,0,0,0,0,0,0,0,0,
0,0,0,0,0,0,0,0,0,0,0,0,0,0,0,0,0,0,0,0,0,0,0,0,0,0,0,0,0,0,0,0,0,0,0,0,0,0,0,0,6059,6059,6059,6059,6059,6059,0,6059,6059,6059,0,0,0,0,0,0,0,0,0,0,0,0,0,0,0,0,0,0,0,0,0,0,0,0,0,0,0,0,0,0,0,0,0,0,0,0,0,0,0,0,0,0,
0,0,0,0,0,0,0,0,0,0,0,0,0,0,0,0,0,0,0,0,0,0,0,0,0,0,0,0,0,0,0,0,0,0,0,0,0,0,0,0,6059,6059,6059,6059,6059,6059,0,6059,6059,6059,0,0,0,0,0,0,0,0,0,0,0,0,0,0,0,0,0,0,0,0,0,0,0,0,0,0,0,0,0,0,0,0,0,0,0,0,0,0,0,0,0,0,
0,0,0,0,0,0,0,0,0,0,0,0,0,0,0,0,0,0,0,0,0,0,0,0,0,0,0,0,0,0,0,0,0,0,0,0,0,0,0,0,0,0,0,0,0,0,0,0,0,0,0,0,0,0,0,0,0,0,0,0,0,0,0,0,0,0,0,0,0,0,0,0,0,0,0,0,0,0,0,0,0,0,0,0,0,0,0,0,0,0,0,0,
0,0,0,0,0,0,0,0,0,0,0,0,0,0,0,0,0,0,0,0,0,0,0,0,0,0,0,0,0,0,0,0,0,0,0,0,0,0,0,0,0,0,0,0,0,0,0,0,0,0,0,0,0,0,0,0,0,0,0,0,0,0,0,0,0,0,0,0,0,0,0,0,0,0,0,0,0,0,0,0,0,0,0,0,0,0,0,0,0,0,0,0,
0,0,0,0,0,0,0,0,0,0,0,0,0,0,0,0,0,0,0,0,0,0,0,0,0,0,0,0,0,0,0,0,0,0,6059,6059,6059,6059,6059,6059,6059,6059,6059,6059,6059,6059,0,0,0,0,0,0,0,0,0,0,0,0,0,0,0,0,0,0,0,0,0,0,0,0,0,0,0,0,0,0,0,0,0,0,0,0,0,0,0,0,0,0,0,0,0,0,
0,0,0,0,0,0,0,0,0,0,0,0,0,0,0,0,0,0,0,0,0,0,0,0,0,0,0,0,0,0,0,0,0,0,6059,6059,6059,6059,6059,6059,6059,6059,6059,6059,6059,6059,0,0,0,0,0,0,0,0,0,0,0,0,0,0,0,0,0,0,0,0,0,0,0,0,0,0,0,0,0,0,0,0,0,0,0,0,0,0,0,0,0,0,0,0,0,0,
0,0,0,0,0,0,0,0,0,0,0,0,0,0,0,0,0,0,0,0,0,0,0,0,0,0,0,0,0,0,0,0,0,0,6059,6059,6059,6059,6059,6059,6059,6059,6059,6059,6059,0,0,0,0,0,0,0,0,0,0,0,0,0,0,0,0,0,0,0,0,0,0,0,0,0,0,0,0,0,0,0,0,0,0,0,0,0,0,0,0,0,0,0,0,0,0,0,
0,0,0,0,0,0,0,0,0,0,0,0,0,0,0,0,0,0,0,0,0,0,0,0,0,0,0,0,0,0,0,0,0,0,6059,6059,6059,6059,6059,6059,6059,6059,6059,6059,6059,0,0,0,0,0,0,0,0,0,0,0,0,0,0,0,0,0,0,0,0,0,0,0,0,0,0,0,0,0,0,0,0,0,0,0,0,0,0,0,0,0,0,0,0,0,0,0,
0,0,0,0,0,0,0,0,0,0,0,0,0,0,0,0,0,0,0,0,0,0,0,0,0,0,0,0,0,0,0,0,0,0,6059,6059,6059,6059,6059,6059,6059,6059,6059,6059,6059,0,0,0,0,0,0,0,0,0,0,0,0,0,0,0,0,0,0,0,0,0,0,0,0,0,0,0,0,0,0,0,0,0,0,0,0,0,0,0,0,0,0,0,0,0,0,0,
0,0,0,0,0,0,0,0,0,0,0,0,0,0,0,0,0,0,0,0,0,0,0,0,0,0,0,0,0,0,0,0,0,0,6059,6059,6059,6059,6059,6059,6059,6059,6059,6059,6059,0,0,0,0,0,0,0,0,0,0,0,0,0,0,0,0,0,0,0,0,0,0,0,0,0,0,0,0,0,0,0,0,0,0,0,0,0,0,0,0,0,0,0,0,0,0,0,
0,0,0,0,0,0,0,0,0,0,0,0,0,0,0,0,0,0,0,0,0,0,0,0,0,0,0,0,0,0,0,0,0,0,6059,6059,6059,6059,6059,6059,6059,6059,6059,6059,6059,0,0,0,0,0,0,0,0,0,0,0,0,0,0,0,0,0,0,0,0,0,0,0,0,0,0,0,0,0,0,0,0,0,0,0,0,0,0,0,0,0,0,0,0,0,0,0,
0,0,0,0,0,0,0,0,0,0,0,0,0,0,0,0,0,0,0,0,0,0,0,0,0,0,0,0,0,0,0,0,0,0,6059,6059,6059,6059,6059,6059,6059,6059,6059,6059,6059,0,0,0,0,0,0,0,0,0,0,0,0,0,0,0,0,0,0,0,0,0,0,0,0,0,0,0,0,0,0,0,0,0,0,0,0,0,0,0,0,0,0,0,0,0,0,0
</data>
 </layer>
 <layer id="16" name="Elevation" width="92" height="52">
  <data encoding="csv">
0,0,0,0,0,0,0,0,0,0,0,0,0,0,0,0,0,0,0,0,0,0,0,0,0,0,0,0,0,0,0,0,0,0,0,0,0,0,0,0,0,0,0,0,0,744,0,0,0,0,0,0,0,0,742,0,0,0,0,0,0,0,0,0,0,0,0,0,0,0,0,0,0,0,0,0,0,0,0,0,0,0,0,0,0,0,0,0,0,0,0,0,
0,0,0,0,0,0,0,0,0,0,0,0,0,0,0,0,0,0,0,0,0,0,0,0,0,0,0,0,0,0,0,0,0,0,0,0,0,0,0,0,0,0,0,0,0,744,0,0,0,0,0,0,0,0,742,0,0,0,0,0,0,0,0,0,0,0,0,0,0,0,0,0,0,0,0,0,0,0,0,0,0,0,0,0,0,0,0,0,0,0,0,0,
0,0,0,0,0,0,0,0,0,0,0,0,0,0,0,0,0,0,0,0,0,0,0,0,0,0,0,0,0,0,0,0,0,0,0,0,0,0,0,0,0,0,0,0,696,794,0,0,0,0,0,0,0,0,742,0,0,0,0,0,0,0,0,0,0,0,0,0,0,0,0,0,0,0,0,0,0,0,0,0,0,0,0,0,0,0,0,0,0,0,0,0,
0,0,0,0,0,0,0,0,0,0,0,0,0,0,0,0,0,0,0,0,0,0,0,0,0,0,0,0,0,0,0,0,0,0,0,0,0,0,0,0,0,0,0,0,744,0,0,0,0,0,0,0,0,0,742,0,0,0,0,0,0,0,0,0,0,0,0,0,0,0,0,0,0,0,0,0,0,0,0,0,0,0,0,0,0,0,0,0,0,0,0,0,
0,0,0,0,0,0,0,0,0,0,0,0,0,0,0,0,0,0,0,0,0,0,0,0,0,0,0,0,0,0,0,0,0,0,0,0,0,0,0,0,0,0,0,0,744,0,0,0,0,0,0,0,0,0,792,697,0,0,0,0,0,0,0,0,0,0,0,0,0,0,0,0,0,0,0,0,0,0,0,0,0,0,0,0,0,0,0,0,0,0,0,0,
0,0,0,0,0,0,0,0,0,0,0,0,0,0,0,0,0,0,0,0,0,0,0,0,0,0,0,0,0,0,0,0,0,0,0,0,0,0,0,0,0,0,0,696,794,0,0,0,0,0,0,0,0,0,0,742,0,0,0,0,0,0,0,0,0,0,0,0,0,0,0,0,0,0,0,0,0,0,0,0,0,0,0,0,0,0,0,0,0,0,0,0,
0,0,0,0,0,0,0,0,0,0,0,0,0,0,0,0,0,0,0,0,0,0,0,0,0,0,0,0,0,0,0,0,0,0,0,0,0,0,0,696,793,793,793,794,0,0,0,0,0,0,0,0,0,0,0,742,0,0,0,0,0,0,0,0,0,0,0,0,0,0,0,0,0,0,0,0,0,0,0,0,0,0,0,0,0,0,0,0,0,0,0,0,
0,0,0,0,0,0,0,0,0,0,0,0,0,0,0,0,0,0,0,0,0,0,0,0,0,0,0,0,0,0,0,0,0,0,0,0,0,0,696,794,0,0,0,0,0,0,0,0,0,0,0,0,0,0,0,742,0,0,0,0,0,0,0,0,0,0,0,0,0,0,0,0,0,0,0,0,0,0,0,0,0,0,0,0,0,0,0,0,0,0,0,0,
0,0,0,0,0,0,0,0,0,0,0,0,0,0,0,0,0,0,0,0,0,0,0,0,0,0,0,0,0,0,0,0,0,0,0,0,0,0,744,0,0,0,0,0,0,0,0,0,0,0,0,0,0,0,0,742,0,0,0,0,0,0,0,0,0,0,0,0,0,0,0,0,0,0,0,0,0,0,0,0,0,0,0,0,0,0,0,0,0,0,0,0,
0,0,0,0,0,0,0,0,0,0,0,0,0,0,0,0,0,0,0,0,0,0,0,0,0,0,0,0,0,0,0,0,0,0,0,0,0,0,744,0,0,0,0,0,0,0,0,0,0,0,0,0,0,0,0,742,0,0,0,0,0,0,0,0,0,0,0,0,0,0,0,0,0,0,0,0,0,0,0,0,0,0,0,0,0,0,0,0,0,0,0,0,
0,0,0,0,0,0,0,0,0,0,0,0,0,0,0,0,0,0,0,0,0,0,0,0,0,0,0,0,0,0,0,0,0,0,0,0,0,0,744,0,0,0,0,0,0,0,0,0,0,0,0,0,0,0,0,742,0,0,0,0,0,0,0,0,0,0,0,0,0,0,0,0,0,0,0,0,0,0,0,0,0,0,0,0,0,0,0,0,0,0,0,0,
0,0,0,0,0,0,0,0,0,0,0,0,0,0,0,0,0,0,0,0,0,0,0,0,0,0,0,0,0,0,0,0,0,0,0,0,0,0,746,694,0,0,0,0,0,0,0,0,0,0,0,0,0,0,0,792,793,793,793,793,793,793,793,793,793,793,793,793,697,0,0,0,0,0,0,0,0,0,0,0,0,0,0,0,0,0,0,0,0,0,0,0,
0,0,0,0,0,0,0,0,0,0,0,0,0,0,0,0,0,0,0,0,0,0,0,0,0,0,0,0,0,0,0,0,0,0,0,0,0,0,745,0,0,0,0,0,0,0,0,0,0,0,0,0,0,0,0,0,0,0,0,0,0,0,0,0,0,0,0,0,742,0,0,0,0,0,0,0,0,0,0,0,0,0,0,0,0,0,0,0,0,0,0,0,
0,0,0,0,0,0,0,0,0,0,0,0,0,0,0,0,0,0,0,0,0,0,0,0,0,0,0,0,0,0,0,0,0,0,0,0,0,0,0,0,0,0,0,0,0,0,0,0,0,0,0,0,0,0,0,0,0,0,0,0,0,0,0,0,0,0,0,0,792,697,0,0,0,0,0,0,0,0,0,0,0,0,0,0,0,0,0,0,0,0,0,0,
0,0,0,0,0,0,0,0,0,0,0,0,0,0,0,0,0,0,0,0,0,0,0,0,0,0,0,0,0,0,0,0,0,0,0,0,0,0,0,0,0,0,0,0,0,0,0,0,0,0,0,0,0,0,0,0,0,0,0,0,0,0,0,0,0,0,0,0,0,742,0,0,0,0,0,0,0,0,0,0,0,0,0,0,0,0,0,0,0,0,0,0,
0,0,0,0,0,0,0,0,0,0,0,0,0,0,0,0,0,0,0,0,0,0,0,0,0,0,0,0,0,0,0,0,0,0,0,0,0,0,0,0,0,0,0,0,0,0,0,0,0,0,0,0,0,0,0,0,0,0,0,0,0,0,0,0,0,0,0,0,0,742,0,0,0,0,0,0,0,0,0,0,0,0,0,0,0,0,0,0,0,0,0,0,
0,0,0,0,0,0,0,0,0,0,0,0,0,0,0,0,0,0,0,0,0,0,0,0,0,0,0,0,0,0,0,0,0,0,0,0,0,0,0,0,0,0,0,0,0,0,0,0,0,0,0,0,0,0,0,0,0,0,0,0,0,0,0,0,0,0,0,0,0,742,0,0,0,0,0,0,0,0,0,0,0,0,0,0,0,0,0,0,0,0,0,0,
0,0,0,0,0,0,0,0,0,0,0,0,0,0,0,0,0,0,0,0,0,0,0,0,0,0,0,0,0,0,0,0,0,0,0,0,0,0,0,0,744,0,0,0,0,0,0,0,0,0,0,0,0,0,0,0,0,0,0,0,0,0,0,0,0,0,0,0,0,742,0,0,0,0,0,0,0,0,0,0,0,0,0,0,0,0,0,0,0,0,0,0,
0,0,0,0,0,0,0,0,0,0,0,0,0,0,0,0,0,0,0,0,0,0,696,793,793,793,793,793,793,793,793,697,0,0,0,0,0,0,0,0,744,0,0,0,0,0,0,0,0,0,0,0,0,0,0,0,0,0,0,0,0,0,0,0,0,0,0,0,0,792,793,793,793,793,697,0,0,0,0,0,0,0,0,0,0,0,0,0,0,0,0,0,
0,0,0,0,0,0,0,0,0,0,0,0,0,0,0,0,0,696,793,793,793,793,794,0,0,0,0,0,0,0,0,792,793,793,793,793,793,793,697,0,744,0,0,0,0,0,0,0,0,0,0,0,0,0,0,0,0,0,0,0,0,0,0,0,0,0,0,0,0,0,0,0,0,0,742,0,0,0,0,0,0,0,0,0,0,0,0,0,0,0,0,0,
0,0,0,0,0,0,0,0,0,0,0,0,0,0,0,0,743,744,0,0,793,793,794,0,0,0,0,0,0,0,0,0,0,0,0,0,0,0,792,793,794,0,0,0,0,0,0,0,0,0,0,0,0,0,0,0,0,0,0,0,0,0,0,0,0,0,0,0,0,0,0,0,0,0,792,793,697,0,0,0,0,0,0,0,0,0,0,0,0,0,0,0,
0,0,0,0,0,0,0,0,0,0,0,0,0,0,0,696,793,794,0,0,0,0,0,0,0,0,0,0,0,0,0,0,0,0,0,0,0,0,0,0,0,0,0,0,0,0,0,0,0,0,0,0,0,0,0,0,0,0,0,0,0,0,0,0,0,0,0,0,0,0,0,0,0,0,0,0,742,0,0,0,0,0,0,0,0,0,0,0,0,0,0,0,
0,0,0,0,0,0,0,0,0,0,0,0,0,0,0,744,0,0,0,0,0,0,0,0,0,0,0,0,0,0,0,0,0,0,0,0,0,0,0,0,0,0,0,0,0,0,0,0,0,0,0,0,0,0,0,0,0,0,0,0,0,0,0,0,0,0,0,0,0,0,0,0,0,0,0,0,742,0,0,0,0,0,0,0,0,0,0,0,0,0,0,0,
0,0,0,0,0,0,0,0,0,0,0,0,0,0,0,744,0,0,0,0,0,0,0,0,0,0,0,0,0,0,0,0,0,0,0,0,0,0,0,0,0,0,0,0,0,0,0,0,0,0,0,0,0,0,0,0,0,0,0,0,0,0,0,0,0,0,0,0,0,0,0,0,0,0,0,0,792,793,793,793,793,697,0,0,0,0,0,0,0,0,0,0,
0,0,0,0,0,0,0,0,0,0,0,0,0,696,793,794,0,0,0,0,0,0,0,0,0,0,0,0,0,0,0,0,0,0,0,0,0,0,0,0,0,0,0,0,0,0,0,0,0,0,0,0,0,0,0,0,0,0,0,0,0,0,0,0,0,0,0,0,0,0,0,0,0,0,0,0,0,0,0,0,0,742,0,0,0,0,0,0,0,0,0,0,
0,0,0,0,0,0,696,793,793,793,793,793,793,794,0,0,0,0,0,0,0,0,0,0,0,0,0,0,0,0,0,0,0,0,0,0,0,0,0,0,0,0,0,0,0,0,0,0,0,0,0,0,0,0,0,0,0,0,0,0,0,0,0,0,0,0,0,0,0,0,0,0,0,0,0,0,0,0,0,0,0,792,697,0,0,0,0,0,0,0,0,0,
0,0,0,0,0,696,794,0,0,0,0,0,0,0,0,0,0,0,0,0,0,0,0,0,0,0,0,0,0,0,0,0,0,0,0,0,0,0,0,0,0,0,0,0,0,0,0,0,0,0,0,0,0,0,0,0,0,0,0,0,0,0,0,0,0,0,0,0,0,0,0,0,0,0,0,0,0,0,0,0,0,0,792,793,793,697,0,0,0,0,0,0,
0,0,0,0,0,744,0,0,0,0,0,0,0,0,0,0,0,0,0,0,0,0,0,0,0,0,0,0,0,0,0,0,0,0,0,0,0,0,0,0,0,0,0,0,0,0,0,0,0,0,0,0,0,0,0,0,0,0,0,0,0,0,0,0,0,0,0,0,0,0,0,0,0,0,0,0,0,0,0,0,0,0,0,0,0,792,793,793,793,793,793,793,
0,0,0,0,0,744,0,0,0,0,0,0,0,0,0,0,0,0,0,0,0,0,0,0,0,0,0,0,0,0,0,0,0,0,0,0,0,0,0,0,0,0,0,0,0,0,0,0,0,0,0,0,0,0,0,0,0,0,0,0,0,0,0,0,0,0,0,0,0,0,0,0,0,0,0,0,0,0,0,0,0,0,0,0,0,0,0,0,0,0,0,0,
793,793,793,793,793,794,0,0,0,0,692,693,693,693,693,693,694,0,0,0,0,0,0,0,0,0,0,0,0,0,0,0,0,0,0,0,0,0,0,0,0,0,0,0,0,0,0,0,0,0,0,0,0,0,0,0,0,0,0,0,0,0,0,0,0,0,0,0,0,0,0,0,0,0,0,0,0,0,0,0,0,0,0,0,0,0,0,0,0,0,0,0,
0,0,0,0,0,0,0,0,0,0,742,0,0,0,0,0,746,693,693,693,693,693,693,694,0,0,0,0,0,0,0,0,0,0,0,0,0,0,0,0,0,0,0,0,0,0,0,0,0,0,0,0,0,0,0,0,0,0,0,0,0,0,0,0,0,0,0,0,0,0,0,692,693,693,693,693,693,693,693,693,693,693,693,694,0,0,0,0,0,0,0,0,
0,0,0,0,0,0,0,0,0,0,742,0,0,0,0,0,0,0,0,0,0,0,0,746,693,693,694,0,0,0,0,0,0,0,0,0,0,0,0,0,0,0,0,0,0,0,0,0,0,0,0,0,0,0,0,0,0,0,0,0,0,0,0,0,0,0,0,0,0,0,692,747,0,0,0,0,0,0,0,0,0,0,0,746,693,693,694,0,0,0,0,0,
0,0,0,0,0,0,0,0,0,692,747,0,0,0,0,0,0,0,0,0,0,0,0,0,0,0,744,0,0,0,0,0,0,0,0,0,0,0,0,0,0,0,0,0,0,0,0,0,0,0,0,0,0,0,0,0,0,0,0,0,0,0,0,0,0,0,0,0,0,0,742,0,0,0,0,0,0,0,0,0,0,0,0,0,0,0,746,693,693,693,693,693,
0,0,0,0,0,0,0,0,0,742,0,0,0,0,0,0,0,0,0,0,0,0,0,0,0,0,746,693,694,0,0,0,0,0,0,0,0,0,0,0,0,0,0,0,0,0,0,0,0,0,0,0,0,0,0,0,0,0,0,0,0,0,0,0,0,0,0,0,0,0,742,0,0,0,0,0,0,0,0,0,0,0,0,0,0,0,0,0,0,0,0,0,
0,0,0,0,692,693,693,693,693,747,0,0,0,0,0,0,0,0,0,0,0,0,0,0,0,0,0,0,746,694,0,0,0,0,0,0,0,0,0,0,0,0,0,0,0,0,0,0,0,0,0,0,0,0,0,0,0,0,0,0,0,0,0,0,0,0,0,0,0,692,747,0,0,0,0,0,0,0,0,0,0,0,0,0,0,0,0,0,0,0,0,0,
693,693,693,693,747,0,0,0,0,0,0,0,0,0,0,0,0,0,0,0,0,0,0,0,0,0,0,0,0,744,0,0,0,0,0,0,0,0,0,0,0,0,0,0,0,0,0,0,0,0,0,0,0,0,0,0,0,0,0,0,0,0,0,0,0,0,0,0,0,747,0,0,0,0,0,0,0,0,0,0,0,0,0,0,0,0,0,0,743,743,743,743,
0,0,0,0,0,0,0,0,0,0,0,0,0,0,0,0,0,0,0,0,0,0,0,0,0,0,0,0,0,744,0,0,0,0,0,0,0,0,0,0,0,0,0,0,0,0,0,0,0,0,0,0,0,0,0,0,0,0,0,0,0,0,0,0,742,0,0,0,0,0,0,0,0,0,0,0,0,0,0,0,0,0,0,0,0,0,0,0,0,0,0,0,
0,0,0,0,0,0,0,0,0,0,0,0,0,0,0,0,0,0,0,0,0,0,0,0,0,0,0,0,0,744,0,0,0,0,0,0,0,0,0,0,0,0,0,0,0,0,0,0,0,0,0,692,693,693,693,693,693,694,0,0,0,0,0,0,742,0,0,0,0,0,0,0,0,0,0,0,0,0,0,0,0,0,0,0,0,0,0,0,0,0,0,0,
0,0,0,0,0,0,0,0,0,0,0,0,0,0,0,0,0,0,0,0,0,0,0,0,0,0,0,0,0,744,0,0,0,0,0,0,0,0,0,0,0,0,0,0,0,0,0,0,0,0,0,742,0,0,0,0,0,746,693,693,693,693,693,693,747,0,0,0,0,0,0,0,0,0,0,0,0,0,0,0,0,0,0,0,0,0,0,0,0,0,0,0,
0,0,0,0,0,0,0,0,0,0,0,0,0,0,0,0,0,0,0,0,0,0,0,0,0,0,0,0,0,744,0,0,0,0,0,0,0,0,0,0,0,0,0,0,0,0,0,0,0,0,0,742,0,0,0,0,0,0,0,0,0,0,0,0,0,0,0,0,0,0,0,0,0,0,0,0,0,0,0,0,0,0,0,0,0,0,0,0,0,0,0,0,
0,0,0,0,0,0,0,0,0,0,0,0,0,0,0,0,0,0,0,0,0,0,0,0,0,0,0,0,0,746,693,694,0,0,0,0,0,0,0,0,0,0,0,0,0,0,0,0,0,0,692,747,0,0,0,0,0,0,0,0,0,0,0,0,0,0,0,0,0,0,0,0,0,0,0,0,0,0,0,0,0,0,0,0,0,0,0,0,0,0,0,0,
0,0,0,0,0,0,0,0,0,0,0,0,0,0,0,0,0,0,0,0,0,0,0,0,0,0,0,0,0,0,0,744,0,0,0,0,0,0,0,0,0,0,0,0,0,0,0,0,0,0,742,0,0,0,0,0,0,0,0,0,0,0,0,0,0,0,0,0,0,0,0,0,0,0,0,0,0,0,0,0,0,0,0,0,0,0,0,0,0,0,0,0,
0,0,0,0,0,0,0,0,0,0,0,0,0,0,0,0,0,0,0,0,0,0,0,0,0,0,0,0,0,0,0,746,694,0,0,0,0,0,0,0,0,0,0,0,0,0,692,693,693,693,747,0,0,0,0,0,0,0,0,0,0,0,0,0,0,0,0,0,0,0,0,0,0,0,0,0,0,0,0,0,0,0,0,0,0,0,0,0,0,0,0,0,
0,0,0,0,0,0,0,0,0,0,0,0,0,0,0,0,0,0,0,0,0,0,0,0,0,0,0,0,0,0,0,0,744,0,0,0,0,0,0,0,0,0,0,0,0,0,742,0,0,0,0,0,0,0,0,0,0,0,0,0,0,0,0,0,0,0,0,0,0,0,0,0,0,0,0,0,0,0,0,0,0,0,0,0,0,0,0,0,0,0,0,0,
0,0,0,0,0,0,0,0,0,0,0,0,0,0,0,0,0,0,0,0,0,0,0,0,0,0,0,0,0,0,0,0,744,0,0,0,0,0,0,0,0,0,0,0,0,0,742,0,0,0,0,0,0,0,0,0,0,0,0,0,0,0,0,0,0,0,0,0,0,0,0,0,0,0,0,0,0,0,0,0,0,0,0,0,0,0,0,0,0,0,0,0,
0,0,0,0,0,0,0,0,0,0,0,0,0,0,0,0,0,0,0,0,0,0,0,0,0,0,0,0,0,0,0,0,744,0,0,0,0,0,0,0,0,0,0,0,0,0,742,0,0,0,0,0,0,0,0,0,0,0,0,0,0,0,0,0,0,0,0,0,0,0,0,0,0,0,0,0,0,0,0,0,0,0,0,0,0,0,0,0,0,0,0,0,
0,0,0,0,0,0,0,0,0,0,0,0,0,0,0,0,0,0,0,0,0,0,0,0,0,0,0,0,0,0,0,0,746,694,0,0,0,0,0,0,0,0,0,0,0,692,747,0,0,0,0,0,0,0,0,0,0,0,0,0,0,0,0,0,0,0,0,0,0,0,0,0,0,0,0,0,0,0,0,0,0,0,0,0,0,0,0,0,0,0,0,0,
0,0,0,0,0,0,0,0,0,0,0,0,0,0,0,0,0,0,0,0,0,0,0,0,0,0,0,0,0,0,0,0,0,744,0,0,0,0,0,0,0,0,0,0,0,742,0,0,0,0,0,0,0,0,0,0,0,0,0,0,0,0,0,0,0,0,0,0,0,0,0,0,0,0,0,0,0,0,0,0,0,0,0,0,0,0,0,0,0,0,0,0,
0,0,0,0,0,0,0,0,0,0,0,0,0,0,0,0,0,0,0,0,0,0,0,0,0,0,0,0,0,0,0,0,0,744,0,0,0,0,0,0,0,0,0,0,0,742,0,0,0,0,0,0,0,0,0,0,0,0,0,0,0,0,0,0,0,0,0,0,0,0,0,0,0,0,0,0,0,0,0,0,0,0,0,0,0,0,0,0,0,0,0,0,
0,0,0,0,0,0,0,0,0,0,0,0,0,0,0,0,0,0,0,0,0,0,0,0,0,0,0,0,0,0,0,0,0,744,0,0,0,0,0,0,0,0,0,0,0,742,0,0,0,0,0,0,0,0,0,0,0,0,0,0,0,0,0,0,0,0,0,0,0,0,0,0,0,0,0,0,0,0,0,0,0,0,0,0,0,0,0,0,0,0,0,0,
0,0,0,0,0,0,0,0,0,0,0,0,0,0,0,0,0,0,0,0,0,0,0,0,0,0,0,0,0,0,0,0,0,744,0,0,0,0,0,0,0,0,0,0,0,742,0,0,0,0,0,0,0,0,0,0,0,0,0,0,0,0,0,0,0,0,0,0,0,0,0,0,0,0,0,0,0,0,0,0,0,0,0,0,0,0,0,0,0,0,0,0,
0,0,0,0,0,0,0,0,0,0,0,0,0,0,0,0,0,0,0,0,0,0,0,0,0,0,0,0,0,0,0,0,0,744,0,0,0,0,0,0,0,0,0,0,0,742,0,0,0,0,0,0,0,0,0,0,0,0,0,0,0,0,0,0,0,0,0,0,0,0,0,0,0,0,0,0,0,0,0,0,0,0,0,0,0,0,0,0,0,0,0,0
</data>
 </layer>
 <layer id="22" name="Medium" width="92" height="52">
  <data encoding="csv">
0,0,0,0,0,0,0,0,0,0,0,0,0,0,0,0,0,0,0,0,0,0,0,0,0,0,0,0,0,0,0,0,0,0,0,0,0,0,0,0,0,0,0,0,0,0,0,0,0,0,0,0,0,0,0,0,0,0,0,0,0,0,0,0,0,0,0,0,0,0,0,0,0,0,0,0,0,0,0,0,0,0,0,0,0,0,0,0,0,0,0,0,
0,0,0,0,0,0,0,0,0,0,0,0,0,0,0,0,0,0,0,0,0,0,0,0,0,0,0,0,0,0,0,0,0,0,0,0,0,0,0,0,0,0,0,0,0,0,0,0,0,0,0,0,0,0,0,0,0,0,0,0,0,0,0,0,0,0,0,0,0,0,0,0,0,0,0,0,0,0,0,0,0,0,0,0,0,0,0,0,0,0,0,0,
0,0,0,0,0,0,0,0,0,0,0,0,0,0,0,0,0,0,0,0,0,0,0,0,0,0,0,0,0,0,0,0,0,0,0,0,0,0,0,0,0,0,0,0,0,0,0,0,0,0,0,0,0,0,0,0,0,0,0,0,0,0,0,0,0,0,0,0,0,0,0,0,0,0,0,0,0,0,0,0,0,0,0,0,0,0,0,0,0,0,0,0,
0,0,0,0,0,0,0,0,0,0,0,0,0,0,0,0,0,0,0,0,0,0,0,0,0,0,0,0,0,0,0,0,0,0,0,0,0,0,0,0,0,0,0,0,0,0,0,0,0,0,0,0,0,0,0,0,0,0,0,0,0,0,0,0,0,0,0,0,0,0,0,0,0,0,0,0,0,0,0,0,0,0,0,0,0,0,0,0,0,0,0,0,
0,0,0,0,0,0,0,0,0,0,0,0,0,0,0,0,0,0,0,0,0,0,0,0,0,0,0,0,0,0,0,0,0,0,0,0,0,0,0,0,0,0,0,0,0,0,0,0,0,0,0,0,0,0,0,0,0,0,0,0,0,0,0,0,0,0,0,0,0,0,0,0,0,0,0,0,0,0,0,0,0,0,0,0,0,0,0,0,0,0,0,0,
0,0,0,0,0,0,0,0,0,0,0,0,0,0,0,0,0,0,0,0,0,0,0,0,0,0,0,0,0,0,0,0,0,0,0,0,0,0,0,0,0,0,0,0,0,0,0,0,0,0,0,0,0,0,0,0,0,0,0,0,0,0,0,0,0,0,0,0,0,0,0,0,0,0,0,0,0,0,0,0,0,0,0,0,0,0,0,0,0,0,0,0,
0,0,0,0,0,0,0,0,0,0,0,0,0,0,0,0,0,0,0,0,0,0,0,0,0,0,0,0,0,0,0,0,0,0,0,0,0,0,0,0,0,0,0,0,0,0,0,0,0,0,0,0,0,0,0,0,0,0,0,0,0,0,0,0,0,0,0,0,0,0,0,0,0,0,0,0,0,0,0,0,0,0,0,0,0,0,0,0,0,0,0,0,
0,0,0,0,0,0,0,0,0,0,0,0,0,0,0,0,0,0,0,0,0,0,0,0,0,0,0,0,0,0,0,0,0,0,0,0,0,0,0,0,0,0,0,0,0,0,0,0,0,0,0,0,0,0,0,0,0,0,0,0,0,0,0,0,0,0,0,0,0,0,0,0,0,0,0,0,0,0,0,0,0,0,0,0,0,0,0,0,0,0,0,0,
0,0,0,0,0,0,0,0,0,0,0,0,0,0,0,0,0,0,0,0,0,0,0,0,0,0,0,0,0,0,0,0,0,0,0,0,0,0,0,0,0,0,0,0,0,0,0,0,0,0,0,0,0,0,0,0,0,0,0,0,0,0,0,0,0,0,0,0,0,0,0,0,0,0,0,0,0,0,0,0,0,0,0,0,0,0,0,0,0,0,0,0,
0,0,0,0,0,0,0,0,0,0,0,0,0,0,0,0,0,0,0,0,0,0,0,0,0,0,0,0,0,0,0,0,0,0,0,0,0,0,0,0,0,0,0,0,0,0,0,0,0,0,0,0,0,0,0,0,0,0,0,0,0,0,0,0,0,0,0,0,0,0,0,0,0,0,0,0,0,0,0,0,0,0,0,0,0,0,0,0,0,0,0,0,
0,0,0,0,0,0,0,0,0,0,0,0,0,0,0,0,0,0,0,0,0,0,0,0,0,0,0,0,0,0,0,0,0,0,0,0,0,0,0,0,0,0,0,0,0,0,0,0,0,0,0,0,0,0,0,0,0,0,0,0,0,0,0,0,0,0,0,0,0,0,0,0,0,0,0,0,0,0,0,0,0,0,0,0,0,0,0,0,0,0,0,0,
0,0,0,0,0,0,0,0,0,0,0,0,0,0,0,0,0,0,0,0,0,0,0,0,0,0,0,0,0,0,0,0,0,0,0,0,0,0,0,0,0,0,0,0,0,0,0,0,0,0,0,0,0,0,0,0,0,0,0,0,0,0,0,0,0,0,0,0,0,0,0,0,0,0,0,0,0,0,0,0,0,0,0,0,0,0,0,0,0,0,0,0,
0,0,0,0,0,0,0,0,0,0,0,0,0,0,0,0,0,0,0,0,0,0,0,0,0,0,0,0,0,0,0,0,0,0,0,0,0,0,0,0,0,0,0,0,0,0,0,0,0,0,0,0,0,0,0,0,0,0,0,0,0,0,0,0,0,0,0,0,0,0,0,0,0,0,0,0,0,0,0,0,0,0,0,0,0,0,0,0,0,0,0,0,
0,0,0,0,0,0,0,0,0,0,0,0,0,0,0,0,0,0,0,0,0,0,0,0,0,0,0,0,0,0,0,0,0,0,0,0,0,0,0,0,0,0,0,0,0,0,0,0,0,0,0,0,0,0,0,0,0,0,0,0,0,0,0,0,0,0,0,0,0,0,0,0,0,0,0,0,0,0,0,0,0,0,0,0,0,0,0,0,0,0,0,0,
0,0,0,0,0,0,0,0,0,0,0,0,0,0,0,0,0,0,0,0,0,0,0,0,0,0,0,0,0,0,0,0,0,0,0,0,0,0,0,0,0,0,0,0,0,0,0,0,0,0,0,0,0,0,0,0,0,0,0,0,0,0,0,0,0,0,0,0,0,0,0,0,0,0,0,0,0,0,0,0,0,0,0,0,0,0,0,0,0,0,0,0,
0,0,0,0,0,0,0,0,0,0,0,0,0,0,0,0,0,0,0,0,0,0,0,0,0,0,0,0,0,0,0,0,0,0,0,0,0,0,0,0,0,0,0,0,0,0,0,0,0,0,0,0,0,0,0,0,0,0,0,0,0,0,0,0,0,0,0,0,0,0,0,0,0,0,0,0,0,0,0,0,0,0,0,0,0,0,0,0,0,0,0,0,
0,0,0,0,0,0,0,0,0,0,0,0,0,0,0,0,0,0,0,0,0,0,0,0,0,0,0,0,0,0,0,0,0,0,0,0,0,0,0,0,0,0,0,0,0,0,0,0,0,0,0,0,0,0,0,0,0,0,0,0,0,0,0,0,0,0,0,0,0,0,0,0,0,0,0,0,0,0,0,0,0,0,0,0,0,0,0,0,0,0,0,0,
0,0,0,0,0,0,0,0,0,0,0,0,0,0,0,0,0,0,0,0,0,0,0,0,0,0,0,0,0,0,0,0,0,0,0,0,0,0,0,0,0,0,0,0,0,0,0,0,0,0,0,0,0,0,0,0,0,0,0,0,0,0,0,0,0,0,0,0,0,0,0,0,0,0,0,0,0,0,0,0,0,0,0,0,0,0,0,0,0,0,0,0,
0,0,0,0,0,0,0,0,0,0,0,0,0,0,0,0,0,0,0,0,0,0,0,0,0,0,0,0,0,0,0,0,0,0,0,0,0,0,0,0,0,0,0,0,0,0,0,0,0,0,0,0,0,0,0,0,0,0,0,0,0,0,0,0,0,0,0,0,0,0,0,0,0,0,0,0,0,0,0,0,0,0,0,0,0,0,0,0,0,0,0,0,
0,0,0,0,0,0,0,0,0,0,0,0,0,0,0,0,0,0,0,0,0,0,0,0,0,0,0,0,0,0,0,0,0,0,0,0,0,0,0,0,0,0,0,0,0,0,0,0,0,0,0,0,0,0,0,0,0,0,0,0,0,0,0,0,0,0,0,0,0,0,0,0,0,0,0,0,0,0,0,0,0,0,0,0,0,0,0,0,0,0,0,0,
0,0,0,0,0,0,0,0,0,0,0,0,0,0,0,0,0,0,0,0,0,0,0,0,0,0,0,0,0,0,0,0,0,0,0,0,0,0,0,0,0,0,0,0,0,0,0,0,0,0,0,0,0,0,0,0,0,0,0,0,0,0,0,0,0,0,0,0,0,0,0,0,0,0,0,0,0,0,0,0,0,0,0,0,0,0,0,0,0,0,0,0,
0,0,0,0,0,0,0,0,0,0,0,0,0,0,0,0,0,0,0,0,0,0,0,0,0,0,0,0,0,0,0,0,0,0,0,0,0,0,0,0,0,0,0,0,0,0,0,0,0,0,0,0,0,0,0,0,0,0,0,0,0,0,0,0,0,0,0,0,0,0,0,0,0,0,0,0,0,0,0,0,0,0,0,0,0,0,0,0,0,0,0,0,
0,0,0,0,0,0,0,0,0,0,0,0,0,0,0,0,0,0,0,0,0,0,0,0,0,0,0,0,0,0,0,0,0,0,0,0,0,0,0,0,0,0,0,0,0,0,0,0,0,0,0,0,0,0,0,0,0,0,0,0,0,0,0,0,0,0,0,0,0,0,0,0,0,0,0,0,0,0,0,0,0,0,0,0,0,0,0,0,0,0,0,0,
0,0,0,0,0,0,0,0,0,0,0,0,0,0,0,0,0,0,0,0,0,0,0,0,0,0,0,0,0,0,0,0,0,0,0,0,0,0,0,0,0,0,0,0,0,0,0,0,0,0,0,0,0,0,0,0,0,0,0,0,0,0,0,0,0,0,0,0,0,0,0,0,0,0,0,0,0,0,0,0,0,0,0,0,0,0,0,0,0,0,0,0,
0,0,0,0,0,0,0,0,0,0,0,0,0,0,0,0,0,0,0,0,0,0,0,0,0,0,0,0,0,0,0,0,0,0,0,0,0,0,0,0,0,0,0,0,0,0,0,0,0,0,0,0,0,0,0,0,0,0,0,0,0,0,0,0,0,0,0,0,0,0,0,0,0,0,0,0,0,0,0,0,0,0,0,0,0,0,0,0,0,0,0,0,
0,0,0,0,0,0,0,0,0,0,0,0,0,0,0,0,0,0,0,0,0,0,0,0,0,0,0,0,0,0,0,0,0,0,0,0,0,0,0,0,0,0,0,0,0,0,0,0,0,0,0,0,0,0,0,0,0,0,0,0,0,0,0,0,0,0,0,0,0,0,0,0,0,0,0,0,0,0,0,0,0,0,0,0,0,0,0,0,0,0,0,0,
0,0,0,0,0,0,0,0,0,0,0,0,0,0,0,0,0,0,0,0,0,0,0,0,0,0,0,0,0,0,0,0,0,0,0,0,0,0,0,0,0,0,0,908,909,909,909,909,909,910,0,0,0,0,0,0,0,0,0,0,0,0,0,0,0,0,0,0,0,0,0,0,0,0,0,0,0,0,0,0,0,0,0,0,0,0,0,0,0,0,0,0,
0,0,0,0,0,0,0,0,0,0,0,0,0,0,0,0,0,0,0,0,0,0,0,0,0,0,0,0,0,0,0,0,0,0,0,0,0,0,0,0,0,0,0,958,959,959,959,959,959,960,0,0,0,0,0,0,0,0,0,0,0,0,0,0,0,0,0,0,0,0,0,0,0,0,0,0,0,0,0,0,0,0,0,0,0,0,0,0,0,0,0,0,
0,0,0,0,0,0,0,0,0,0,0,0,0,0,0,0,0,0,0,0,0,0,0,0,0,0,0,0,0,0,0,0,0,0,0,0,0,0,0,0,0,0,0,1008,1009,1011,1009,1011,1009,1010,0,0,0,0,0,0,0,0,0,0,0,0,0,0,0,0,0,0,0,0,0,0,0,0,0,0,0,0,0,0,0,0,0,0,0,0,0,0,0,0,0,0,
0,0,0,0,0,0,0,0,0,0,0,0,0,0,0,0,0,0,0,0,0,0,0,0,0,0,0,0,0,0,0,0,0,0,0,0,0,0,0,0,0,0,0,0,0,0,0,0,0,0,0,0,0,0,0,0,0,0,0,0,0,0,0,0,0,0,0,0,0,0,0,0,0,0,0,0,0,0,0,0,0,0,0,0,0,0,0,0,0,0,0,0,
0,0,0,0,0,0,0,0,0,0,0,0,0,0,0,0,0,0,0,0,0,0,0,0,0,0,0,0,0,0,0,0,0,0,0,0,0,0,0,0,0,0,0,0,0,0,0,0,0,0,0,0,0,0,0,0,0,0,0,0,0,0,0,0,0,0,0,0,0,0,0,0,0,0,0,0,0,0,0,0,0,0,0,0,0,0,0,0,0,0,0,0,
0,0,0,0,0,0,0,0,0,0,0,0,0,0,0,0,0,0,0,0,0,0,0,0,0,0,0,0,0,0,0,0,0,0,0,0,0,0,0,0,0,0,0,0,0,0,0,0,0,0,0,0,0,0,0,0,0,0,0,0,0,0,0,0,0,0,0,0,0,0,0,0,0,0,0,0,0,0,0,0,0,0,0,0,0,0,0,0,0,0,0,0,
0,0,0,0,0,0,0,0,0,0,0,0,0,0,0,0,0,0,0,0,0,0,0,0,0,0,0,0,0,0,0,0,0,0,0,0,0,0,0,0,0,0,0,0,0,0,0,0,0,0,0,0,0,0,0,0,0,0,0,0,0,0,0,0,0,0,0,0,0,0,0,0,0,0,0,0,0,0,0,0,0,0,0,0,0,0,0,0,0,0,0,0,
0,0,0,0,0,0,0,0,0,0,0,0,0,0,0,0,0,0,0,0,0,0,0,0,0,0,0,0,0,0,0,0,0,0,0,0,0,0,0,0,0,0,0,0,0,0,0,0,0,0,0,0,0,0,0,0,0,0,0,0,0,0,0,0,0,0,0,0,0,0,0,0,0,0,0,0,0,0,0,0,0,0,0,0,0,0,0,0,0,0,0,0,
0,0,0,0,0,0,0,0,0,0,0,0,0,0,0,0,0,0,0,0,0,0,0,0,0,0,0,0,0,0,0,0,0,0,0,0,0,0,0,0,0,0,0,0,0,0,0,0,0,0,0,0,0,0,0,0,0,0,0,0,0,0,0,0,0,0,0,0,0,0,0,0,0,0,0,0,0,0,0,0,0,0,0,0,0,0,0,0,0,0,0,0,
0,0,0,0,0,0,0,0,0,0,0,0,0,0,0,0,0,0,0,0,0,0,0,0,0,0,0,0,0,0,0,0,0,0,0,0,0,0,0,0,0,0,0,0,0,0,0,0,0,0,0,0,0,0,0,0,0,0,0,0,0,0,0,0,0,0,0,0,0,0,0,0,0,0,0,0,0,0,0,0,0,0,0,0,0,0,0,0,0,0,0,0,
0,0,0,0,0,0,0,0,0,0,0,0,0,0,0,0,0,0,0,0,0,0,0,0,0,0,0,0,0,0,0,0,0,0,0,0,0,0,0,0,0,0,0,0,0,0,0,0,0,0,0,0,0,0,0,0,0,0,0,0,0,0,0,0,0,0,0,0,0,0,0,0,0,0,0,0,0,0,0,0,0,0,0,0,0,0,0,0,0,0,0,0,
0,0,0,0,0,0,0,0,0,0,0,0,0,0,0,0,0,0,0,0,0,0,0,0,0,0,0,0,0,0,0,0,0,0,0,0,0,0,0,0,0,0,0,0,0,0,0,0,0,0,0,0,0,0,0,0,0,0,0,0,0,0,0,0,0,0,0,0,0,0,0,0,0,0,0,0,0,0,0,0,0,0,0,0,0,0,0,0,0,0,0,0,
0,0,0,0,0,0,0,0,0,0,0,0,0,0,0,0,0,0,0,0,0,0,0,0,0,0,0,0,0,0,0,0,0,0,0,0,0,0,0,0,0,0,0,0,0,0,0,0,0,0,0,0,0,0,0,0,0,0,0,0,0,0,0,0,0,0,0,0,0,0,0,0,0,0,0,0,0,0,0,0,0,0,0,0,0,0,0,0,0,0,0,0,
0,0,0,0,0,0,0,0,0,0,0,0,0,0,0,0,0,0,0,0,0,0,0,0,0,0,0,0,0,0,0,0,0,0,0,0,0,0,0,0,0,0,0,0,0,0,0,0,0,0,0,0,0,0,0,0,0,0,0,0,0,0,0,0,0,0,0,0,0,0,0,0,0,0,0,0,0,0,0,0,0,0,0,0,0,0,0,0,0,0,0,0,
0,0,0,0,0,0,0,0,0,0,0,0,0,0,0,0,0,0,0,0,0,0,0,0,0,0,0,0,0,0,0,0,0,0,0,0,0,0,0,0,0,0,0,0,0,0,0,0,0,0,0,0,0,0,0,0,0,0,0,0,0,0,0,0,0,0,0,0,0,0,0,0,0,0,0,0,0,0,0,0,0,0,0,0,0,0,0,0,0,0,0,0,
0,0,0,0,0,0,0,0,0,0,0,0,0,0,0,0,0,0,0,0,0,0,0,0,0,0,0,0,0,0,0,0,0,0,0,0,0,0,0,0,0,0,0,0,0,0,0,0,0,0,0,0,0,0,0,0,0,0,0,0,0,0,0,0,0,0,0,0,0,0,0,0,0,0,0,0,0,0,0,0,0,0,0,0,0,0,0,0,0,0,0,0,
0,0,0,0,0,0,0,0,0,0,0,0,0,0,0,0,0,0,0,0,0,0,0,0,0,0,0,0,0,0,0,0,0,0,0,0,0,0,0,0,0,0,0,0,0,0,0,0,0,0,0,0,0,0,0,0,0,0,0,0,0,0,0,0,0,0,0,0,0,0,0,0,0,0,0,0,0,0,0,0,0,0,0,0,0,0,0,0,0,0,0,0,
0,0,0,0,0,0,0,0,0,0,0,0,0,0,0,0,0,0,0,0,0,0,0,0,0,0,0,0,0,0,0,0,0,0,0,0,0,0,0,0,0,0,0,0,0,0,0,0,0,0,0,0,0,0,0,0,0,0,0,0,0,0,0,0,0,0,0,0,0,0,0,0,0,0,0,0,0,0,0,0,0,0,0,0,0,0,0,0,0,0,0,0,
0,0,0,0,0,0,0,0,0,0,0,0,0,0,0,0,0,0,0,0,0,0,0,0,0,0,0,0,0,0,0,0,0,0,0,0,0,0,0,0,0,0,0,0,0,0,0,0,0,0,0,0,0,0,0,0,0,0,0,0,0,0,0,0,0,0,0,0,0,0,0,0,0,0,0,0,0,0,0,0,0,0,0,0,0,0,0,0,0,0,0,0,
0,0,0,0,0,0,0,0,0,0,0,0,0,0,0,0,0,0,0,0,0,0,0,0,0,0,0,0,0,0,0,0,0,0,0,0,0,0,0,0,0,0,0,0,0,0,0,0,0,0,0,0,0,0,0,0,0,0,0,0,0,0,0,0,0,0,0,0,0,0,0,0,0,0,0,0,0,0,0,0,0,0,0,0,0,0,0,0,0,0,0,0,
0,0,0,0,0,0,0,0,0,0,0,0,0,0,0,0,0,0,0,0,0,0,0,0,0,0,0,0,0,0,0,0,0,0,0,0,0,0,0,0,0,0,0,0,0,0,0,0,0,0,0,0,0,0,0,0,0,0,0,0,0,0,0,0,0,0,0,0,0,0,0,0,0,0,0,0,0,0,0,0,0,0,0,0,0,0,0,0,0,0,0,0,
0,0,0,0,0,0,0,0,0,0,0,0,0,0,0,0,0,0,0,0,0,0,0,0,0,0,0,0,0,0,0,0,0,0,0,0,0,0,0,0,0,0,0,0,0,0,0,0,0,0,0,0,0,0,0,0,0,0,0,0,0,0,0,0,0,0,0,0,0,0,0,0,0,0,0,0,0,0,0,0,0,0,0,0,0,0,0,0,0,0,0,0,
0,0,0,0,0,0,0,0,0,0,0,0,0,0,0,0,0,0,0,0,0,0,0,0,0,0,0,0,0,0,0,0,0,0,0,0,0,0,0,0,0,0,0,0,0,0,0,0,0,0,0,0,0,0,0,0,0,0,0,0,0,0,0,0,0,0,0,0,0,0,0,0,0,0,0,0,0,0,0,0,0,0,0,0,0,0,0,0,0,0,0,0,
0,0,0,0,0,0,0,0,0,0,0,0,0,0,0,0,0,0,0,0,0,0,0,0,0,0,0,0,0,0,0,0,0,0,0,0,0,0,0,0,0,0,0,0,0,0,0,0,0,0,0,0,0,0,0,0,0,0,0,0,0,0,0,0,0,0,0,0,0,0,0,0,0,0,0,0,0,0,0,0,0,0,0,0,0,0,0,0,0,0,0,0,
0,0,0,0,0,0,0,0,0,0,0,0,0,0,0,0,0,0,0,0,0,0,0,0,0,0,0,0,0,0,0,0,0,0,0,0,0,0,0,0,0,0,0,0,0,0,0,0,0,0,0,0,0,0,0,0,0,0,0,0,0,0,0,0,0,0,0,0,0,0,0,0,0,0,0,0,0,0,0,0,0,0,0,0,0,0,0,0,0,0,0,0,
0,0,0,0,0,0,0,0,0,0,0,0,0,0,0,0,0,0,0,0,0,0,0,0,0,0,0,0,0,0,0,0,0,0,0,0,0,0,0,0,0,0,0,0,0,0,0,0,0,0,0,0,0,0,0,0,0,0,0,0,0,0,0,0,0,0,0,0,0,0,0,0,0,0,0,0,0,0,0,0,0,0,0,0,0,0,0,0,0,0,0,0
</data>
 </layer>
 <layer id="2" name="Objects" width="92" height="52">
  <data encoding="csv">
0,0,0,0,0,0,0,0,0,0,0,0,0,0,0,0,0,0,0,0,0,0,0,0,0,0,0,0,0,0,0,0,0,0,0,0,0,0,0,0,0,0,0,0,0,0,0,0,0,0,0,0,0,0,0,0,0,0,0,0,0,0,0,0,0,0,0,0,0,0,0,0,0,0,0,0,0,0,0,0,0,0,0,0,0,0,0,0,0,0,0,0,
0,0,0,0,0,0,0,0,0,0,0,0,0,0,0,0,0,0,0,0,0,0,0,0,0,0,0,0,0,0,0,0,0,0,0,0,0,0,0,0,0,0,0,0,0,0,0,0,0,0,0,0,0,0,0,0,0,0,0,0,0,0,0,0,0,0,0,0,0,0,0,0,0,0,0,0,0,0,0,0,0,0,0,0,0,0,0,0,0,0,0,0,
0,0,0,0,0,0,0,0,0,0,0,0,0,0,0,0,0,0,0,0,0,0,0,0,0,0,0,0,0,0,0,0,0,0,0,0,0,0,0,0,0,0,0,0,0,0,0,0,0,0,0,0,0,0,0,0,0,0,0,0,0,0,0,0,0,0,0,0,0,0,0,0,0,0,0,0,0,0,0,0,0,0,0,0,0,0,0,0,0,0,0,0,
0,0,0,0,0,0,0,0,0,0,0,0,0,0,0,0,0,0,0,0,0,0,0,0,0,0,0,0,0,0,0,0,0,0,0,0,0,0,0,0,0,0,0,0,0,0,0,0,0,0,0,0,0,0,0,0,0,0,0,0,0,0,0,0,0,0,0,0,0,0,0,0,0,0,0,0,0,0,0,0,0,0,0,0,0,0,0,0,0,0,0,0,
0,0,0,0,0,0,0,0,0,0,0,0,0,0,0,0,0,0,0,0,0,0,0,0,0,0,0,0,0,0,0,0,0,0,0,0,0,0,0,0,0,0,0,0,0,0,0,0,0,0,0,0,0,0,0,0,0,0,0,0,0,0,0,0,0,0,0,0,0,0,0,0,0,0,0,0,0,0,0,0,0,0,0,0,0,0,0,0,0,0,0,0,
0,0,0,0,0,0,0,0,0,0,0,0,0,0,0,0,0,0,0,0,0,0,0,0,0,0,0,0,0,0,0,0,0,0,0,0,0,0,0,0,0,0,0,0,0,0,0,0,0,0,0,0,0,0,0,0,0,0,0,0,0,0,0,0,0,0,0,0,0,0,0,0,0,0,0,0,0,0,0,0,0,0,0,0,0,0,0,0,0,0,0,0,
0,0,0,0,0,0,0,0,0,0,0,0,0,0,0,0,0,0,0,0,0,0,0,0,0,0,0,0,0,0,0,0,0,0,0,0,0,0,0,0,0,0,0,0,0,0,0,0,0,0,0,0,0,0,0,0,0,0,0,0,0,0,0,0,0,0,0,0,0,0,0,0,0,0,0,0,0,0,0,0,0,0,0,0,0,0,0,0,0,0,0,0,
0,0,0,0,0,0,0,0,0,0,0,0,0,0,0,0,0,0,0,0,0,0,0,0,0,0,0,0,0,0,0,0,0,0,0,0,0,0,0,0,0,0,0,0,0,0,0,0,0,0,0,0,0,0,0,0,0,0,0,0,0,0,0,0,0,0,0,0,0,0,0,0,0,0,0,0,0,0,0,0,0,0,0,0,0,0,0,0,0,0,0,0,
0,0,0,0,0,0,0,0,0,0,0,0,0,0,0,0,0,0,0,0,0,0,0,0,0,0,0,0,0,0,0,0,0,0,0,0,0,0,0,0,0,0,0,0,0,0,0,0,0,0,0,0,0,0,0,0,0,0,0,0,0,0,0,0,0,0,0,0,0,0,0,0,0,0,0,0,0,0,0,0,0,0,0,0,0,0,0,0,0,0,0,0,
0,0,0,0,0,0,0,0,0,0,0,0,0,0,0,0,0,0,0,0,0,0,0,0,0,0,0,0,0,0,0,0,0,0,0,0,0,0,0,0,0,0,0,0,0,0,0,0,0,0,0,0,0,0,0,0,0,0,0,0,0,0,0,0,0,0,0,0,0,0,0,0,0,0,0,0,0,0,0,0,0,0,0,0,0,0,0,0,0,0,0,0,
0,0,0,0,0,0,0,0,0,0,0,0,0,0,0,0,0,0,0,0,0,0,0,0,0,0,0,0,0,0,0,0,0,0,0,0,0,0,0,0,0,0,0,0,0,0,0,0,0,0,0,0,0,0,0,0,0,0,0,0,0,0,0,0,0,0,0,0,0,0,0,0,0,0,0,0,0,0,0,0,0,0,0,0,0,0,0,0,0,0,0,0,
0,0,0,0,0,0,0,0,0,0,0,0,0,0,0,0,0,0,0,0,0,0,0,0,0,0,0,0,0,0,0,0,0,0,0,0,0,0,0,0,0,0,0,0,0,0,0,0,0,0,0,0,0,0,0,0,0,0,0,0,0,0,0,0,0,0,0,0,0,0,0,0,0,0,0,0,0,0,0,0,0,0,0,0,0,0,0,0,0,0,0,0,
0,0,0,0,0,0,0,0,0,0,0,0,0,0,0,0,0,0,0,0,0,0,0,0,0,0,0,0,0,0,0,0,0,0,0,0,0,0,0,0,0,0,0,0,0,0,0,0,0,0,0,0,0,0,0,0,0,0,0,0,0,0,0,0,0,0,0,0,0,0,0,0,0,0,0,0,0,0,0,0,0,0,0,0,0,0,0,0,0,0,0,0,
0,0,0,0,0,0,0,0,0,0,0,0,0,0,0,0,0,0,0,0,0,0,0,0,0,0,0,0,0,0,0,0,0,0,0,0,0,0,0,0,0,0,0,0,0,0,0,0,0,0,0,0,0,0,0,0,0,0,0,0,0,0,0,0,0,0,0,0,0,0,0,0,0,0,0,0,0,0,0,0,0,0,0,0,0,0,0,0,0,0,0,0,
0,0,0,0,0,0,0,0,0,0,0,0,0,0,0,0,0,0,0,0,0,0,0,0,0,0,0,0,0,0,0,0,0,0,0,0,0,0,0,0,0,0,0,0,0,0,0,0,0,0,0,0,0,0,0,0,0,247,0,0,0,0,0,0,0,0,0,0,0,0,0,0,0,0,0,0,0,0,0,0,0,0,0,0,0,0,0,0,0,0,0,0,
0,0,0,0,0,0,0,0,0,0,0,0,0,0,0,0,0,0,0,0,0,0,0,0,0,0,0,0,0,0,0,0,0,0,0,0,0,0,0,0,0,0,0,0,0,0,0,0,0,0,0,0,0,0,0,0,0,287,402,288,300,301,302,290,402,291,0,0,0,0,0,0,0,0,0,0,0,0,0,0,0,0,0,0,0,0,0,0,0,0,0,0,
0,0,0,0,0,0,0,0,0,0,0,0,0,0,0,0,0,0,0,0,0,0,0,0,0,0,0,0,0,0,0,0,0,0,0,0,0,0,0,0,0,0,0,0,0,0,0,0,0,0,0,0,0,0,0,0,0,327,442,328,340,341,342,330,442,331,0,0,0,0,0,0,0,0,0,0,0,0,0,0,0,0,0,0,0,0,0,0,0,0,0,0,
0,0,0,0,0,0,0,0,0,0,0,0,0,0,0,0,0,0,0,0,0,0,0,0,0,0,0,0,0,0,0,0,0,0,0,0,0,0,0,0,0,0,0,0,0,0,0,0,0,0,0,0,0,0,0,0,0,367,0,0,0,0,0,0,0,0,0,0,0,0,0,0,0,0,0,0,0,0,0,0,0,0,0,0,0,0,0,0,0,0,0,0,
0,0,0,0,0,0,0,0,0,0,0,0,0,0,0,0,0,0,0,0,0,0,0,0,0,0,0,0,0,0,0,0,0,0,0,0,0,0,0,0,0,0,0,0,0,0,0,0,0,0,0,0,0,0,0,0,0,0,0,0,0,0,0,0,0,0,0,0,0,0,0,0,0,0,0,0,0,0,0,0,0,0,0,0,0,0,0,0,0,0,0,0,
0,0,0,0,0,0,0,0,0,0,0,0,0,0,0,0,0,0,0,0,0,0,0,0,0,0,0,0,0,0,0,0,0,0,0,0,0,0,0,0,0,0,0,0,0,0,0,0,0,0,0,0,0,0,0,0,0,0,0,0,0,0,0,0,0,0,0,0,0,0,0,0,0,0,0,0,0,0,0,0,0,0,0,0,0,0,0,0,0,0,0,0,
0,0,0,0,0,0,0,0,0,0,0,0,0,0,0,0,0,0,0,0,0,0,0,0,0,0,0,0,0,0,0,0,0,0,0,0,0,0,0,0,0,0,0,0,0,0,0,0,0,0,0,0,0,0,0,0,0,0,0,0,0,0,0,0,0,0,0,0,0,0,0,0,0,0,0,0,0,0,0,0,0,0,0,0,0,0,0,0,0,0,0,0,
0,0,0,0,0,0,0,0,0,0,0,0,0,0,0,0,0,0,0,0,0,0,0,0,0,0,0,0,0,0,0,0,0,0,0,0,0,0,0,0,0,0,0,0,0,0,0,0,0,0,0,0,0,0,0,0,0,0,0,0,0,0,0,0,0,0,0,0,286,0,0,0,0,0,0,0,0,0,0,0,0,0,0,0,0,0,0,0,0,0,0,0,
0,0,0,0,0,0,0,0,0,0,0,0,0,0,0,0,0,0,0,0,0,0,0,0,0,0,0,0,0,0,0,0,0,0,0,0,0,0,0,0,0,0,0,0,0,0,0,0,0,0,0,0,0,0,0,0,0,0,0,0,0,0,0,0,0,0,0,0,0,0,0,0,0,0,0,0,0,0,0,0,0,0,0,0,0,0,0,0,0,0,0,0,
0,0,0,0,0,0,0,0,0,0,0,0,0,0,0,0,0,0,0,287,402,300,301,302,402,291,0,0,0,0,0,0,0,0,0,0,0,0,0,0,0,0,0,0,0,0,0,0,0,0,0,0,0,0,0,0,0,0,0,0,0,0,0,0,0,0,0,0,0,0,0,0,0,0,0,0,0,0,0,0,0,0,0,0,0,0,0,0,0,0,0,0,
0,0,0,0,0,0,0,0,0,0,0,0,0,0,0,0,0,0,0,327,442,340,341,342,442,331,0,0,0,0,0,0,0,0,0,0,0,0,0,0,0,0,0,0,0,0,0,0,0,0,0,0,0,0,0,0,0,0,0,0,0,0,0,0,0,0,0,0,0,0,0,0,0,0,0,0,0,0,0,0,0,0,0,0,0,0,0,0,0,0,0,0,
0,0,0,0,0,0,0,0,0,0,0,0,0,0,0,0,0,0,0,0,0,0,0,0,0,0,0,0,0,0,0,0,0,0,0,0,0,0,0,0,0,0,0,0,0,0,0,0,0,0,0,0,0,0,0,0,0,0,0,0,0,0,0,0,0,0,0,0,0,0,0,0,0,0,0,0,0,0,0,0,0,0,0,0,0,0,0,0,0,0,0,0,
0,0,0,0,0,0,0,0,0,0,0,0,0,0,0,0,0,0,0,0,0,0,0,0,0,0,0,0,0,0,0,0,0,0,0,0,0,0,0,0,0,0,0,0,0,0,0,0,0,0,0,0,0,0,0,0,0,0,0,0,0,0,0,0,0,0,0,0,0,0,0,0,0,0,0,0,0,0,0,0,0,0,0,0,0,0,0,0,0,0,0,0,
0,0,0,0,0,0,0,0,0,0,0,0,0,0,0,0,0,0,0,0,0,0,0,0,0,0,0,0,0,0,0,0,0,0,0,0,0,0,0,0,0,0,0,0,0,0,0,0,0,0,0,0,0,0,0,0,0,0,0,0,0,0,0,0,0,0,0,0,0,0,0,0,0,0,0,0,0,0,0,0,0,0,0,0,0,0,0,0,0,0,0,0,
0,0,0,0,0,0,0,0,0,0,0,0,0,0,0,0,0,0,0,0,0,0,0,0,0,0,0,0,0,0,0,0,0,0,0,0,0,0,0,0,0,0,0,0,0,0,0,0,0,0,0,0,0,0,0,0,0,0,0,0,0,0,0,0,0,0,0,0,0,0,0,0,0,0,0,0,0,0,0,0,0,0,0,0,0,0,0,0,0,0,0,0,
0,0,0,0,0,0,0,0,0,0,0,0,0,0,0,0,0,0,0,0,0,0,0,0,0,0,0,0,0,0,0,0,0,0,0,0,0,0,0,0,0,0,0,0,0,0,0,0,0,0,0,0,0,0,0,0,0,0,0,0,0,0,0,0,0,0,0,0,0,0,0,0,0,0,0,0,0,0,0,0,0,0,0,0,0,0,0,0,0,0,0,0,
0,0,0,0,0,0,0,0,0,0,0,0,0,0,0,0,0,0,0,0,0,0,0,0,0,0,0,0,0,4716,4717,0,0,0,0,0,0,0,0,0,0,0,0,0,0,0,0,0,0,0,0,0,0,4689,4691,4691,4691,4691,4691,4691,4691,4691,4691,4691,4691,4691,4691,4691,4666,0,0,0,0,0,0,0,0,0,0,0,0,0,0,0,0,0,0,0,0,0,0,0,
0,0,0,0,0,0,0,0,0,0,0,0,0,0,0,0,0,0,0,0,0,0,0,0,0,0,0,0,0,4739,4740,0,0,0,0,0,912,913,914,0,0,0,0,0,0,0,0,0,0,0,0,0,0,4711,0,0,0,0,4734,0,0,0,0,0,0,0,0,0,0,0,0,0,0,0,0,0,0,0,0,0,0,0,0,0,0,0,0,0,0,0,0,0,
0,0,0,0,0,0,0,0,0,0,0,0,0,0,0,0,0,0,0,0,0,0,0,0,0,0,0,0,0,0,0,0,0,0,0,0,962,963,964,0,0,0,0,0,0,0,0,0,0,0,0,0,0,0,0,0,0,0,0,0,0,0,0,0,0,0,0,0,0,0,0,0,0,0,0,0,0,0,0,0,0,0,0,0,0,0,0,0,0,0,0,0,
0,0,0,0,0,0,0,0,0,0,0,0,0,0,0,0,0,0,0,0,0,0,0,0,0,0,0,0,0,0,0,0,0,0,0,0,962,963,964,0,0,0,0,0,0,0,0,0,0,0,0,0,0,0,0,0,0,0,0,0,0,0,0,0,0,0,0,0,0,0,0,0,0,0,0,0,0,0,0,0,0,0,0,0,0,0,0,0,0,0,0,0,
0,0,0,0,0,0,0,0,0,0,0,0,0,0,0,0,0,0,0,0,0,0,0,0,0,0,0,0,0,0,0,0,0,0,0,0,962,963,964,0,0,0,0,0,0,0,0,0,0,0,0,0,0,4688,0,0,0,0,0,0,0,0,287,289,289,402,289,288,291,0,0,0,0,0,0,0,0,0,0,0,0,0,0,0,0,0,0,0,0,0,0,0,
0,0,0,0,0,0,0,0,0,0,0,0,0,0,0,0,0,0,0,0,0,0,0,0,0,0,0,0,0,0,0,0,0,0,0,0,962,963,964,0,0,0,0,0,0,0,0,0,0,0,0,0,0,4667,0,0,0,0,0,0,0,0,327,329,329,442,329,328,331,0,0,0,0,0,0,0,0,0,0,0,0,0,0,0,0,0,0,0,0,0,0,0,
0,0,0,0,0,0,0,0,0,0,0,0,0,0,0,0,0,0,0,0,0,0,0,0,0,0,0,0,0,0,0,0,0,0,0,0,962,963,964,0,0,0,0,0,0,0,0,0,0,0,0,0,0,4667,0,0,0,0,0,0,0,0,0,0,0,0,0,0,0,0,0,0,0,0,0,0,0,0,0,0,0,0,0,0,0,0,0,0,0,0,0,0,
0,0,0,0,0,0,0,0,0,0,0,0,0,0,0,0,0,0,0,0,0,0,0,0,0,0,0,0,0,0,0,0,0,0,0,0,962,963,964,0,0,0,0,0,0,0,0,0,0,0,0,0,0,0,0,0,0,0,0,0,0,0,0,0,0,0,0,0,0,0,0,0,0,0,0,0,0,0,0,0,0,0,0,0,0,0,0,0,0,0,0,0,
0,0,0,0,0,0,0,0,0,0,0,0,0,0,0,0,0,0,0,0,0,0,0,0,0,0,0,0,0,0,0,0,0,0,0,0,1012,1013,1014,0,0,0,0,0,0,0,0,0,0,0,0,0,0,0,0,0,0,0,0,0,0,0,0,0,0,0,0,0,0,0,0,0,0,0,0,0,0,0,0,0,0,0,0,0,0,0,0,0,0,0,0,0,
0,0,0,0,0,0,0,0,0,0,0,0,0,0,0,0,0,0,0,0,0,0,0,0,0,0,0,0,0,0,0,0,0,0,0,0,0,0,0,0,0,0,0,0,0,0,0,0,0,0,0,0,0,0,0,0,0,0,0,0,0,0,0,0,0,0,0,0,0,0,0,0,0,0,0,0,0,0,0,0,0,0,0,0,0,0,0,0,0,0,0,0,
0,0,0,0,0,0,0,0,0,0,0,0,0,0,0,0,0,0,0,0,0,0,0,0,0,0,0,0,0,0,0,0,0,0,0,0,0,0,0,0,0,0,0,0,0,0,0,0,0,0,0,0,0,0,0,0,0,0,0,0,0,0,0,0,0,0,0,0,0,0,0,0,0,0,0,0,0,0,0,0,0,0,0,0,0,0,0,0,0,0,0,0,
0,0,0,0,0,0,0,0,0,0,0,0,0,0,0,0,0,0,0,0,0,0,0,0,0,0,0,0,0,0,0,0,0,0,0,0,0,0,0,0,0,0,0,0,0,0,0,0,0,0,0,0,0,0,0,0,0,0,0,0,0,0,0,0,0,0,0,0,0,0,0,0,0,0,0,0,0,0,0,0,0,0,0,0,0,0,0,0,0,0,0,0,
0,0,0,0,0,0,0,0,0,0,0,0,0,0,0,0,0,0,0,0,0,0,0,0,0,0,0,0,0,0,0,0,0,0,0,0,0,0,0,0,0,0,0,0,0,0,0,0,0,0,0,0,0,0,0,0,0,0,0,0,0,0,0,0,0,0,0,0,0,0,0,0,0,0,0,0,0,0,0,0,0,0,0,0,0,0,0,0,0,0,0,0,
0,0,0,0,0,0,0,0,0,0,0,0,0,0,0,0,0,0,0,0,0,0,0,0,0,0,0,0,0,0,0,0,0,0,0,0,0,0,0,0,0,0,0,0,0,0,0,0,0,0,0,0,0,0,0,0,0,0,0,0,0,0,0,0,0,0,0,0,0,0,0,0,0,0,0,0,0,0,0,0,0,0,0,0,0,0,0,0,0,0,0,0,
0,0,0,0,0,0,0,0,0,0,0,0,0,0,0,0,0,0,0,0,0,0,0,0,0,0,0,0,0,0,0,0,0,0,0,0,0,0,0,0,0,0,0,0,0,0,0,0,0,0,0,0,0,0,0,0,0,0,0,0,0,0,0,0,0,0,0,0,0,0,0,0,0,0,0,0,0,0,0,0,0,0,0,0,0,0,0,0,0,0,0,0,
0,0,0,0,0,0,0,0,0,0,0,0,0,0,0,0,0,0,0,0,0,0,0,0,0,0,0,0,0,0,0,0,0,0,0,0,0,0,0,0,0,0,0,0,0,0,0,0,0,0,0,0,0,0,0,0,0,0,0,0,0,0,0,0,0,0,0,0,0,0,0,0,0,0,0,0,0,0,0,0,0,0,0,0,0,0,0,0,0,0,0,0,
0,0,0,0,0,0,0,0,0,0,0,0,0,0,0,0,0,0,0,0,0,0,0,0,0,0,0,0,0,0,0,0,0,0,0,0,0,0,0,0,0,0,0,0,0,0,0,0,0,0,0,0,0,0,0,0,0,0,0,0,0,0,0,0,0,0,0,0,0,0,0,0,0,0,0,0,0,0,0,0,0,0,0,0,0,0,0,0,0,0,0,0,
0,0,0,0,0,0,0,0,0,0,0,0,0,0,0,0,0,0,0,0,0,0,0,0,0,0,0,0,0,0,0,0,0,0,0,0,0,0,0,0,0,0,0,0,0,0,0,0,0,0,0,0,0,0,0,0,0,0,0,0,0,0,0,0,0,0,0,0,0,0,0,0,0,0,0,0,0,0,0,0,0,0,0,0,0,0,0,0,0,0,0,0,
0,0,0,0,0,0,0,0,0,0,0,0,0,0,0,0,0,0,0,0,0,0,0,0,0,0,0,0,0,0,0,0,0,0,0,0,0,0,0,0,0,0,0,0,0,0,0,0,0,0,0,0,0,0,0,0,0,0,0,0,0,0,0,0,0,0,0,0,0,0,0,0,0,0,0,0,0,0,0,0,0,0,0,0,0,0,0,0,0,0,0,0,
0,0,0,0,0,0,0,0,0,0,0,0,0,0,0,0,0,0,0,0,0,0,0,0,0,0,0,0,0,0,0,0,0,0,0,0,0,0,0,0,0,0,0,0,0,0,0,0,0,0,0,0,0,0,0,0,0,0,0,0,0,0,0,0,0,0,0,0,0,0,0,0,0,0,0,0,0,0,0,0,0,0,0,0,0,0,0,0,0,0,0,0,
0,0,0,0,0,0,0,0,0,0,0,0,0,0,0,0,0,0,0,0,0,0,0,0,0,0,0,0,0,0,0,0,0,0,0,0,0,0,0,0,0,0,0,0,0,0,0,0,0,0,0,0,0,0,0,0,0,0,0,0,0,0,0,0,0,0,0,0,0,0,0,0,0,0,0,0,0,0,0,0,0,0,0,0,0,0,0,0,0,0,0,0,
0,0,0,0,0,0,0,0,0,0,0,0,0,0,0,0,0,0,0,0,0,0,0,0,0,0,0,0,0,0,0,0,0,0,0,0,0,0,0,0,0,0,0,0,0,0,0,0,0,0,0,0,0,0,0,0,0,0,0,0,0,0,0,0,0,0,0,0,0,0,0,0,0,0,0,0,0,0,0,0,0,0,0,0,0,0,0,0,0,0,0,0
</data>
 </layer>
 <layer id="11" name="Objects2" width="92" height="52">
  <data encoding="csv">
0,0,0,0,0,0,0,0,0,0,0,0,0,0,0,0,0,0,0,0,0,0,0,0,0,0,0,0,0,0,0,0,0,0,0,0,0,0,0,0,0,0,0,0,0,0,0,0,0,0,0,0,0,0,0,0,0,0,0,0,0,0,0,0,0,0,0,0,0,0,0,0,0,0,0,0,0,0,0,0,0,0,0,0,0,0,0,0,0,0,0,0,
0,0,0,0,0,0,0,0,0,0,0,0,0,0,0,0,0,0,0,0,0,0,0,0,0,0,0,0,0,0,0,0,0,0,0,0,0,0,0,0,0,0,0,0,0,0,0,0,0,0,0,0,0,0,0,0,0,0,0,0,0,0,0,0,0,0,0,0,0,0,0,0,0,0,0,0,0,0,0,0,0,0,0,0,0,0,0,0,0,0,0,0,
0,0,0,0,0,0,0,0,0,0,0,0,0,0,0,0,0,0,0,0,0,0,0,0,0,0,0,0,0,0,0,0,0,0,0,0,0,0,0,0,0,0,0,0,0,0,0,0,0,0,0,0,0,0,0,0,0,0,0,0,0,0,0,0,0,0,0,0,0,0,0,0,0,0,0,0,0,0,0,0,0,0,0,0,0,0,0,0,0,0,0,0,
0,0,0,0,0,0,0,0,0,0,0,0,0,0,0,0,0,0,0,0,0,0,0,0,0,0,0,0,0,0,0,0,0,0,0,0,0,0,0,0,0,0,0,0,0,0,0,0,0,0,0,0,0,0,0,0,0,0,0,0,0,0,0,0,0,0,0,0,0,0,0,0,0,0,0,0,0,0,0,0,0,0,0,0,0,0,0,0,0,0,0,0,
0,0,0,0,0,0,0,0,0,0,0,0,0,0,0,0,0,0,0,0,0,0,0,0,0,0,0,0,0,0,0,0,0,0,0,0,0,0,0,0,0,0,0,0,0,0,0,0,0,0,0,0,0,0,0,0,0,0,0,0,0,0,0,0,0,0,0,0,0,0,0,0,0,0,0,0,0,0,0,0,0,0,0,0,0,0,0,0,0,0,0,0,
0,0,0,0,0,0,0,0,0,0,0,0,0,0,0,0,0,0,0,0,0,0,0,0,0,0,0,0,0,0,0,0,0,0,0,0,0,0,0,0,0,0,0,0,0,0,0,0,0,0,0,0,0,0,0,0,0,0,0,0,0,0,0,0,0,0,0,0,0,0,0,0,0,0,0,0,0,0,0,0,0,0,0,0,0,0,0,0,0,0,0,0,
0,0,0,0,0,0,0,0,0,0,0,0,0,0,0,0,0,0,0,0,0,0,0,0,0,0,0,0,0,0,0,0,0,0,0,0,0,0,0,0,0,0,0,0,0,0,0,0,0,0,0,0,0,0,0,0,0,0,0,0,0,0,0,0,0,0,0,0,0,0,0,0,0,0,0,0,0,0,0,0,0,0,0,0,0,0,0,0,0,0,0,0,
0,0,0,0,0,0,0,0,0,0,0,0,0,0,0,0,0,0,0,0,0,0,0,0,0,0,0,0,0,0,0,0,0,0,0,0,0,0,0,0,0,0,0,0,0,0,0,0,0,0,0,0,0,0,0,0,0,0,0,0,0,0,0,0,0,0,0,0,0,0,0,0,0,0,0,0,0,0,0,0,0,0,0,0,0,0,0,0,0,0,0,0,
0,0,0,0,0,0,0,0,0,0,0,0,0,0,0,0,0,0,0,0,0,0,0,0,0,0,0,0,0,0,0,0,0,0,0,0,0,0,0,0,0,0,0,0,0,0,0,0,0,0,0,0,0,0,0,0,0,0,0,0,0,0,0,0,0,0,0,0,0,0,0,0,0,0,0,0,0,0,0,0,0,0,0,0,0,0,0,0,0,0,0,0,
0,0,0,0,0,0,0,0,0,0,0,0,0,0,0,0,0,0,0,0,0,0,0,0,0,0,0,0,0,0,0,0,0,0,0,0,0,0,0,0,0,0,0,0,0,0,0,0,0,0,0,0,0,0,0,0,0,0,0,0,0,0,0,0,0,0,0,0,0,0,0,0,0,0,0,0,0,0,0,0,0,0,0,0,0,0,0,0,0,0,0,0,
0,0,0,0,0,0,0,0,0,0,0,0,0,0,0,0,0,0,0,0,0,0,0,0,0,0,0,0,0,0,0,0,0,0,0,0,0,0,0,0,0,0,0,0,0,0,0,0,0,0,0,0,0,0,0,0,0,0,0,0,0,0,0,0,0,0,0,0,0,0,0,0,0,0,0,0,0,0,0,0,0,0,0,0,0,0,0,0,0,0,0,0,
0,0,0,0,0,0,0,0,0,0,0,0,0,0,0,0,0,0,0,0,0,0,0,0,0,0,0,0,0,0,0,0,0,0,0,0,0,0,0,0,0,0,0,0,0,0,0,0,0,0,0,0,0,0,0,0,0,0,0,0,0,0,0,0,0,0,0,0,0,0,0,0,0,0,0,0,0,0,0,0,0,0,0,0,0,0,0,0,0,0,0,0,
0,0,0,0,0,0,0,0,0,0,0,0,0,0,0,0,0,0,0,0,0,0,0,0,0,0,0,0,0,0,0,0,0,0,0,0,0,0,0,0,0,0,0,0,0,0,0,0,0,0,0,0,0,0,0,0,0,0,0,0,0,0,0,0,0,0,0,0,0,0,0,0,0,0,0,0,0,0,0,0,0,0,0,0,0,0,0,0,0,0,0,0,
0,0,0,0,0,0,0,0,0,0,0,0,0,0,0,0,0,0,0,0,0,0,0,0,0,0,0,0,0,0,0,0,0,0,0,0,0,0,0,0,0,0,0,0,0,0,0,0,0,0,0,0,0,0,0,0,0,0,0,0,0,0,0,0,0,0,0,0,0,0,0,0,0,0,0,0,0,0,0,0,0,0,0,0,0,0,0,0,0,0,0,0,
0,0,0,0,0,0,0,0,0,0,0,0,0,0,0,0,0,0,0,0,0,0,0,0,0,0,0,0,0,0,0,0,0,0,0,0,0,0,0,0,0,0,0,0,0,0,0,0,0,0,0,0,0,0,0,0,0,0,0,0,0,0,0,0,0,0,0,0,0,0,0,0,0,0,0,0,0,0,0,0,0,0,0,0,0,0,0,0,0,0,0,0,
0,0,0,0,0,0,0,0,0,0,0,0,0,0,0,0,0,0,0,0,0,0,0,0,0,0,0,0,0,0,0,0,0,0,0,0,0,0,0,0,0,0,0,0,0,0,0,0,0,0,0,0,0,0,0,0,0,0,0,0,0,0,0,0,0,0,0,0,0,0,0,0,0,0,0,0,0,0,0,0,0,0,0,0,0,0,0,0,0,0,0,0,
0,0,0,0,0,0,0,0,0,0,0,0,0,0,0,0,0,0,0,0,0,0,0,0,0,0,0,0,0,0,0,0,0,0,0,0,0,0,0,0,0,0,0,0,0,0,0,0,0,0,0,0,0,0,0,0,0,0,0,0,0,0,0,0,0,0,0,0,0,0,0,0,0,0,0,0,0,0,0,0,0,0,0,0,0,0,0,0,0,0,0,0,
0,0,0,0,0,0,0,0,0,0,0,0,0,0,0,0,0,0,0,0,0,0,0,0,0,0,0,0,0,0,0,0,0,0,0,0,0,0,0,0,0,0,0,0,0,0,0,0,0,0,0,0,0,0,0,0,0,0,0,0,0,0,0,0,0,0,0,0,0,0,0,0,0,0,0,0,0,0,0,0,0,0,0,0,0,0,0,0,0,0,0,0,
0,0,0,0,0,0,0,0,0,0,0,0,0,0,0,0,0,0,0,0,0,0,0,0,0,0,0,0,0,0,0,0,0,0,0,0,0,0,0,0,0,0,0,0,0,0,0,0,0,0,0,0,0,0,0,0,0,0,0,0,0,0,0,0,0,0,0,0,0,0,0,0,0,0,0,0,0,0,0,0,0,0,0,0,0,0,0,0,0,0,0,0,
0,0,0,0,0,0,0,0,0,0,0,0,0,0,0,0,0,0,0,0,0,0,0,0,0,0,0,0,0,0,0,0,0,0,0,0,0,0,0,0,0,0,0,0,0,0,0,0,0,0,0,0,0,0,0,0,0,0,0,0,0,0,0,0,0,0,0,0,0,0,0,0,0,0,0,0,0,0,0,0,0,0,0,0,0,0,0,0,0,0,0,0,
0,0,0,0,0,0,0,0,0,0,0,0,0,0,0,0,0,0,0,0,0,0,0,0,0,0,0,0,0,0,0,0,0,0,0,0,0,0,0,0,0,0,0,0,0,0,0,0,0,0,0,0,0,0,0,0,0,0,0,0,0,0,0,0,0,0,0,0,0,0,0,0,0,0,0,0,0,0,0,0,0,0,0,0,0,0,0,0,0,0,0,0,
0,0,0,0,0,0,0,0,0,0,0,0,0,0,0,0,0,0,0,0,0,0,0,0,0,0,0,0,0,0,0,0,0,0,0,0,0,0,0,0,0,0,0,0,0,0,0,0,0,0,0,0,0,0,0,0,0,0,0,0,0,0,0,0,0,0,0,0,0,0,0,0,0,0,0,0,0,0,0,0,0,0,0,0,0,0,0,0,0,0,0,0,
0,0,0,0,0,0,0,0,0,0,0,0,0,0,0,0,0,0,0,0,0,0,0,0,0,0,0,0,0,0,0,0,0,0,0,0,0,0,0,0,0,0,0,0,0,0,0,0,0,0,0,0,0,0,0,0,0,0,0,0,0,0,0,0,0,0,0,0,0,0,0,0,0,0,0,0,0,0,0,0,0,0,0,0,0,0,0,0,0,0,0,0,
0,0,0,0,0,0,0,0,0,0,0,0,0,0,0,0,0,0,0,0,0,0,0,0,0,0,0,0,0,0,0,0,0,0,0,0,0,0,0,0,0,0,0,0,0,0,0,0,0,0,0,0,0,0,0,0,0,0,0,0,0,0,0,0,0,0,0,0,0,0,0,0,0,0,0,0,0,0,0,0,0,0,0,0,0,0,0,0,0,0,0,0,
0,0,0,0,0,0,0,0,0,0,0,0,0,0,0,0,0,0,0,0,0,0,0,0,0,0,0,0,0,0,0,0,0,0,0,0,0,0,0,0,0,0,0,0,0,0,0,0,0,0,0,0,0,0,0,0,0,0,0,0,0,0,0,0,0,0,0,0,0,0,0,0,0,0,0,0,0,0,0,0,0,0,0,0,0,0,0,0,0,0,0,0,
0,0,0,0,0,0,0,0,0,0,0,0,0,0,0,0,0,0,0,0,0,0,0,0,0,0,0,0,0,0,0,0,0,0,0,0,0,0,0,0,0,0,0,0,0,0,0,0,0,0,0,0,0,0,0,0,0,0,0,0,0,0,0,0,0,0,0,0,0,0,0,0,0,0,0,0,0,0,0,0,0,0,0,0,0,0,0,0,0,0,0,0,
0,0,0,0,0,0,0,0,0,0,0,0,0,0,0,0,0,0,0,0,0,0,0,0,0,0,0,0,0,0,0,0,0,0,0,0,0,0,0,0,0,0,0,0,0,0,0,0,0,0,0,0,0,0,0,0,0,0,0,0,0,0,0,0,0,0,0,0,0,0,0,0,0,0,0,0,0,0,0,0,0,0,0,0,0,0,0,0,0,0,0,0,
0,0,0,0,0,0,0,0,0,0,0,0,0,0,0,0,0,0,0,0,0,0,0,0,0,0,0,0,0,0,0,0,0,0,0,0,0,0,0,0,0,0,0,0,0,0,0,0,0,0,0,0,0,0,0,0,0,0,0,0,0,0,0,0,0,0,0,0,0,0,0,0,0,0,0,0,0,0,0,0,0,0,0,0,0,0,0,0,0,0,0,0,
0,0,0,0,0,0,0,0,0,0,0,0,0,0,0,0,0,0,0,0,0,0,0,0,0,0,0,0,0,0,0,0,0,0,0,0,0,0,0,0,0,0,0,0,0,0,0,0,0,0,0,0,0,0,0,0,0,0,0,0,0,0,0,0,0,0,0,0,0,0,0,0,0,0,0,0,0,0,0,0,0,0,0,0,0,0,0,0,0,0,0,0,
0,0,0,0,0,0,0,0,0,0,0,0,0,0,0,0,0,0,0,0,0,0,0,0,0,0,0,0,0,0,0,0,0,0,0,0,0,0,0,0,0,0,0,0,0,0,0,0,0,0,0,0,0,0,0,0,0,0,0,0,0,0,0,0,0,0,0,0,0,0,0,0,0,0,0,0,0,0,0,0,0,0,0,0,0,0,0,0,0,0,0,0,
0,0,0,0,0,0,0,0,0,0,0,0,0,0,0,0,0,0,0,0,0,0,0,0,0,0,0,0,0,0,0,0,0,0,0,0,0,0,0,0,0,0,0,0,0,0,0,0,0,0,0,0,0,0,0,0,0,0,0,0,0,0,0,0,0,0,0,0,0,0,0,0,0,0,0,0,0,0,0,0,0,0,0,0,0,0,0,0,0,0,0,0,
0,0,0,0,0,0,0,0,0,0,0,0,0,0,0,0,0,0,0,0,0,0,0,0,0,0,0,0,0,0,0,0,0,0,0,0,0,0,0,0,0,0,0,0,0,0,0,0,0,0,0,0,0,0,0,0,0,0,0,0,0,0,0,0,0,0,0,0,0,0,0,0,0,0,0,0,0,0,0,0,0,0,0,0,0,0,0,0,0,0,0,0,
0,0,0,0,0,0,0,0,0,0,0,0,0,0,0,0,0,0,0,0,0,0,0,0,0,0,0,0,0,0,0,0,0,0,0,0,0,0,0,0,0,0,0,0,0,0,0,0,0,0,0,0,0,0,0,0,0,0,0,0,0,0,0,0,0,0,0,0,0,0,0,0,0,0,0,0,0,0,0,0,0,0,0,0,0,0,0,0,0,0,0,0,
0,0,0,0,0,0,0,0,0,0,0,0,0,0,0,0,0,0,0,0,0,0,0,0,0,0,0,0,0,0,0,0,0,0,0,0,0,0,0,0,0,0,0,0,0,0,0,0,0,0,0,0,0,0,0,0,0,0,0,0,0,0,0,0,0,0,0,0,0,0,0,0,0,0,0,0,0,0,0,0,0,0,0,0,0,0,0,0,0,0,0,0,
0,0,0,0,0,0,0,0,0,0,0,0,0,0,0,0,0,0,0,0,0,0,0,0,0,0,0,0,0,0,0,0,0,0,0,0,0,0,0,0,0,0,0,0,0,0,0,0,0,0,0,0,0,0,0,0,0,0,0,0,0,0,0,0,0,0,0,0,0,0,0,0,0,0,0,0,0,0,0,0,0,0,0,0,0,0,0,0,0,0,0,0,
0,0,0,0,0,0,0,0,0,0,0,0,0,0,0,0,0,0,0,0,0,0,0,0,0,0,0,0,0,0,0,0,0,0,0,0,0,0,0,0,0,0,0,0,0,0,0,0,0,0,0,0,0,0,0,0,0,0,0,0,0,0,0,0,692,693,693,693,693,0,0,0,0,0,0,0,0,0,0,0,0,0,0,0,0,0,0,0,0,0,0,0,
0,0,0,0,0,0,0,0,0,0,0,0,0,0,0,0,0,0,0,0,0,0,0,0,0,0,0,0,0,0,0,0,0,0,0,0,0,0,0,0,0,0,0,0,0,0,0,0,0,0,0,0,0,0,0,0,0,0,0,0,0,0,0,0,0,0,0,0,0,0,0,0,0,0,0,0,0,0,0,0,0,0,0,0,0,0,0,0,0,0,0,0,
0,0,0,0,0,0,0,0,0,0,0,0,0,0,0,0,0,0,0,0,0,0,0,0,0,0,0,0,0,0,0,0,0,0,0,0,0,0,0,0,0,0,0,0,0,0,0,0,0,0,0,0,0,0,0,0,0,0,0,0,0,0,0,0,0,0,0,0,0,0,0,0,0,0,0,0,0,0,0,0,0,0,0,0,0,0,0,0,0,0,0,0,
0,0,0,0,0,0,0,0,0,0,0,0,0,0,0,0,0,0,0,0,0,0,0,0,0,0,0,0,0,0,0,0,0,0,0,0,0,0,0,0,0,0,0,0,0,0,0,0,0,0,0,0,0,0,0,0,0,0,0,0,0,0,0,0,0,0,0,0,0,0,0,0,0,0,0,0,0,0,0,0,0,0,0,0,0,0,0,0,0,0,0,0,
0,0,0,0,0,0,0,0,0,0,0,0,0,0,0,0,0,0,0,0,0,0,0,0,0,0,0,0,0,0,0,0,0,0,0,0,0,0,0,0,0,0,0,0,0,0,0,0,0,0,0,0,0,0,0,0,0,0,0,0,0,0,0,0,0,0,0,0,0,0,0,0,0,0,0,0,0,0,0,0,0,0,0,0,0,0,0,0,0,0,0,0,
0,0,0,0,0,0,0,0,0,0,0,0,0,0,0,0,0,0,0,0,0,0,0,0,0,0,0,0,0,0,0,0,0,0,0,0,0,0,0,0,0,0,0,0,0,0,0,0,0,0,0,0,0,0,0,0,0,0,0,0,0,0,0,0,0,0,0,0,0,0,0,0,0,0,0,0,0,0,0,0,0,0,0,0,0,0,0,0,0,0,0,0,
0,0,0,0,0,0,0,0,0,0,0,0,0,0,0,0,0,0,0,0,0,0,0,0,0,0,0,0,0,0,0,0,0,0,0,0,0,0,0,0,0,0,0,0,0,0,0,0,0,0,0,0,0,0,0,0,0,0,0,0,0,0,0,0,0,0,0,0,0,0,0,0,0,0,0,0,0,0,0,0,0,0,0,0,0,0,0,0,0,0,0,0,
0,0,0,0,0,0,0,0,0,0,0,0,0,0,0,0,0,0,0,0,0,0,0,0,0,0,0,0,0,0,0,0,0,0,0,0,0,0,0,0,0,0,0,0,0,0,0,0,0,0,0,0,0,0,0,0,0,0,0,0,0,0,0,0,0,0,0,0,0,0,0,0,0,0,0,0,0,0,0,0,0,0,0,0,0,0,0,0,0,0,0,0,
0,0,0,0,0,0,0,0,0,0,0,0,0,0,0,0,0,0,0,0,0,0,0,0,0,0,0,0,0,0,0,0,0,0,0,0,0,0,0,0,0,0,0,0,0,0,0,0,0,0,0,0,0,0,0,0,0,0,0,0,0,0,0,0,0,0,0,0,0,0,0,0,0,0,0,0,0,0,0,0,0,0,0,0,0,0,0,0,0,0,0,0,
0,0,0,0,0,0,0,0,0,0,0,0,0,0,0,0,0,0,0,0,0,0,0,0,0,0,0,0,0,0,0,0,0,0,0,0,0,0,0,0,0,0,0,0,0,0,0,0,0,0,0,0,0,0,0,0,0,0,0,0,0,0,0,0,0,0,0,0,0,0,0,0,0,0,0,0,0,0,0,0,0,0,0,0,0,0,0,0,0,0,0,0,
0,0,0,0,0,0,0,0,0,0,0,0,0,0,0,0,0,0,0,0,0,0,0,0,0,0,0,0,0,0,0,0,0,0,0,0,0,0,0,0,0,0,0,0,0,0,0,0,0,0,0,0,0,0,0,0,0,0,0,0,0,0,0,0,0,0,0,0,0,0,0,0,0,0,0,0,0,0,0,0,0,0,0,0,0,0,0,0,0,0,0,0,
0,0,0,0,0,0,0,0,0,0,0,0,0,0,0,0,0,0,0,0,0,0,0,0,0,0,0,0,0,0,0,0,0,0,0,0,0,0,0,0,0,0,0,0,0,0,0,0,0,0,0,0,0,0,0,0,0,0,0,0,0,0,0,0,0,0,0,0,0,0,0,0,0,0,0,0,0,0,0,0,0,0,0,0,0,0,0,0,0,0,0,0,
0,0,0,0,0,0,0,0,0,0,0,0,0,0,0,0,0,0,0,0,0,0,0,0,0,0,0,0,0,0,0,0,0,0,0,0,0,0,0,0,0,0,0,0,0,0,0,0,0,0,0,0,0,0,0,0,0,0,0,0,0,0,0,0,0,0,0,0,0,0,0,0,0,0,0,0,0,0,0,0,0,0,0,0,0,0,0,0,0,0,0,0,
0,0,0,0,0,0,0,0,0,0,0,0,0,0,0,0,0,0,0,0,0,0,0,0,0,0,0,0,0,0,0,0,0,0,0,0,0,0,0,0,0,0,0,0,0,0,0,0,0,0,0,0,0,0,0,0,0,0,0,0,0,0,0,0,0,0,0,0,0,0,0,0,0,0,0,0,0,0,0,0,0,0,0,0,0,0,0,0,0,0,0,0,
0,0,0,0,0,0,0,0,0,0,0,0,0,0,0,0,0,0,0,0,0,0,0,0,0,0,0,0,0,0,0,0,0,0,0,0,0,0,0,0,0,0,0,0,0,0,0,0,0,0,0,0,0,0,0,0,0,0,0,0,0,0,0,0,0,0,0,0,0,0,0,0,0,0,0,0,0,0,0,0,0,0,0,0,0,0,0,0,0,0,0,0,
0,0,0,0,0,0,0,0,0,0,0,0,0,0,0,0,0,0,0,0,0,0,0,0,0,0,0,0,0,0,0,0,0,0,0,0,0,0,0,0,0,0,0,0,0,0,0,0,0,0,0,0,0,0,0,0,0,0,0,0,0,0,0,0,0,0,0,0,0,0,0,0,0,0,0,0,0,0,0,0,0,0,0,0,0,0,0,0,0,0,0,0,
0,0,0,0,0,0,0,0,0,0,0,0,0,0,0,0,0,0,0,0,0,0,0,0,0,0,0,0,0,0,0,0,0,0,0,0,0,0,0,0,0,0,0,0,0,0,0,0,0,0,0,0,0,0,0,0,0,0,0,0,0,0,0,0,0,0,0,0,0,0,0,0,0,0,0,0,0,0,0,0,0,0,0,0,0,0,0,0,0,0,0,0
</data>
 </layer>
 <layer id="17" name="Top" width="92" height="52">
  <data encoding="csv">
0,0,0,0,0,0,0,0,0,0,0,0,0,0,0,0,0,0,0,0,0,0,0,0,0,0,0,0,0,0,0,0,0,0,0,0,0,0,0,0,0,0,0,0,0,0,0,0,0,0,0,0,0,0,0,0,0,0,0,0,0,0,0,0,0,0,0,0,0,0,0,0,0,0,0,0,0,0,0,0,0,0,0,0,0,0,0,0,0,0,0,0,
0,0,0,0,0,0,0,0,0,0,0,0,0,0,0,0,0,0,0,0,0,0,0,0,0,0,0,0,0,0,0,0,0,0,0,0,0,0,0,0,0,0,0,0,0,0,0,0,0,0,0,0,0,0,0,0,0,0,0,0,0,0,0,0,0,0,0,0,0,0,0,0,0,0,0,0,0,0,0,0,0,0,0,0,0,0,0,0,0,0,0,0,
0,0,0,0,0,0,0,0,0,0,0,0,0,0,0,0,0,0,0,0,0,0,0,0,0,0,0,0,0,0,0,0,0,0,0,0,0,0,0,0,0,0,0,0,0,0,0,0,0,0,0,0,0,0,0,0,0,0,0,0,0,0,0,0,0,0,0,0,0,0,0,0,0,0,0,0,0,0,0,0,0,0,0,0,0,0,0,0,0,0,0,0,
0,0,0,0,0,0,0,0,0,0,0,0,0,0,0,0,0,0,0,0,0,0,0,0,0,0,0,0,0,0,0,0,0,0,0,0,0,0,0,0,0,0,0,0,0,0,0,0,0,0,0,0,0,0,0,0,0,0,0,0,0,0,0,0,0,0,0,0,0,0,0,0,0,0,0,0,0,0,0,0,0,0,0,0,0,0,0,0,0,0,0,0,
0,0,0,0,0,0,0,0,0,0,0,0,0,0,0,0,0,0,0,0,0,0,0,0,0,0,0,0,0,0,0,0,0,0,0,0,0,0,0,0,0,0,0,0,0,0,0,0,0,0,0,0,0,0,0,0,0,0,0,0,0,0,0,0,0,0,0,0,0,0,0,0,0,0,0,0,0,0,0,0,0,0,0,0,0,0,0,0,0,0,0,0,
0,0,0,0,0,0,0,0,0,0,0,0,0,0,0,0,0,0,0,0,0,0,0,0,0,0,0,0,0,0,0,0,0,0,0,0,0,0,0,0,0,0,0,0,0,0,0,0,0,0,0,0,0,0,0,0,0,0,0,0,0,0,0,0,0,0,0,0,0,0,0,0,0,0,0,0,0,0,0,0,0,0,0,0,0,0,0,0,0,0,0,0,
0,0,0,0,0,0,0,0,0,0,0,0,0,0,0,0,0,0,0,0,0,0,0,0,0,0,0,0,0,0,0,0,0,0,0,0,0,0,0,0,0,0,0,0,0,0,0,0,0,0,0,0,0,0,0,0,0,0,0,0,0,0,0,0,0,0,0,0,0,0,0,0,0,0,0,0,0,0,0,0,0,0,0,0,0,0,0,0,0,0,0,0,
0,0,0,0,0,0,0,0,0,0,0,0,0,0,0,0,0,0,0,0,0,0,0,0,0,0,0,0,0,0,0,0,0,0,0,0,0,0,0,0,0,0,0,0,0,0,0,0,0,0,0,0,0,0,0,0,0,0,0,0,0,0,0,0,0,0,0,0,0,0,0,0,0,0,0,0,0,0,0,0,0,0,0,0,0,0,0,0,0,0,0,0,
0,0,0,0,0,0,0,0,0,0,0,0,0,0,0,0,0,0,0,0,0,0,0,0,0,0,0,0,0,0,0,0,0,0,0,0,0,0,0,0,0,0,0,0,0,0,0,0,0,0,0,0,0,0,0,0,0,0,0,0,0,0,0,0,0,0,0,0,0,0,0,0,0,0,0,0,0,0,0,0,0,0,0,0,0,0,0,0,0,0,0,0,
0,0,0,0,0,0,0,0,0,0,0,0,0,0,0,0,0,0,0,0,0,0,0,0,0,0,0,0,0,0,0,0,0,0,0,0,0,0,0,0,0,0,0,0,0,0,0,0,0,0,0,0,0,0,0,0,0,0,0,0,0,0,0,0,0,0,0,0,0,0,0,0,0,0,0,0,0,0,0,0,0,0,0,0,0,0,0,0,0,0,0,0,
0,0,0,0,0,0,0,0,0,0,0,0,0,0,0,0,0,0,0,0,0,0,0,0,0,0,0,0,0,0,0,0,0,0,0,0,0,0,0,0,0,0,0,0,0,0,0,0,0,0,0,0,0,0,0,0,0,0,0,0,0,0,0,0,0,0,0,0,0,0,0,0,0,0,0,0,0,0,0,0,0,0,0,0,0,0,0,0,0,0,0,0,
0,0,0,0,0,0,0,0,0,0,0,0,0,0,0,0,0,0,0,0,0,0,0,0,0,0,0,0,0,0,0,0,0,0,0,0,0,0,0,0,0,0,0,0,0,0,0,0,0,0,0,0,0,0,0,0,0,405,406,407,408,407,407,407,408,409,0,0,0,0,0,0,0,0,0,0,0,0,0,0,0,0,0,0,0,0,0,0,0,0,0,0,
0,0,0,0,0,0,0,0,0,0,0,0,0,0,0,0,0,0,0,0,0,0,0,0,0,0,0,0,0,0,0,0,0,0,0,0,0,0,0,0,0,0,0,0,0,0,0,0,0,0,0,0,0,0,0,0,0,445,446,447,448,447,447,447,448,449,0,0,0,0,0,0,0,0,0,0,0,0,0,0,0,0,0,0,0,0,0,0,0,0,0,0,
0,0,0,0,0,0,0,0,0,0,0,0,0,0,0,0,0,0,0,0,0,0,0,0,0,0,0,0,0,0,0,0,0,0,0,0,0,0,0,0,0,0,0,0,0,0,0,0,0,0,0,0,0,0,0,0,0,485,486,487,488,487,487,487,488,489,0,0,0,0,0,0,0,0,0,0,0,0,0,0,0,0,0,0,0,0,0,0,0,0,0,0,
0,0,0,0,0,0,0,0,0,0,0,0,0,0,0,0,0,0,0,0,0,0,0,0,0,0,0,0,0,0,0,0,0,0,0,0,0,0,0,0,0,0,0,0,0,0,0,0,0,0,0,0,0,0,0,0,0,525,526,527,528,527,527,527,528,529,0,0,0,0,0,0,0,0,0,0,0,0,0,0,0,0,0,0,0,0,0,0,0,0,0,0,
0,0,0,0,0,0,0,0,0,0,0,0,0,0,0,0,0,0,0,0,0,0,0,12,0,0,0,0,0,0,0,0,0,0,0,0,0,0,0,0,0,0,0,0,0,0,0,0,0,0,0,0,0,0,0,0,0,565,566,567,568,567,567,567,568,569,0,0,0,0,0,0,0,0,0,0,0,0,0,0,0,0,0,0,0,0,0,0,0,0,0,0,
0,0,0,0,0,0,0,0,0,0,0,0,0,0,0,0,0,0,0,0,0,0,0,0,0,0,0,0,0,0,0,0,0,0,0,0,0,0,0,0,0,0,0,0,0,0,0,0,0,0,0,0,0,0,0,0,0,0,0,0,0,0,0,0,0,0,0,0,0,0,0,0,0,0,0,0,0,0,0,0,0,0,0,0,0,0,0,0,0,0,0,0,
0,0,0,0,0,0,0,0,0,0,0,0,0,0,0,0,0,0,0,0,0,0,0,0,0,0,0,0,0,0,0,0,0,0,0,0,0,0,0,0,0,0,0,0,0,0,0,0,0,0,0,0,0,0,0,0,0,0,0,0,0,0,0,0,0,0,0,0,0,0,0,0,0,0,0,0,0,0,0,0,0,0,0,0,0,0,0,0,0,0,0,0,
0,0,0,0,0,0,0,0,0,0,0,0,0,0,0,0,0,0,0,0,0,0,0,0,0,0,0,0,0,0,0,0,0,0,0,0,0,0,0,0,0,0,0,0,0,0,0,0,0,0,0,0,0,0,0,0,0,0,0,0,0,0,0,0,0,0,0,0,0,0,0,0,0,0,0,0,0,0,0,0,0,0,0,0,0,0,0,0,0,0,0,0,
0,0,0,0,0,0,0,0,0,0,0,0,0,0,0,0,0,0,0,411,412,413,413,413,413,91,0,0,0,0,0,0,0,0,0,0,0,0,0,0,0,0,0,0,0,0,0,0,0,0,0,0,0,0,0,0,0,0,0,0,0,0,0,0,0,0,0,0,0,0,0,58,0,0,0,0,0,0,0,0,0,0,0,0,0,0,0,0,0,0,0,0,
0,0,0,0,0,0,0,0,0,0,0,0,0,0,0,0,0,0,0,451,452,453,453,453,453,131,0,0,0,0,0,0,0,0,0,0,0,0,0,0,0,0,0,0,0,0,0,0,0,0,0,0,0,0,0,0,0,0,0,0,0,0,0,0,0,0,0,0,0,0,0,98,0,0,0,0,0,0,0,0,0,0,0,0,0,0,0,0,0,0,0,0,
0,0,0,0,0,0,0,0,0,0,0,0,0,0,0,0,0,0,0,491,492,493,493,493,493,171,0,0,0,0,0,0,0,0,0,0,0,0,0,0,0,0,0,0,0,0,0,0,0,0,0,0,0,0,0,0,0,0,0,0,0,0,0,0,0,0,0,0,0,0,0,0,0,0,0,0,0,0,0,0,0,0,0,0,0,0,0,0,0,0,0,0,
0,0,0,0,0,0,0,0,0,0,0,0,0,0,0,0,0,0,0,531,532,533,533,533,533,211,0,0,0,0,0,0,0,0,0,0,0,0,0,0,0,0,0,0,0,0,0,0,0,0,0,0,0,0,0,0,0,0,0,0,0,0,0,0,0,0,0,0,0,0,0,0,0,0,0,0,0,0,0,0,0,0,0,0,0,0,0,0,0,0,0,0,
0,0,0,0,0,0,0,0,0,0,0,0,0,0,0,0,0,0,0,571,572,573,573,573,573,251,0,0,0,0,0,0,0,0,0,0,0,0,0,0,0,0,0,0,0,0,0,0,0,0,0,0,0,0,0,0,0,0,0,0,0,0,0,0,0,0,0,0,0,0,0,0,0,0,0,0,0,0,0,0,0,0,0,0,0,0,0,0,0,0,0,0,
0,0,0,0,0,0,0,0,0,0,0,0,0,0,0,0,0,0,0,0,0,0,0,0,0,0,0,0,0,0,0,0,0,0,0,0,0,0,0,0,0,0,0,0,0,0,0,0,0,0,0,0,0,0,0,0,0,0,0,0,0,0,0,0,0,0,0,0,0,0,0,0,0,0,0,0,0,0,0,0,0,0,0,0,0,0,0,0,0,0,0,0,
0,0,0,0,0,0,0,0,0,0,0,0,0,0,0,0,0,0,0,0,0,0,0,0,0,0,0,0,0,0,0,0,0,0,0,0,0,0,0,0,0,0,0,0,0,0,0,0,0,0,0,0,0,0,0,0,0,0,0,0,0,0,0,0,0,0,0,0,0,0,0,0,0,0,0,0,0,0,0,0,0,0,0,0,0,0,0,0,0,0,0,0,
0,0,0,0,0,0,0,0,0,0,0,0,0,0,0,0,0,0,0,0,0,0,0,0,0,0,0,0,0,0,0,0,0,0,0,0,0,0,0,0,0,0,0,0,0,0,0,0,0,0,0,0,0,0,0,0,0,0,0,0,0,0,0,0,0,0,0,0,0,0,0,0,0,0,0,0,0,0,0,0,0,0,0,0,0,0,0,0,0,0,0,0,
0,0,0,0,0,0,0,0,0,0,0,0,0,0,0,0,0,0,0,0,0,0,0,0,0,0,0,0,0,0,0,0,0,0,0,0,0,0,0,0,0,0,0,0,0,0,0,0,0,0,0,0,0,0,0,0,0,0,0,0,0,0,0,0,0,0,0,0,0,0,0,0,0,0,0,0,0,0,0,0,0,0,0,0,0,0,0,0,0,0,0,0,
0,0,0,0,0,0,0,0,0,0,0,0,0,0,0,0,0,0,0,0,0,0,0,0,0,0,0,0,0,0,0,0,0,0,0,0,0,0,0,0,0,0,0,0,0,0,0,0,0,0,0,0,0,0,0,0,0,0,0,0,0,0,0,0,0,0,0,0,0,0,0,0,0,0,0,0,0,0,0,0,0,0,0,0,0,0,0,0,0,0,0,0,
0,0,0,0,0,0,0,0,0,0,0,0,0,0,0,0,0,0,0,0,0,0,0,0,0,0,0,0,0,4670,4671,0,0,0,0,0,0,0,0,0,0,0,0,0,0,0,0,0,0,0,0,0,0,0,0,0,0,0,0,0,0,0,0,0,0,0,0,0,0,0,0,0,0,0,0,0,0,0,0,0,0,0,0,0,0,0,0,0,0,0,0,0,
0,0,0,0,0,0,0,0,0,0,0,0,0,0,0,0,0,0,0,0,0,0,0,0,0,0,0,0,0,4693,4694,0,0,0,0,0,0,0,0,0,0,0,0,0,0,0,0,0,0,0,0,0,0,0,0,0,0,0,0,0,0,0,411,412,89,89,89,414,415,0,0,0,0,0,0,0,0,0,0,0,0,0,0,0,0,0,0,0,0,0,0,0,
0,0,0,0,0,0,0,0,0,0,0,0,0,0,0,0,0,0,0,0,0,0,0,0,0,0,0,0,0,0,0,0,0,0,0,0,0,0,0,0,0,0,0,0,0,0,0,0,0,0,0,0,0,0,0,0,0,0,0,0,0,0,451,452,129,129,129,454,455,0,0,0,0,0,0,0,0,0,0,0,0,0,0,0,0,0,0,0,0,0,0,0,
0,0,0,0,0,0,0,0,0,0,0,0,0,0,0,0,0,0,0,0,0,0,0,0,0,0,0,0,0,0,0,0,0,0,0,0,0,0,0,0,0,0,0,0,0,0,0,0,0,0,0,0,0,0,0,0,0,0,0,0,0,0,491,492,169,169,169,494,495,0,0,0,0,0,0,0,0,0,0,0,0,0,0,0,0,0,0,0,0,0,0,0,
0,0,0,0,0,0,0,0,0,0,0,0,0,0,0,0,0,0,0,0,0,0,0,0,0,0,0,0,0,0,0,0,0,0,0,0,0,0,0,0,0,0,0,0,0,0,0,0,0,0,0,0,0,0,0,0,0,0,0,0,0,0,531,532,209,209,209,534,535,0,0,0,0,0,0,0,0,0,0,0,0,0,0,0,0,0,0,0,0,0,0,0,
0,0,0,0,0,0,0,0,0,0,0,0,0,0,0,0,0,0,0,0,0,0,0,0,0,0,0,0,0,0,0,0,0,0,0,0,0,0,0,0,5527,5527,5527,5527,0,0,0,0,0,0,0,0,0,0,0,0,0,0,0,0,0,0,571,572,249,249,249,574,575,0,0,0,0,0,0,0,0,0,0,0,0,0,0,0,0,0,0,0,0,0,0,0,
0,0,0,0,0,0,0,0,0,0,0,0,0,0,0,0,0,0,0,0,0,0,0,0,0,0,0,0,0,0,0,0,0,0,5527,5527,0,0,0,0,0,0,0,0,0,0,0,0,0,0,0,0,0,0,0,0,0,0,0,0,0,0,0,0,0,0,0,0,0,0,0,0,0,0,0,0,0,0,0,0,0,0,0,0,0,0,0,0,0,0,0,0,
0,0,0,0,0,0,0,0,0,0,0,0,0,0,0,0,0,0,0,0,0,0,0,0,0,0,0,0,0,0,0,0,0,0,0,0,0,0,0,0,0,0,0,0,0,0,0,0,0,0,0,0,0,0,0,0,0,0,0,0,0,0,0,0,0,0,0,0,0,0,0,0,0,0,0,0,0,0,0,0,0,0,0,0,0,0,0,0,0,0,0,0,
0,0,0,0,0,0,0,0,0,0,0,0,0,0,0,0,0,0,0,0,0,0,0,0,0,0,0,0,0,0,0,0,0,0,5527,5527,0,0,0,0,5527,5527,5527,5527,0,0,0,0,0,0,0,0,0,0,0,0,0,0,0,0,0,0,0,0,0,0,0,0,0,0,0,0,0,0,0,0,0,0,0,0,0,0,0,0,0,0,0,0,0,0,0,0,
0,0,0,0,0,0,0,0,0,0,0,0,0,0,0,0,0,0,0,0,0,0,0,0,0,0,0,0,0,0,0,0,0,0,0,0,0,0,0,0,0,0,0,0,0,0,0,0,0,0,0,0,0,0,0,0,0,0,0,0,0,0,0,0,0,0,0,0,0,0,0,0,0,0,0,0,0,0,0,0,0,0,0,0,0,0,0,0,0,0,0,0,
0,0,0,0,0,0,0,0,0,0,0,0,0,0,0,0,0,0,0,0,0,0,0,0,0,0,0,0,0,0,0,0,0,0,0,0,0,0,0,0,0,0,0,0,0,0,0,0,0,0,0,0,0,0,0,0,0,0,0,0,0,0,0,0,0,0,0,0,0,0,0,0,0,0,0,0,0,0,0,0,0,0,0,0,0,0,0,0,0,0,0,0,
0,0,0,0,0,0,0,0,0,0,0,0,0,0,0,0,0,0,0,0,0,0,0,0,0,0,0,0,0,0,0,0,0,0,0,0,0,0,0,0,0,0,0,0,0,0,0,0,0,0,0,0,0,0,0,0,0,0,0,0,0,0,0,0,0,0,0,0,0,0,0,0,0,0,0,0,0,0,0,0,0,0,0,0,0,0,0,0,0,0,0,0,
0,0,0,0,0,0,0,0,0,0,0,0,0,0,0,0,0,0,0,0,0,0,0,0,0,0,0,0,0,0,0,0,0,0,0,0,0,0,0,0,0,0,0,0,0,0,0,0,0,0,0,0,0,0,0,0,0,0,0,0,0,0,0,0,0,0,0,0,0,0,0,0,0,0,0,0,0,0,0,0,0,0,0,0,0,0,0,0,0,0,0,0,
0,0,0,0,0,0,0,0,0,0,0,0,0,0,0,0,0,0,0,0,0,0,0,0,0,0,0,0,0,0,0,0,0,0,0,0,0,0,0,0,0,0,0,0,0,0,0,0,0,0,0,0,0,0,0,0,0,0,0,0,0,0,0,0,0,0,0,0,0,0,0,0,0,0,0,0,0,0,0,0,0,0,0,0,0,0,0,0,0,0,0,0,
0,0,0,0,0,0,0,0,0,0,0,0,0,0,0,0,0,0,0,0,0,0,0,0,0,0,0,0,0,0,0,0,0,0,0,0,0,0,0,0,0,0,0,0,0,0,0,0,0,0,0,0,0,0,0,0,0,0,0,0,0,0,0,0,0,0,0,0,0,0,0,0,0,0,0,0,0,0,0,0,0,0,0,0,0,0,0,0,0,0,0,0,
0,0,0,0,0,0,0,0,0,0,0,0,0,0,0,0,0,0,0,0,0,0,0,0,0,0,0,0,0,0,0,0,0,0,0,0,0,0,0,0,0,0,0,0,0,0,0,0,0,0,0,0,0,0,0,0,0,0,0,0,0,0,0,0,0,0,0,0,0,0,0,0,0,0,0,0,0,0,0,0,0,0,0,0,0,0,0,0,0,0,0,0,
0,0,0,0,0,0,0,0,0,0,0,0,0,0,0,0,0,0,0,0,0,0,0,0,0,0,0,0,0,0,0,0,0,0,0,0,0,0,0,0,0,0,0,0,0,0,0,0,0,0,0,0,0,0,0,0,0,0,0,0,0,0,0,0,0,0,0,0,0,0,0,0,0,0,0,0,0,0,0,0,0,0,0,0,0,0,0,0,0,0,0,0,
0,0,0,0,0,0,0,0,0,0,0,0,0,0,0,0,0,0,0,0,0,0,0,0,0,0,0,0,0,0,0,0,0,0,0,0,0,0,0,0,0,0,0,0,0,0,0,0,0,0,0,0,0,0,0,0,0,0,0,0,0,0,0,0,0,0,0,0,0,0,0,0,0,0,0,0,0,0,0,0,0,0,0,0,0,0,0,0,0,0,0,0,
0,0,0,0,0,0,0,0,0,0,0,0,0,0,0,0,0,0,0,0,0,0,0,0,0,0,0,0,0,0,0,0,0,0,0,0,0,0,0,0,0,0,0,0,0,0,0,0,0,0,0,0,0,0,0,0,0,0,0,0,0,0,0,0,0,0,0,0,0,0,0,0,0,0,0,0,0,0,0,0,0,0,0,0,0,0,0,0,0,0,0,0,
0,0,0,0,0,0,0,0,0,0,0,0,0,0,0,0,0,0,0,0,0,0,0,0,0,0,0,0,0,0,0,0,0,0,0,0,0,0,0,0,0,0,0,0,0,0,0,0,0,0,0,0,0,0,0,0,0,0,0,0,0,0,0,0,0,0,0,0,0,0,0,0,0,0,0,0,0,0,0,0,0,0,0,0,0,0,0,0,0,0,0,0,
0,0,0,0,0,0,0,0,0,0,0,0,0,0,0,0,0,0,0,0,0,0,0,0,0,0,0,0,0,0,0,0,0,0,0,0,0,0,0,0,0,0,0,0,0,0,0,0,0,0,0,0,0,0,0,0,0,0,0,0,0,0,0,0,0,0,0,0,0,0,0,0,0,0,0,0,0,0,0,0,0,0,0,0,0,0,0,0,0,0,0,0,
0,0,0,0,0,0,0,0,0,0,0,0,0,0,0,0,0,0,0,0,0,0,0,0,0,0,0,0,0,0,0,0,0,0,0,0,0,0,0,0,0,0,0,0,0,0,0,0,0,0,0,0,0,0,0,0,0,0,0,0,0,0,0,0,0,0,0,0,0,0,0,0,0,0,0,0,0,0,0,0,0,0,0,0,0,0,0,0,0,0,0,0,
0,0,0,0,0,0,0,0,0,0,0,0,0,0,0,0,0,0,0,0,0,0,0,0,0,0,0,0,0,0,0,0,0,0,0,0,0,0,0,0,0,0,0,0,0,0,0,0,0,0,0,0,0,0,0,0,0,0,0,0,0,0,0,0,0,0,0,0,0,0,0,0,0,0,0,0,0,0,0,0,0,0,0,0,0,0,0,0,0,0,0,0
</data>
 </layer>
 <objectgroup id="3" name="Walls">
  <object id="2024" x="1344" y="496" width="48" height="32"/>
  <object id="2025" x="1136" y="480" width="208" height="48"/>
  <object id="2026" x="1120" y="496" width="16" height="48"/>
  <object id="2027" x="1104" y="544" width="48" height="48"/>
  <object id="2028" x="1024" y="560" width="80" height="64"/>
  <object id="2029" x="928" y="608" width="96" height="32"/>
  <object id="2030" x="816" y="592" width="112" height="48"/>
  <object id="2031" x="800" y="640" width="48" height="32"/>
  <object id="2034" x="480" y="672" width="352" height="188"/>
  <object id="2037" x="448" y="640" width="64" height="32"/>
  <object id="2038" x="464" y="544" width="16" height="96"/>
  <object id="2039" x="432" y="528" width="32" height="48"/>
  <object id="2040" x="384" y="496" width="48" height="48"/>
  <object id="2041" x="272" y="480" width="112" height="48"/>
  <object id="2042" x="160" y="464" width="112" height="48"/>
  <object id="2043" x="144" y="512" width="48" height="32"/>
  <object id="2044" x="64" y="544" width="112" height="32"/>
  <object id="2045" x="-16" y="560" width="80" height="32"/>
  <object id="2046" x="-16" y="432" width="112" height="48"/>
  <object id="2047" x="80" y="384" width="32" height="48"/>
  <object id="2048" x="112" y="368" width="112" height="44"/>
  <object id="2050" x="224" y="320" width="32" height="80"/>
  <object id="2051" x="256" y="288" width="32" height="64"/>
  <object id="2052" x="288" y="256" width="80" height="64"/>
  <object id="2053" x="368" y="240" width="128" height="64"/>
  <object id="2054" x="496" y="272" width="112" height="48"/>
  <object id="2055" x="608" y="240" width="48" height="96"/>
  <object id="2056" x="592" y="176" width="48" height="64"/>
  <object id="2057" x="592" y="128" width="32" height="48"/>
  <object id="2058" x="592" y="80" width="48" height="48"/>
  <object id="2059" x="640" y="64" width="64" height="48"/>
  <object id="2060" x="704" y="48" width="16" height="48"/>
  <object id="2061" x="688" y="0" width="48" height="48"/>
  <object id="2062" x="864" y="0" width="48" height="80"/>
  <object id="2063" x="880" y="80" width="208" height="112"/>
  <object id="2064" x="916" y="192" width="56" height="76"/>
  <object id="2066" x="996" y="192" width="56" height="76"/>
  <object id="2067" x="972" y="192" width="24" height="52"/>
  <object id="2069" x="1088" y="160" width="48" height="64"/>
  <object id="2070" x="1104" y="224" width="80" height="80"/>
  <object id="2071" x="1184" y="272" width="56" height="64"/>
  <object id="2072" x="1216" y="336" width="80" height="48"/>
  <object id="2073" x="1296" y="352" width="48" height="64"/>
  <object id="2075" x="1312" y="416" width="48" height="16"/>
  <object id="2076" x="1360" y="416" width="112" height="32"/>
  <object id="2148" x="1360" y="416" width="128" height="32"/>
  <object id="2127" x="852" y="544" width="8" height="48"/>
  <object id="2128" x="852" y="484" width="8" height="28"/>
  <object id="2129" x="860" y="484" width="240" height="8"/>
  <object id="2134" x="996" y="492" width="104" height="68"/>
  <object id="2135" x="996" y="560" width="28" height="12"/>
  <object id="2136" x="308" y="336" width="40" height="60"/>
  <object id="2138" x="372" y="336" width="40" height="60"/>
  <object id="2140" x="348" y="336" width="24" height="36"/>
  <object id="2141" x="469" y="482" width="22" height="16"/>
  <object id="2149" x="1392" y="512" width="96" height="32"/>
 </objectgroup>
 <objectgroup id="10" name="Water">
  <object id="2080" x="736" y="0" width="68" height="36"/>
  <object id="2081" x="736" y="36" width="52" height="68"/>
  <object id="2082" x="720" y="48" width="16" height="56"/>
  <object id="2083" x="704" y="104" width="100" height="28"/>
  <object id="2084" x="704" y="96" width="16" height="8"/>
  <object id="2085" x="684" y="112" width="20" height="20"/>
  <object id="2086" x="700" y="132" width="112" height="32"/>
  <object id="2087" x="812" y="144" width="8" height="32"/>
  <object id="2088" x="692" y="164" width="120" height="20"/>
  <object id="2089" x="684" y="172" width="8" height="12"/>
  <object id="2090" x="656" y="184" width="148" height="12"/>
  <object id="2091" x="648" y="196" width="148" height="4"/>
  <object id="2092" x="640" y="200" width="148" height="40"/>
  <object id="2093" x="656" y="240" width="116" height="36"/>
  <object id="2094" x="772" y="240" width="8" height="8"/>
  <object id="2095" x="656" y="276" width="100" height="48"/>
  <object id="2096" x="756" y="276" width="8" height="4"/>
  <object id="2098" x="668" y="324" width="88" height="16"/>
  <object id="2099" x="700" y="340" width="56" height="16"/>
  <object id="2100" x="716" y="356" width="40" height="60"/>
  <object id="2101" x="756" y="380" width="16" height="36"/>
  <object id="2102" x="756" y="376" width="8" height="4"/>
  <object id="2106" x="716" y="450.25" width="56" height="37.75"/>
  <object id="2108" x="704" y="472" width="12" height="16"/>
  <object id="2109" x="688" y="488" width="96" height="16"/>
  <object id="2110" x="656" y="504" width="132" height="28"/>
  <object id="2111" x="784" y="492" width="4" height="12"/>
  <object id="2112" x="684" y="492" width="4" height="12"/>
  <object id="2113" x="620" y="520" width="36" height="100"/>
  <object id="2115" x="788" y="540" width="16" height="80"/>
  <object id="2116" x="804" y="572" width="16" height="20"/>
  <object id="2117" x="804" y="592" width="12" height="28"/>
  <object id="2118" x="560" y="520" width="20" height="100"/>
  <object id="2119" x="524" y="536" width="36" height="84"/>
  <object id="2120" x="492" y="568" width="32" height="52"/>
  <object id="2121" x="480" y="584" width="12" height="36"/>
  <object id="2122" x="480" y="620" width="336" height="20"/>
  <object id="2123" x="512" y="640" width="288" height="32"/>
  <object id="2124" x="528" y="672" width="208" height="64"/>
  <object id="2125" x="544" y="736" width="176" height="96"/>
  <object id="2146" type="solid" x="580" y="500" width="40" height="120"/>
  <object id="2156" x="656" y="532" width="132" height="88"/>
 </objectgroup>
 <objectgroup id="12" name="Plants">
  <object id="1741" name="save" x="664" y="376">
   <point/>
  </object>
  <object id="1826" name="grass" x="1376" y="460">
   <point/>
  </object>
  <object id="1827" name="grass" x="1356" y="480">
   <point/>
  </object>
  <object id="1828" name="grass" x="1272" y="432">
   <point/>
  </object>
  <object id="1829" name="grass" x="1245.25" y="462.25">
   <point/>
  </object>
  <object id="1830" name="grass" x="1184" y="392">
   <point/>
  </object>
  <object id="1831" name="grass" x="1139.25" y="463.5">
   <point/>
  </object>
  <object id="1832" name="grass" x="1102.25" y="476">
   <point/>
  </object>
  <object id="1833" name="grass" x="1053.75" y="467.5">
   <point/>
  </object>
  <object id="1834" name="grass" x="1005.5" y="468">
   <point/>
  </object>
  <object id="1835" name="grass" x="956" y="460">
   <point/>
  </object>
  <object id="1836" name="grass" x="938" y="471">
   <point/>
  </object>
  <object id="1837" name="grass" x="1012.5" y="409.5">
   <point/>
  </object>
  <object id="1838" name="grass" x="1102" y="398.5">
   <point/>
  </object>
  <object id="1839" name="grass" x="1127.75" y="337.5">
   <point/>
  </object>
  <object id="1840" name="grass" x="1168" y="356">
   <point/>
  </object>
  <object id="1841" name="grass" x="1140.75" y="410.5">
   <point/>
  </object>
  <object id="1842" name="grass" x="1056.5" y="311">
   <point/>
  </object>
  <object id="1843" name="grass" x="1024" y="327.5">
   <point/>
  </object>
  <object id="1844" name="grass" x="1028" y="291.75">
   <point/>
  </object>
  <object id="1845" name="grass" x="1072" y="208">
   <point/>
  </object>
  <object id="1846" name="grass" x="1072" y="252">
   <point/>
  </object>
  <object id="1847" name="grass" x="1092" y="272">
   <point/>
  </object>
  <object id="1848" name="grass" x="1081.5" y="299.25">
   <point/>
  </object>
  <object id="1850" name="grass" x="904" y="288">
   <point/>
  </object>
  <object id="1851" name="grass" x="936" y="328">
   <point/>
  </object>
  <object id="1852" name="grass" x="948.5" y="405.75">
   <point/>
  </object>
  <object id="1853" name="grass" x="956" y="364">
   <point/>
  </object>
  <object id="1854" name="grass" x="908" y="392">
   <point/>
  </object>
  <object id="1855" name="grass" x="884" y="408">
   <point/>
  </object>
  <object id="1856" name="grass" x="824" y="404">
   <point/>
  </object>
  <object id="1857" name="grass" x="788" y="364">
   <point/>
  </object>
  <object id="1858" name="grass" x="772" y="320">
   <point/>
  </object>
  <object id="1859" name="grass" x="820" y="268">
   <point/>
  </object>
  <object id="1860" name="grass" x="800" y="256">
   <point/>
  </object>
  <object id="1861" name="grass" x="808" y="220">
   <point/>
  </object>
  <object id="1862" name="grass" x="848" y="196">
   <point/>
  </object>
  <object id="1863" name="grass" x="880" y="220">
   <point/>
  </object>
  <object id="1864" name="grass" x="900" y="212">
   <point/>
  </object>
  <object id="1865" name="grass" x="892" y="244">
   <point/>
  </object>
  <object id="1866" name="grass" x="840" y="159">
   <point/>
  </object>
  <object id="1867" name="grass" x="832" y="112">
   <point/>
  </object>
  <object id="1868" name="grass" x="808" y="88">
   <point/>
  </object>
  <object id="1869" name="grass" x="828" y="44">
   <point/>
  </object>
  <object id="1870" name="grass" x="812" y="56">
   <point/>
  </object>
  <object id="1871" name="grass" x="824" y="12">
   <point/>
  </object>
  <object id="1872" name="grass" x="844" y="4">
   <point/>
  </object>
  <object id="1873" name="grass" x="696" y="380">
   <point/>
  </object>
  <object id="1874" name="grass" x="681.5" y="357.75">
   <point/>
  </object>
  <object id="1875" name="grass" x="640" y="356">
   <point/>
  </object>
  <object id="1876" name="grass" x="612" y="384">
   <point/>
  </object>
  <object id="1877" name="grass" x="652" y="408">
   <point/>
  </object>
  <object id="1878" name="grass" x="686.75" y="404.5">
   <point/>
  </object>
  <object id="1879" name="grass" x="606.5" y="350.25">
   <point/>
  </object>
  <object id="1880" name="grass" x="432" y="404">
   <point/>
  </object>
  <object id="1881" name="grass" x="432" y="344">
   <point/>
  </object>
  <object id="1882" name="grass" x="448" y="320">
   <point/>
  </object>
  <object id="1883" name="grass" x="330.5" y="413">
   <point/>
  </object>
  <object id="1884" name="grass" x="288" y="380">
   <point/>
  </object>
  <object id="1885" name="grass" x="272" y="392">
   <point/>
  </object>
  <object id="1886" name="grass" x="280" y="440">
   <point/>
  </object>
  <object id="1887" name="grass" x="251.5" y="458.5">
   <point/>
  </object>
  <object id="1889" name="grass" x="342.5" y="458.125">
   <point/>
  </object>
  <object id="1890" name="grass" x="356" y="472">
   <point/>
  </object>
  <object id="1891" name="grass" x="380" y="460">
   <point/>
  </object>
  <object id="1892" name="grass" x="456" y="464">
   <point/>
  </object>
  <object id="1893" name="grass" x="448.75" y="480.75">
   <point/>
  </object>
  <object id="1894" name="grass" x="468" y="516">
   <point/>
  </object>
  <object id="1895" name="grass" x="492" y="552">
   <point/>
  </object>
  <object id="1896" name="grass" x="512" y="528">
   <point/>
  </object>
  <object id="1897" name="grass" x="540" y="520">
   <point/>
  </object>
  <object id="1898" name="grass" x="524" y="496">
   <point/>
  </object>
  <object id="1899" name="grass" x="500" y="456">
   <point/>
  </object>
  <object id="1900" name="grass" x="568" y="456">
   <point/>
  </object>
  <object id="1901" name="grass" x="576" y="496">
   <point/>
  </object>
  <object id="1902" name="grass" x="640" y="504">
   <point/>
  </object>
  <object id="1903" name="grass" x="624" y="492">
   <point/>
  </object>
  <object id="1904" name="grass" x="629.75" y="456">
   <point/>
  </object>
  <object id="1906" name="grass" x="991.333" y="589.667">
   <point/>
  </object>
  <object id="1907" name="grass" x="880.25" y="480.25">
   <point/>
  </object>
  <object id="1908" name="grass" x="840" y="576">
   <point/>
  </object>
  <object id="1909" name="grass" x="904" y="456">
   <point/>
  </object>
  <object id="1911" name="grass" x="794.75" y="394.25">
   <point/>
  </object>
  <object id="1912" name="grass" x="810.75" y="377.25">
   <point/>
  </object>
  <object id="1913" name="grass" x="896" y="340">
   <point/>
  </object>
  <object id="1914" name="grass" x="1012" y="304">
   <point/>
  </object>
  <object id="1915" name="grass" x="1072.75" y="373.5">
   <point/>
  </object>
  <object id="1916" name="grass" x="1011.5" y="368.875">
   <point/>
  </object>
  <object id="1917" name="grass" x="1440" y="584">
   <point/>
  </object>
  <object id="1918" name="grass" x="1464" y="528">
   <point/>
  </object>
  <object id="1919" name="grass" x="1298.33" y="577">
   <point/>
  </object>
  <object id="1920" name="grass" x="1147" y="530.25">
   <point/>
  </object>
  <object id="1921" name="grass" x="1144" y="656">
   <point/>
  </object>
  <object id="1922" name="grass" x="1264" y="636">
   <point/>
  </object>
  <object id="1923" name="grass" x="1024" y="632">
   <point/>
  </object>
  <object id="1924" name="grass" x="1000" y="648">
   <point/>
  </object>
  <object id="1925" name="grass" x="932" y="632">
   <point/>
  </object>
  <object id="1926" name="grass" x="908" y="644">
   <point/>
  </object>
  <object id="1927" name="grass" x="888" y="616">
   <point/>
  </object>
  <object id="1928" name="grass" x="852" y="716">
   <point/>
  </object>
  <object id="1929" name="grass" x="748" y="764">
   <point/>
  </object>
  <object id="1930" name="grass" x="456" y="608">
   <point/>
  </object>
  <object id="1931" name="grass" x="404" y="520">
   <point/>
  </object>
  <object id="1932" name="grass" x="376" y="540">
   <point/>
  </object>
  <object id="1933" name="grass" x="360" y="520">
   <point/>
  </object>
  <object id="1934" name="grass" x="292" y="504">
   <point/>
  </object>
  <object id="1936" name="grass" x="180" y="516">
   <point/>
  </object>
  <object id="1937" name="grass" x="196" y="560">
   <point/>
  </object>
  <object id="1938" name="grass" x="168" y="568">
   <point/>
  </object>
  <object id="1939" name="grass" x="132" y="596">
   <point/>
  </object>
  <object id="1940" name="grass" x="84" y="588">
   <point/>
  </object>
  <object id="1941" name="grass" x="68" y="440">
   <point/>
  </object>
  <object id="1942" name="grass" x="92" y="400">
   <point/>
  </object>
  <object id="1943" name="grass" x="88" y="380">
   <point/>
  </object>
  <object id="1944" name="grass" x="164" y="380">
   <point/>
  </object>
  <object id="1945" name="grass" x="220" y="352">
   <point/>
  </object>
  <object id="1946" name="grass" x="232.25" y="372.75">
   <point/>
  </object>
  <object id="1947" name="grass" x="276.25" y="289">
   <point/>
  </object>
  <object id="1948" name="grass" x="306.75" y="294.5">
   <point/>
  </object>
  <object id="1949" name="grass" x="372" y="268">
   <point/>
  </object>
  <object id="1950" name="grass" x="448" y="276">
   <point/>
  </object>
  <object id="1951" name="grass" x="524" y="288">
   <point/>
  </object>
  <object id="1952" name="grass" x="632" y="312">
   <point/>
  </object>
  <object id="1953" name="grass" x="596" y="196">
   <point/>
  </object>
  <object id="1954" name="grass" x="596" y="148">
   <point/>
  </object>
  <object id="1955" name="grass" x="544" y="196">
   <point/>
  </object>
  <object id="1956" name="grass" x="892" y="12">
   <point/>
  </object>
  <object id="1957" name="grass" x="888" y="48">
   <point/>
  </object>
  <object id="1958" name="grass" x="912" y="164">
   <point/>
  </object>
  <object id="1959" name="grass" x="1024" y="168">
   <point/>
  </object>
  <object id="1960" name="grass" x="1120" y="120">
   <point/>
  </object>
  <object id="1961" name="grass" x="1096" y="164">
   <point/>
  </object>
  <object id="1962" name="grass" x="1116" y="200">
   <point/>
  </object>
  <object id="1963" name="grass" x="1236" y="164">
   <point/>
  </object>
  <object id="1964" name="grass" x="1304" y="216">
   <point/>
  </object>
  <object id="1965" name="grass" x="1279.67" y="177.667">
   <point/>
  </object>
  <object id="1966" name="grass" x="1267" y="194.667">
   <point/>
  </object>
  <object id="1967" name="grass" x="1368" y="268">
   <point/>
  </object>
  <object id="1968" name="grass" x="1408" y="328">
   <point/>
  </object>
  <object id="1969" name="grass" x="1408" y="412">
   <point/>
  </object>
  <object id="1971" name="grass" x="1460" y="656">
   <point/>
  </object>
  <object id="1972" name="grass" x="1324" y="636">
   <point/>
  </object>
  <object id="1974" name="grass" x="1282.33" y="521">
   <point/>
  </object>
  <object id="1975" name="grass" x="1234.33" y="497">
   <point/>
  </object>
  <object id="1981" name="grass" x="260" y="496">
   <point/>
  </object>
  <object id="1982" name="grass" x="1213.25" y="466.25">
   <point/>
  </object>
  <object id="1983" name="grass" x="1185.25" y="454.25">
   <point/>
  </object>
  <object id="1984" name="grass" x="1090.25" y="460">
   <point/>
  </object>
  <object id="1985" name="grass" x="1025.5" y="386.25">
   <point/>
  </object>
  <object id="1986" name="grass" x="1060.5" y="407">
   <point/>
  </object>
  <object id="1987" name="grass" x="1096.75" y="337">
   <point/>
  </object>
  <object id="1988" name="grass" x="1076" y="323.25">
   <point/>
  </object>
  <object id="1990" name="grass" x="826.25" y="128">
   <point/>
  </object>
  <object id="1991" name="grass" x="710.25" y="12">
   <point/>
  </object>
  <object id="1992" name="grass" x="634.25" y="80">
   <point/>
  </object>
  <object id="1993" name="grass" x="614.25" y="220">
   <point/>
  </object>
  <object id="1994" name="grass" x="650.25" y="164">
   <point/>
  </object>
  <object id="1995" name="grass" x="682.25" y="156">
   <point/>
  </object>
  <object id="1996" name="grass" x="1048.5" y="337.25">
   <point/>
  </object>
  <object id="2015" name="grass" x="175.5" y="450.5">
   <point/>
  </object>
  <object id="2016" name="grass" x="143.5" y="466.5">
   <point/>
  </object>
  <object id="2017" name="grass" x="147.5" y="494.5">
   <point/>
  </object>
  <object id="2018" name="grass" x="115.5" y="482.5">
   <point/>
  </object>
  <object id="2019" name="grass" x="107.5" y="446.5">
   <point/>
  </object>
  <object id="2151" name="shrub" x="665.75" y="452">
   <point/>
  </object>
  <object id="2152" name="shrub" x="689.75" y="456">
   <point/>
  </object>
  <object id="2153" name="shrub" x="633.75" y="400">
   <point/>
  </object>
  <object id="2154" name="shrub" x="605.75" y="408">
   <point/>
  </object>
  <object id="2193" name="grass" x="960" y="304">
   <point/>
  </object>
  <object id="2217" name="grass" x="928" y="296">
   <point/>
  </object>
 </objectgroup>
 <objectgroup id="25" name="Props">
  <object id="1997" name="logs" x="987.159" y="505.636">
   <point/>
  </object>
  <object id="1998" name="box" x="940" y="600">
   <point/>
  </object>
  <object id="1999" name="box" x="964" y="600">
   <point/>
  </object>
  <object id="2001" name="barrel" x="1015.16" y="600.42">
   <point/>
  </object>
  <object id="2002" name="stool" x="869.409" y="504.42">
   <point/>
  </object>
  <object id="2003" name="box2" x="1285.11" y="390.131">
   <point/>
  </object>
  <object id="2004" name="box2" x="1285.11" y="406.131">
   <point/>
  </object>
  <object id="2005" name="barrel" x="1128" y="488">
   <point/>
  </object>
  <object id="2006" name="box" x="1096" y="232">
   <point/>
  </object>
  <object id="2007" name="box" x="1096" y="248">
   <point/>
  </object>
  <object id="2008" name="box" x="284" y="472">
   <properties>
    <property name="resource" value="gold"/>
   </properties>
   <point/>
  </object>
  <object id="2009" name="box" x="308" y="472">
   <point/>
  </object>
  <object id="2010" name="box" x="332" y="472">
   <point/>
  </object>
  <object id="2011" name="pot" x="488" y="312">
   <point/>
  </object>
  <object id="2012" name="pot" x="472" y="312">
   <point/>
  </object>
  <object id="2013" name="pot" x="456" y="312">
   <point/>
  </object>
  <object id="2014" name="barrel" x="598.375" y="328.25">
   <properties>
    <property name="resource" value="gold"/>
   </properties>
   <point/>
  </object>
  <object id="2167" name="barrel" x="581.38" y="328.25">
   <point/>
  </object>
 </objectgroup>
 <objectgroup id="8" name="Chests">
  <object id="2159" name="townRiver" type="small" x="656" y="140">
   <properties>
    <property name="lootClass" value="resource"/>
    <property name="lootCount" type="int" value="3"/>
    <property name="lootId" value="ore"/>
   </properties>
   <point/>
  </object>
 </objectgroup>
 <objectgroup id="14" name="NPC">
  <object id="1742" name="shopkeeper" x="520" y="344">
   <point/>
  </object>
  <object id="1747" name="soldierEastGate" x="1224" y="416">
   <point/>
  </object>
  <object id="1748" name="blacksmith" x="936" y="556">
   <point/>
  </object>
  <object id="1749" name="soldierWestGate" x="264" y="416">
   <point/>
  </object>
  <object id="1766" name="balloonGame" x="501.818" y="518.102">
   <point/>
  </object>
  <object id="1767" name="soldierBarracks" x="775" y="359.5">
   <properties>
    <property name="defaultDir" type="int" value="-1"/>
    <property name="talkDir" type="int" value="1"/>
   </properties>
   <point/>
  </object>
 </objectgroup>
 <objectgroup id="23" name="ShopItems">
  <object id="1761" name="resource_diamond" x="476" y="376">
   <point/>
  </object>
  <object id="1762" name="map" x="520" y="376">
   <point/>
  </object>
  <object id="1763" name="lantern" x="564" y="376">
   <point/>
  </object>
 </objectgroup>
 <objectgroup id="6" name="Enemies">
  <object id="1739" name="dummy" x="920" y="360">
   <point/>
  </object>
  <object id="1740" name="dummy" x="1048" y="360">
   <point/>
  </object>
 </objectgroup>
 <objectgroup id="7" name="Transitions">
  <object id="1758" name="i_town" x="960" y="244" width="48" height="12">
   <properties>
    <property name="destX" type="int" value="1944"/>
    <property name="destY" type="int" value="324"/>
   </properties>
  </object>
  <object id="1759" name="i_town" x="336" y="372" width="48" height="12">
   <properties>
    <property name="destX" type="int" value="872"/>
    <property name="destY" type="int" value="324"/>
   </properties>
  </object>
  <object id="2078" name="2_forest" type="right" x="1472" y="448" width="16" height="64">
   <properties>
    <property name="destX" type="int" value="12"/>
    <property name="destY" type="int" value="-1"/>
   </properties>
  </object>
  <object id="2079" name="5_swamp" type="left" x="-16" y="480" width="16" height="80">
   <properties>
    <property name="destX" type="int" value="1456"/>
    <property name="destY" type="int" value="-1"/>
   </properties>
  </object>
  <object id="2143" name="4_camp" type="up" x="688" y="-16" width="224" height="16">
   <properties>
    <property name="destX" type="int" value="-1"/>
    <property name="destY" type="int" value="820"/>
   </properties>
  </object>
 </objectgroup>
 <objectgroup id="21" name="Weapons">
  <object id="1732" name="spear" x="1124" y="308">
   <point/>
  </object>
  <object id="1734" name="spear" x="1164" y="308">
   <point/>
  </object>
  <object id="1754" name="greatsword" x="1012" y="580">
   <properties>
    <property name="locked" type="bool" value="true"/>
   </properties>
   <point/>
  </object>
  <object id="1755" name="torch" x="872" y="584">
   <point/>
  </object>
  <object id="2165" name="greatsword" x="896" y="520">
   <properties>
    <property name="locked" type="bool" value="true"/>
   </properties>
   <point/>
  </object>
  <object id="2166" name="greatsword" x="1201.91" y="342.364">
   <properties>
    <property name="locked" type="bool" value="true"/>
   </properties>
   <point/>
  </object>
  <object id="2169" name="boomerang" x="472" y="537.5">
   <properties>
    <property name="locked" type="bool" value="true"/>
   </properties>
   <point/>
  </object>
  <object id="2170" name="torch" x="152" y="504">
   <point/>
  </object>
 </objectgroup>
 <objectgroup id="24" name="Tutorials"/>
 <objectgroup id="9" name="Trees">
  <object id="1735" name="blossom" x="275.278" y="361.161">
   <point/>
  </object>
  <object id="1736" name="blossom" x="420.977" y="311.375">
   <point/>
  </object>
  <object id="1737" name="blossom" x="404.977" y="481.25">
   <point/>
  </object>
  <object id="1738" name="blossom" type="fake" x="112" y="564">
   <point/>
  </object>
  <object id="1743" name="banner2" type="right" x="1319.09" y="388">
   <point/>
  </object>
  <object id="1744" name="banner2" type="right" x="1319.09" y="500">
   <point/>
  </object>
  <object id="1745" name="banner2" type="left" x="192" y="384">
   <point/>
  </object>
  <object id="1746" name="banner2" type="left" x="192" y="484">
   <point/>
  </object>
  <object id="1753" name="kiln" x="963.284" y="506.091">
   <point/>
  </object>
  <object id="1756" name="raft" x="560" y="564">
   <point/>
  </object>
  <object id="1757" name="raft" x="560" y="596">
   <point/>
  </object>
  <object id="1770" name="ship" type="left" x="668" y="592">
   <point/>
  </object>
  <object id="1780" name="big" x="776" y="724">
   <point/>
  </object>
  <object id="1781" name="big" x="1060" y="716">
   <point/>
  </object>
  <object id="1782" name="big" x="1419.45" y="649.818">
   <point/>
  </object>
  <object id="1783" name="big" x="1444.91" y="412.364">
   <point/>
  </object>
  <object id="1784" name="big" x="1216" y="300">
   <point/>
  </object>
  <object id="1785" name="big" x="920" y="140">
   <point/>
  </object>
  <object id="1786" name="big" type="fake" x="558.667" y="284.333">
   <point/>
  </object>
  <object id="1787" name="big" x="332" y="284">
   <point/>
  </object>
  <object id="1788" name="blossom" type="fake" x="1172" y="512">
   <point/>
  </object>
  <object id="1789" name="blossom" type="fake" x="1252" y="352">
   <point/>
  </object>
  <object id="1790" name="blossom" type="fake" x="1147.5" y="267.25">
   <point/>
  </object>
  <object id="1791" name="blossom" type="fake" x="1060" y="160">
   <point/>
  </object>
  <object id="1792" name="blossom" type="fake" x="672" y="76">
   <point/>
  </object>
  <object id="1793" name="blossom" type="fake" x="619" y="278.333">
   <point/>
  </object>
  <object id="1794" name="blossom" type="fake" x="482" y="258.333">
   <point/>
  </object>
  <object id="1795" name="blossom" type="fake" x="240.917" y="315.833">
   <point/>
  </object>
  <object id="1796" name="blossom" type="fake" x="332.208" y="511.833">
   <point/>
  </object>
  <object id="1797" name="blossom" type="fake" x="292" y="556">
   <point/>
  </object>
  <object id="1798" name="blossom" type="fake" x="445.667" y="577">
   <point/>
  </object>
  <object id="1799" name="blossom" type="fake" x="972.667" y="630.333">
   <point/>
  </object>
  <object id="1800" name="blossom" type="fake" x="854.667" y="628">
   <point/>
  </object>
  <object id="1801" name="blossom" type="fake" x="1061.5" y="617.5">
   <point/>
  </object>
  <object id="1802" name="blossom" type="fake" x="1140" y="584">
   <point/>
  </object>
  <object id="1803" name="big" type="fake" x="1212" y="656">
   <point/>
  </object>
  <object id="1804" name="blossom" type="fake" x="1356" y="564">
   <point/>
  </object>
  <object id="1805" name="blossom" type="fake" x="1464" y="572">
   <point/>
  </object>
  <object id="1806" name="blossom" type="fake" x="1369" y="399.333">
   <point/>
  </object>
  <object id="1807" name="blossom" type="fake" x="1342" y="353.061">
   <point/>
  </object>
  <object id="1808" name="blossom" type="fake" x="1432" y="184">
   <point/>
  </object>
  <object id="1809" name="blossom" type="fake" x="1420" y="260">
   <point/>
  </object>
  <object id="1810" name="blossom" type="fake" x="1364" y="208">
   <point/>
  </object>
  <object id="1811" name="blossom" type="fake" x="1285.5" y="284">
   <point/>
  </object>
  <object id="1812" name="blossom" type="fake" x="1160" y="180">
   <point/>
  </object>
  <object id="1813" name="blossom" type="fake" x="976" y="156">
   <point/>
  </object>
  <object id="1814" name="blossom" type="fake" x="1028" y="88">
   <point/>
  </object>
  <object id="1815" name="blossom" type="fake" x="964" y="44">
   <point/>
  </object>
  <object id="1816" name="blossom" type="fake" x="596" y="104">
   <point/>
  </object>
  <object id="1817" name="blossom" type="fake" x="464" y="204">
   <point/>
  </object>
  <object id="1818" name="blossom" type="fake" x="376" y="224">
   <point/>
  </object>
  <object id="1819" name="blossom" type="fake" x="408" y="160">
   <point/>
  </object>
  <object id="1820" name="blossom" type="fake" x="284" y="212">
   <point/>
  </object>
  <object id="1821" name="blossom" type="fake" x="194.333" y="261.333">
   <point/>
  </object>
  <object id="1822" name="blossom" type="fake" x="120" y="384">
   <point/>
  </object>
  <object id="1823" name="blossom" type="fake" x="104" y="300">
   <point/>
  </object>
  <object id="1824" name="big" x="373.667" y="652.667">
   <point/>
  </object>
  <object id="1825" name="big" x="217.667" y="642.667">
   <point/>
  </object>
  <object id="1973" name="blossom" type="fake" x="1300" y="552">
   <point/>
  </object>
  <object id="1978" name="blossom" type="fake" x="399.333" y="276">
   <point/>
  </object>
  <object id="1979" name="blossom" type="fake" x="176" y="328">
   <point/>
  </object>
  <object id="1980" name="blossom" type="fake" x="232.333" y="492.667">
   <point/>
  </object>
  <object id="2147" name="ship" type="left" x="668" y="544">
   <point/>
  </object>
 </objectgroup>
 <objectgroup id="27" name="Effects">
  <object id="1751" name="chimneySource" x="930.969" y="201.966">
   <point/>
  </object>
  <object id="1752" name="chimneySource" x="1085.06" y="505.935">
   <point/>
  </object>
 </objectgroup>
</map>
