<?xml version="1.0" encoding="UTF-8"?>
<map version="1.10" tiledversion="1.10.2" orientation="orthogonal" renderorder="right-down" width="64" height="48" tilewidth="16" tileheight="16" infinite="0" nextlayerid="29" nextobjectid="1870">
 <editorsettings>
  <export target="6_ruins.lua" format="lua"/>
 </editorsettings>
 <properties>
  <property name="ambience" value="rain"/>
  <property name="background" value="fog"/>
  <property name="dark" type="int" value="20"/>
  <property name="darkType" value="parallax"/>
  <property name="defaultX" type="int" value="656"/>
  <property name="defaultY" type="int" value="400"/>
  <property name="music" value="forest"/>
  <property name="shader" value="saturation"/>
  <property name="shaderVal" type="float" value="0.9"/>
  <property name="weather" value="rain"/>
 </properties>
 <tileset firstgid="1" name="houses" tilewidth="16" tileheight="16" tilecount="640" columns="40">
  <image source="_tilesets/houses.png" width="640" height="256"/>
 </tileset>
 <tileset firstgid="641" name="terrain" tilewidth="16" tileheight="16" tilecount="4000" columns="50">
  <image source="_tilesets/terrain.png" width="800" height="1280"/>
  <tile id="59" probability="0.015"/>
  <tile id="60" probability="0.015"/>
  <tile id="61" probability="0.015"/>
  <tile id="62" probability="0.015"/>
  <tile id="63" probability="0.015"/>
  <tile id="64" probability="0.025"/>
  <tile id="107" probability="0.015"/>
  <tile id="108" probability="0.015"/>
  <tile id="109" probability="0.015"/>
  <tile id="110" probability="0.015"/>
  <tile id="111" probability="0.015"/>
  <tile id="112" probability="0.015"/>
  <tile id="113" probability="0.015"/>
  <tile id="251">
   <animation>
    <frame tileid="251" duration="350"/>
    <frame tileid="254" duration="350"/>
    <frame tileid="257" duration="350"/>
    <frame tileid="260" duration="350"/>
   </animation>
  </tile>
  <tile id="253">
   <animation>
    <frame tileid="253" duration="350"/>
    <frame tileid="256" duration="350"/>
    <frame tileid="259" duration="350"/>
    <frame tileid="262" duration="350"/>
   </animation>
  </tile>
  <tile id="264">
   <animation>
    <frame tileid="264" duration="350"/>
    <frame tileid="314" duration="350"/>
    <frame tileid="364" duration="350"/>
    <frame tileid="414" duration="350"/>
   </animation>
  </tile>
  <tile id="265">
   <animation>
    <frame tileid="265" duration="350"/>
    <frame tileid="315" duration="350"/>
    <frame tileid="365" duration="350"/>
    <frame tileid="415" duration="350"/>
   </animation>
  </tile>
  <tile id="301">
   <animation>
    <frame tileid="301" duration="350"/>
    <frame tileid="304" duration="350"/>
    <frame tileid="307" duration="350"/>
    <frame tileid="310" duration="350"/>
   </animation>
  </tile>
  <tile id="303">
   <animation>
    <frame tileid="303" duration="350"/>
    <frame tileid="306" duration="350"/>
    <frame tileid="309" duration="350"/>
    <frame tileid="312" duration="350"/>
   </animation>
  </tile>
  <tile id="351">
   <animation>
    <frame tileid="351" duration="350"/>
    <frame tileid="354" duration="350"/>
    <frame tileid="357" duration="350"/>
    <frame tileid="360" duration="350"/>
   </animation>
  </tile>
  <tile id="352">
   <animation>
    <frame tileid="352" duration="350"/>
    <frame tileid="355" duration="350"/>
    <frame tileid="358" duration="350"/>
    <frame tileid="361" duration="350"/>
   </animation>
  </tile>
  <tile id="353">
   <animation>
    <frame tileid="353" duration="350"/>
    <frame tileid="356" duration="350"/>
    <frame tileid="359" duration="350"/>
    <frame tileid="362" duration="350"/>
   </animation>
  </tile>
  <tile id="451">
   <animation>
    <frame tileid="451" duration="350"/>
    <frame tileid="453" duration="350"/>
    <frame tileid="455" duration="350"/>
    <frame tileid="457" duration="350"/>
   </animation>
  </tile>
  <tile id="452">
   <animation>
    <frame tileid="452" duration="350"/>
    <frame tileid="454" duration="350"/>
    <frame tileid="456" duration="350"/>
    <frame tileid="458" duration="350"/>
   </animation>
  </tile>
  <tile id="501">
   <animation>
    <frame tileid="501" duration="350"/>
    <frame tileid="503" duration="350"/>
    <frame tileid="505" duration="350"/>
    <frame tileid="507" duration="350"/>
   </animation>
  </tile>
  <tile id="502">
   <animation>
    <frame tileid="502" duration="350"/>
    <frame tileid="504" duration="350"/>
    <frame tileid="506" duration="350"/>
    <frame tileid="508" duration="350"/>
   </animation>
  </tile>
  <tile id="606">
   <animation>
    <frame tileid="606" duration="100"/>
    <frame tileid="607" duration="100"/>
    <frame tileid="608" duration="100"/>
   </animation>
  </tile>
  <tile id="656">
   <animation>
    <frame tileid="656" duration="100"/>
    <frame tileid="657" duration="100"/>
    <frame tileid="658" duration="100"/>
   </animation>
  </tile>
  <tile id="706">
   <animation>
    <frame tileid="706" duration="100"/>
    <frame tileid="707" duration="100"/>
    <frame tileid="708" duration="100"/>
   </animation>
  </tile>
  <tile id="756">
   <animation>
    <frame tileid="756" duration="200"/>
    <frame tileid="806" duration="200"/>
    <frame tileid="856" duration="200"/>
   </animation>
  </tile>
  <tile id="757">
   <animation>
    <frame tileid="757" duration="200"/>
    <frame tileid="807" duration="200"/>
    <frame tileid="857" duration="200"/>
   </animation>
  </tile>
  <tile id="758">
   <animation>
    <frame tileid="758" duration="200"/>
    <frame tileid="808" duration="200"/>
    <frame tileid="858" duration="200"/>
   </animation>
  </tile>
  <wangsets>
   <wangset name="Grasslands" type="corner" tile="59">
    <wangcolor name="Elevation" color="#ff0000" tile="-1" probability="1"/>
    <wangcolor name="Grass Edges" color="#00ff00" tile="-1" probability="1"/>
    <wangcolor name="Water Edges" color="#00ffff" tile="-1" probability="1"/>
    <wangcolor name="Path" color="#ff7700" tile="-1" probability="1"/>
    <wangcolor name="Grass Edges 2" color="#00aa00" tile="-1" probability="1"/>
    <wangcolor name="Dirt" color="#ff00d8" tile="-1" probability="1"/>
    <wangtile tileid="51" wangid="0,0,0,1,0,0,0,0"/>
    <wangtile tileid="52" wangid="0,0,0,1,0,1,0,0"/>
    <wangtile tileid="53" wangid="0,0,0,0,0,1,0,0"/>
    <wangtile tileid="55" wangid="0,1,0,0,0,1,0,1"/>
    <wangtile tileid="56" wangid="0,1,0,1,0,0,0,1"/>
    <wangtile tileid="65" wangid="0,2,0,0,0,2,0,2"/>
    <wangtile tileid="66" wangid="0,2,0,0,0,0,0,2"/>
    <wangtile tileid="67" wangid="0,2,0,2,0,0,0,2"/>
    <wangtile tileid="68" wangid="0,0,0,2,0,0,0,0"/>
    <wangtile tileid="69" wangid="0,0,0,0,0,2,0,0"/>
    <wangtile tileid="71" wangid="0,0,0,5,0,0,0,0"/>
    <wangtile tileid="72" wangid="0,0,0,5,0,5,0,0"/>
    <wangtile tileid="73" wangid="0,0,0,0,0,5,0,0"/>
    <wangtile tileid="75" wangid="0,5,0,0,0,5,0,5"/>
    <wangtile tileid="76" wangid="0,5,0,5,0,0,0,5"/>
    <wangtile tileid="101" wangid="0,1,0,1,0,0,0,0"/>
    <wangtile tileid="102" wangid="0,1,0,1,0,1,0,1"/>
    <wangtile tileid="103" wangid="0,0,0,0,0,1,0,1"/>
    <wangtile tileid="105" wangid="0,0,0,1,0,1,0,1"/>
    <wangtile tileid="106" wangid="0,1,0,1,0,1,0,0"/>
    <wangtile tileid="115" wangid="0,0,0,0,0,2,0,2"/>
    <wangtile tileid="116" wangid="0,2,0,2,0,2,0,2"/>
    <wangtile tileid="117" wangid="0,2,0,2,0,0,0,0"/>
    <wangtile tileid="118" wangid="0,2,0,0,0,0,0,0"/>
    <wangtile tileid="119" wangid="0,0,0,0,0,0,0,2"/>
    <wangtile tileid="121" wangid="0,5,0,5,0,0,0,0"/>
    <wangtile tileid="122" wangid="0,5,0,5,0,5,0,5"/>
    <wangtile tileid="123" wangid="0,0,0,0,0,5,0,5"/>
    <wangtile tileid="125" wangid="0,0,0,5,0,5,0,5"/>
    <wangtile tileid="126" wangid="0,5,0,5,0,5,0,0"/>
    <wangtile tileid="151" wangid="0,1,0,0,0,0,0,0"/>
    <wangtile tileid="152" wangid="0,1,0,0,0,0,0,1"/>
    <wangtile tileid="153" wangid="0,0,0,0,0,0,0,1"/>
    <wangtile tileid="165" wangid="0,0,0,2,0,2,0,2"/>
    <wangtile tileid="166" wangid="0,0,0,2,0,2,0,0"/>
    <wangtile tileid="167" wangid="0,2,0,2,0,2,0,0"/>
    <wangtile tileid="171" wangid="0,5,0,0,0,0,0,0"/>
    <wangtile tileid="172" wangid="0,5,0,0,0,0,0,5"/>
    <wangtile tileid="173" wangid="0,0,0,0,0,0,0,5"/>
    <wangtile tileid="250" wangid="0,3,0,3,0,3,0,3"/>
    <wangtile tileid="251" wangid="0,3,0,0,0,3,0,3"/>
    <wangtile tileid="252" wangid="0,3,0,0,0,0,0,3"/>
    <wangtile tileid="253" wangid="0,3,0,3,0,0,0,3"/>
    <wangtile tileid="301" wangid="0,0,0,0,0,3,0,3"/>
    <wangtile tileid="303" wangid="0,3,0,3,0,0,0,0"/>
    <wangtile tileid="351" wangid="0,0,0,3,0,3,0,3"/>
    <wangtile tileid="352" wangid="0,0,0,3,0,3,0,0"/>
    <wangtile tileid="353" wangid="0,3,0,3,0,3,0,0"/>
    <wangtile tileid="451" wangid="0,0,0,3,0,0,0,0"/>
    <wangtile tileid="452" wangid="0,0,0,0,0,3,0,0"/>
    <wangtile tileid="501" wangid="0,3,0,0,0,0,0,0"/>
    <wangtile tileid="502" wangid="0,0,0,0,0,0,0,3"/>
    <wangtile tileid="951" wangid="0,0,0,4,0,0,0,0"/>
    <wangtile tileid="952" wangid="0,0,0,4,0,4,0,0"/>
    <wangtile tileid="953" wangid="0,0,0,0,0,4,0,0"/>
    <wangtile tileid="955" wangid="0,4,0,0,0,4,0,4"/>
    <wangtile tileid="956" wangid="0,4,0,4,0,0,0,4"/>
    <wangtile tileid="958" wangid="0,0,0,6,0,0,0,0"/>
    <wangtile tileid="959" wangid="0,0,0,6,0,6,0,0"/>
    <wangtile tileid="960" wangid="0,0,0,0,0,6,0,0"/>
    <wangtile tileid="962" wangid="0,6,0,0,0,6,0,6"/>
    <wangtile tileid="963" wangid="0,6,0,6,0,0,0,6"/>
    <wangtile tileid="1001" wangid="0,4,0,4,0,0,0,0"/>
    <wangtile tileid="1002" wangid="0,4,0,4,0,4,0,4"/>
    <wangtile tileid="1003" wangid="0,0,0,0,0,4,0,4"/>
    <wangtile tileid="1005" wangid="0,0,0,4,0,4,0,4"/>
    <wangtile tileid="1006" wangid="0,4,0,4,0,4,0,0"/>
    <wangtile tileid="1008" wangid="0,6,0,6,0,0,0,0"/>
    <wangtile tileid="1009" wangid="0,6,0,6,0,6,0,6"/>
    <wangtile tileid="1010" wangid="0,0,0,0,0,6,0,6"/>
    <wangtile tileid="1012" wangid="0,0,0,6,0,6,0,6"/>
    <wangtile tileid="1013" wangid="0,6,0,6,0,6,0,0"/>
    <wangtile tileid="1051" wangid="0,4,0,0,0,0,0,0"/>
    <wangtile tileid="1052" wangid="0,4,0,0,0,0,0,4"/>
    <wangtile tileid="1053" wangid="0,0,0,0,0,0,0,4"/>
    <wangtile tileid="1058" wangid="0,6,0,0,0,0,0,0"/>
    <wangtile tileid="1059" wangid="0,6,0,0,0,0,0,6"/>
    <wangtile tileid="1060" wangid="0,0,0,0,0,0,0,6"/>
   </wangset>
   <wangset name="New Grass" type="corner" tile="-1">
    <wangcolor name="Light" color="#ff0000" tile="-1" probability="1"/>
    <wangcolor name="Dark" color="#00ff00" tile="-1" probability="1"/>
    <wangcolor name="Dirt" color="#0000ff" tile="-1" probability="1"/>
    <wangcolor name="Thick Dark" color="#ff7700" tile="-1" probability="1"/>
    <wangtile tileid="1651" wangid="0,0,0,1,0,0,0,0"/>
    <wangtile tileid="1652" wangid="0,0,0,1,0,1,0,0"/>
    <wangtile tileid="1653" wangid="0,0,0,0,0,1,0,0"/>
    <wangtile tileid="1655" wangid="0,1,0,0,0,1,0,1"/>
    <wangtile tileid="1656" wangid="0,1,0,1,0,0,0,1"/>
    <wangtile tileid="1658" wangid="0,0,0,2,0,0,0,0"/>
    <wangtile tileid="1659" wangid="0,0,0,2,0,2,0,0"/>
    <wangtile tileid="1660" wangid="0,0,0,0,0,2,0,0"/>
    <wangtile tileid="1662" wangid="0,2,0,0,0,2,0,2"/>
    <wangtile tileid="1663" wangid="0,2,0,2,0,0,0,2"/>
    <wangtile tileid="1665" wangid="0,0,0,3,0,0,0,0"/>
    <wangtile tileid="1666" wangid="0,0,0,3,0,3,0,0"/>
    <wangtile tileid="1667" wangid="0,0,0,0,0,3,0,0"/>
    <wangtile tileid="1669" wangid="0,3,0,0,0,3,0,3"/>
    <wangtile tileid="1670" wangid="0,3,0,3,0,0,0,3"/>
    <wangtile tileid="1672" wangid="0,0,0,4,0,0,0,0"/>
    <wangtile tileid="1673" wangid="0,0,0,4,0,4,0,0"/>
    <wangtile tileid="1674" wangid="0,0,0,0,0,4,0,0"/>
    <wangtile tileid="1676" wangid="0,4,0,0,0,4,0,4"/>
    <wangtile tileid="1677" wangid="0,4,0,4,0,0,0,4"/>
    <wangtile tileid="1701" wangid="0,1,0,1,0,0,0,0"/>
    <wangtile tileid="1702" wangid="0,1,0,1,0,1,0,1"/>
    <wangtile tileid="1703" wangid="0,0,0,0,0,1,0,1"/>
    <wangtile tileid="1705" wangid="0,0,0,1,0,1,0,1"/>
    <wangtile tileid="1706" wangid="0,1,0,1,0,1,0,0"/>
    <wangtile tileid="1708" wangid="0,2,0,2,0,0,0,0"/>
    <wangtile tileid="1709" wangid="0,2,0,2,0,2,0,2"/>
    <wangtile tileid="1710" wangid="0,0,0,0,0,2,0,2"/>
    <wangtile tileid="1712" wangid="0,0,0,2,0,2,0,2"/>
    <wangtile tileid="1713" wangid="0,2,0,2,0,2,0,0"/>
    <wangtile tileid="1715" wangid="0,3,0,3,0,0,0,0"/>
    <wangtile tileid="1716" wangid="0,3,0,3,0,3,0,3"/>
    <wangtile tileid="1717" wangid="0,0,0,0,0,3,0,3"/>
    <wangtile tileid="1719" wangid="0,0,0,3,0,3,0,3"/>
    <wangtile tileid="1720" wangid="0,3,0,3,0,3,0,0"/>
    <wangtile tileid="1722" wangid="0,4,0,4,0,0,0,0"/>
    <wangtile tileid="1723" wangid="0,4,0,4,0,4,0,4"/>
    <wangtile tileid="1724" wangid="0,0,0,0,0,4,0,4"/>
    <wangtile tileid="1726" wangid="0,0,0,4,0,4,0,4"/>
    <wangtile tileid="1727" wangid="0,4,0,4,0,4,0,0"/>
    <wangtile tileid="1751" wangid="0,1,0,0,0,0,0,0"/>
    <wangtile tileid="1752" wangid="0,1,0,0,0,0,0,1"/>
    <wangtile tileid="1753" wangid="0,0,0,0,0,0,0,1"/>
    <wangtile tileid="1758" wangid="0,2,0,0,0,0,0,0"/>
    <wangtile tileid="1759" wangid="0,2,0,0,0,0,0,2"/>
    <wangtile tileid="1760" wangid="0,0,0,0,0,0,0,2"/>
    <wangtile tileid="1765" wangid="0,3,0,0,0,0,0,0"/>
    <wangtile tileid="1766" wangid="0,3,0,0,0,0,0,3"/>
    <wangtile tileid="1767" wangid="0,0,0,0,0,0,0,3"/>
    <wangtile tileid="1772" wangid="0,4,0,0,0,0,0,0"/>
    <wangtile tileid="1773" wangid="0,4,0,0,0,0,0,4"/>
    <wangtile tileid="1774" wangid="0,0,0,0,0,0,0,4"/>
   </wangset>
  </wangsets>
 </tileset>
 <tileset firstgid="4641" name="objects" tilewidth="16" tileheight="16" tilecount="736" columns="23">
  <image source="_tilesets/objects.png" width="368" height="520"/>
 </tileset>
 <tileset firstgid="5377" name="water" tilewidth="16" tileheight="16" tilecount="1600" columns="40">
  <image source="_tilesets/water2.png" width="640" height="640"/>
  <tile id="41">
   <animation>
    <frame tileid="41" duration="150"/>
    <frame tileid="44" duration="150"/>
    <frame tileid="47" duration="150"/>
    <frame tileid="50" duration="150"/>
    <frame tileid="53" duration="150"/>
    <frame tileid="56" duration="150"/>
    <frame tileid="59" duration="150"/>
    <frame tileid="62" duration="150"/>
   </animation>
  </tile>
  <tile id="42">
   <animation>
    <frame tileid="42" duration="150"/>
    <frame tileid="45" duration="150"/>
    <frame tileid="48" duration="150"/>
    <frame tileid="51" duration="150"/>
    <frame tileid="54" duration="150"/>
    <frame tileid="57" duration="150"/>
    <frame tileid="60" duration="150"/>
    <frame tileid="63" duration="150"/>
   </animation>
  </tile>
  <tile id="43">
   <animation>
    <frame tileid="43" duration="150"/>
    <frame tileid="46" duration="150"/>
    <frame tileid="49" duration="150"/>
    <frame tileid="52" duration="150"/>
    <frame tileid="55" duration="150"/>
    <frame tileid="58" duration="150"/>
    <frame tileid="61" duration="150"/>
    <frame tileid="64" duration="150"/>
   </animation>
  </tile>
  <tile id="66">
   <animation>
    <frame tileid="66" duration="100"/>
    <frame tileid="67" duration="100"/>
    <frame tileid="68" duration="100"/>
   </animation>
  </tile>
  <tile id="81">
   <animation>
    <frame tileid="81" duration="150"/>
    <frame tileid="84" duration="150"/>
    <frame tileid="87" duration="150"/>
    <frame tileid="90" duration="150"/>
    <frame tileid="93" duration="150"/>
    <frame tileid="96" duration="150"/>
    <frame tileid="99" duration="150"/>
    <frame tileid="102" duration="150"/>
   </animation>
  </tile>
  <tile id="82">
   <animation>
    <frame tileid="82" duration="150"/>
    <frame tileid="85" duration="150"/>
    <frame tileid="88" duration="150"/>
    <frame tileid="91" duration="150"/>
    <frame tileid="94" duration="150"/>
    <frame tileid="97" duration="150"/>
    <frame tileid="100" duration="150"/>
    <frame tileid="103" duration="150"/>
   </animation>
  </tile>
  <tile id="83">
   <animation>
    <frame tileid="83" duration="150"/>
    <frame tileid="86" duration="150"/>
    <frame tileid="89" duration="150"/>
    <frame tileid="92" duration="150"/>
    <frame tileid="95" duration="150"/>
    <frame tileid="101" duration="150"/>
    <frame tileid="104" duration="150"/>
   </animation>
  </tile>
  <tile id="106">
   <animation>
    <frame tileid="106" duration="100"/>
    <frame tileid="107" duration="100"/>
    <frame tileid="108" duration="100"/>
   </animation>
  </tile>
  <tile id="121">
   <animation>
    <frame tileid="121" duration="150"/>
    <frame tileid="124" duration="150"/>
    <frame tileid="127" duration="150"/>
    <frame tileid="130" duration="150"/>
    <frame tileid="133" duration="150"/>
    <frame tileid="136" duration="150"/>
    <frame tileid="139" duration="150"/>
    <frame tileid="142" duration="150"/>
   </animation>
  </tile>
  <tile id="122">
   <animation>
    <frame tileid="122" duration="150"/>
    <frame tileid="125" duration="150"/>
    <frame tileid="128" duration="150"/>
    <frame tileid="131" duration="150"/>
    <frame tileid="134" duration="150"/>
    <frame tileid="137" duration="150"/>
    <frame tileid="140" duration="150"/>
    <frame tileid="143" duration="150"/>
   </animation>
  </tile>
  <tile id="123">
   <animation>
    <frame tileid="123" duration="150"/>
    <frame tileid="126" duration="150"/>
    <frame tileid="129" duration="150"/>
    <frame tileid="132" duration="150"/>
    <frame tileid="135" duration="150"/>
    <frame tileid="138" duration="150"/>
    <frame tileid="141" duration="150"/>
    <frame tileid="144" duration="150"/>
   </animation>
  </tile>
  <tile id="146">
   <animation>
    <frame tileid="146" duration="100"/>
    <frame tileid="147" duration="100"/>
    <frame tileid="148" duration="100"/>
   </animation>
  </tile>
  <tile id="186">
   <animation>
    <frame tileid="186" duration="200"/>
    <frame tileid="226" duration="200"/>
    <frame tileid="266" duration="200"/>
   </animation>
  </tile>
  <tile id="187">
   <animation>
    <frame tileid="187" duration="200"/>
    <frame tileid="227" duration="200"/>
    <frame tileid="267" duration="200"/>
   </animation>
  </tile>
  <tile id="188">
   <animation>
    <frame tileid="188" duration="200"/>
    <frame tileid="228" duration="200"/>
    <frame tileid="268" duration="200"/>
   </animation>
  </tile>
  <tile id="201">
   <animation>
    <frame tileid="201" duration="150"/>
    <frame tileid="204" duration="150"/>
    <frame tileid="207" duration="150"/>
    <frame tileid="210" duration="150"/>
    <frame tileid="213" duration="150"/>
    <frame tileid="216" duration="150"/>
    <frame tileid="219" duration="150"/>
    <frame tileid="222" duration="150"/>
   </animation>
  </tile>
  <tile id="202">
   <animation>
    <frame tileid="202" duration="150"/>
    <frame tileid="205" duration="150"/>
    <frame tileid="208" duration="150"/>
    <frame tileid="211" duration="150"/>
    <frame tileid="214" duration="150"/>
    <frame tileid="217" duration="150"/>
    <frame tileid="220" duration="150"/>
    <frame tileid="223" duration="150"/>
   </animation>
  </tile>
  <tile id="203">
   <animation>
    <frame tileid="203" duration="150"/>
    <frame tileid="206" duration="150"/>
    <frame tileid="209" duration="150"/>
    <frame tileid="212" duration="150"/>
    <frame tileid="215" duration="150"/>
    <frame tileid="218" duration="150"/>
    <frame tileid="221" duration="150"/>
    <frame tileid="224" duration="150"/>
   </animation>
  </tile>
  <tile id="241">
   <animation>
    <frame tileid="241" duration="150"/>
    <frame tileid="244" duration="150"/>
    <frame tileid="247" duration="150"/>
    <frame tileid="250" duration="150"/>
    <frame tileid="253" duration="150"/>
    <frame tileid="256" duration="150"/>
    <frame tileid="259" duration="150"/>
    <frame tileid="262" duration="150"/>
   </animation>
  </tile>
  <tile id="243">
   <animation>
    <frame tileid="243" duration="150"/>
    <frame tileid="246" duration="150"/>
    <frame tileid="249" duration="150"/>
    <frame tileid="252" duration="150"/>
    <frame tileid="255" duration="150"/>
    <frame tileid="258" duration="150"/>
    <frame tileid="261" duration="150"/>
    <frame tileid="264" duration="150"/>
   </animation>
  </tile>
  <tile id="281">
   <animation>
    <frame tileid="281" duration="150"/>
    <frame tileid="284" duration="150"/>
    <frame tileid="287" duration="150"/>
    <frame tileid="290" duration="150"/>
    <frame tileid="293" duration="150"/>
    <frame tileid="296" duration="150"/>
    <frame tileid="299" duration="150"/>
    <frame tileid="302" duration="150"/>
   </animation>
  </tile>
  <tile id="282">
   <animation>
    <frame tileid="282" duration="150"/>
    <frame tileid="285" duration="150"/>
    <frame tileid="288" duration="150"/>
    <frame tileid="291" duration="150"/>
    <frame tileid="294" duration="150"/>
    <frame tileid="297" duration="150"/>
    <frame tileid="300" duration="150"/>
    <frame tileid="303" duration="150"/>
   </animation>
  </tile>
  <tile id="283">
   <animation>
    <frame tileid="283" duration="150"/>
    <frame tileid="286" duration="150"/>
    <frame tileid="289" duration="150"/>
    <frame tileid="292" duration="150"/>
    <frame tileid="295" duration="150"/>
    <frame tileid="298" duration="150"/>
    <frame tileid="301" duration="150"/>
    <frame tileid="304" duration="150"/>
   </animation>
  </tile>
  <tile id="361">
   <animation>
    <frame tileid="361" duration="150"/>
    <frame tileid="401" duration="150"/>
    <frame tileid="441" duration="150"/>
    <frame tileid="481" duration="150"/>
   </animation>
  </tile>
  <tile id="362">
   <animation>
    <frame tileid="362" duration="150"/>
    <frame tileid="402" duration="150"/>
    <frame tileid="442" duration="150"/>
    <frame tileid="482" duration="150"/>
   </animation>
  </tile>
  <tile id="364">
   <animation>
    <frame tileid="364" duration="150"/>
    <frame tileid="404" duration="150"/>
    <frame tileid="444" duration="150"/>
    <frame tileid="484" duration="150"/>
   </animation>
  </tile>
  <tile id="365">
   <animation>
    <frame tileid="365" duration="150"/>
    <frame tileid="405" duration="150"/>
    <frame tileid="445" duration="150"/>
    <frame tileid="485" duration="150"/>
   </animation>
  </tile>
  <tile id="367">
   <animation>
    <frame tileid="367" duration="150"/>
    <frame tileid="407" duration="150"/>
    <frame tileid="447" duration="150"/>
    <frame tileid="487" duration="150"/>
   </animation>
  </tile>
  <tile id="368">
   <animation>
    <frame tileid="368" duration="150"/>
    <frame tileid="408" duration="150"/>
    <frame tileid="448" duration="150"/>
    <frame tileid="488" duration="150"/>
   </animation>
  </tile>
  <tile id="370">
   <animation>
    <frame tileid="370" duration="150"/>
    <frame tileid="410" duration="150"/>
    <frame tileid="450" duration="150"/>
    <frame tileid="490" duration="150"/>
   </animation>
  </tile>
  <tile id="371">
   <animation>
    <frame tileid="371" duration="150"/>
    <frame tileid="411" duration="150"/>
    <frame tileid="451" duration="150"/>
    <frame tileid="491" duration="150"/>
   </animation>
  </tile>
  <tile id="372">
   <animation>
    <frame tileid="372" duration="150"/>
    <frame tileid="412" duration="150"/>
    <frame tileid="452" duration="150"/>
    <frame tileid="492" duration="150"/>
   </animation>
  </tile>
  <tile id="374">
   <animation>
    <frame tileid="374" duration="150"/>
    <frame tileid="414" duration="150"/>
    <frame tileid="454" duration="150"/>
    <frame tileid="494" duration="150"/>
   </animation>
  </tile>
  <tile id="375">
   <animation>
    <frame tileid="375" duration="150"/>
    <frame tileid="415" duration="150"/>
    <frame tileid="455" duration="150"/>
    <frame tileid="495" duration="150"/>
   </animation>
  </tile>
  <tile id="379">
   <animation>
    <frame tileid="379" duration="150"/>
    <frame tileid="419" duration="150"/>
    <frame tileid="459" duration="150"/>
    <frame tileid="499" duration="150"/>
   </animation>
  </tile>
  <tile id="380">
   <animation>
    <frame tileid="380" duration="150"/>
    <frame tileid="420" duration="150"/>
    <frame tileid="460" duration="150"/>
    <frame tileid="500" duration="150"/>
   </animation>
  </tile>
  <tile id="382">
   <animation>
    <frame tileid="382" duration="150"/>
    <frame tileid="422" duration="150"/>
    <frame tileid="462" duration="150"/>
    <frame tileid="502" duration="150"/>
   </animation>
  </tile>
  <tile id="383">
   <animation>
    <frame tileid="383" duration="150"/>
    <frame tileid="423" duration="150"/>
    <frame tileid="463" duration="150"/>
    <frame tileid="503" duration="150"/>
   </animation>
  </tile>
  <tile id="385">
   <animation>
    <frame tileid="385" duration="150"/>
    <frame tileid="425" duration="150"/>
    <frame tileid="465" duration="150"/>
    <frame tileid="505" duration="150"/>
   </animation>
  </tile>
  <tile id="386">
   <animation>
    <frame tileid="386" duration="150"/>
    <frame tileid="426" duration="150"/>
    <frame tileid="466" duration="150"/>
    <frame tileid="506" duration="150"/>
   </animation>
  </tile>
  <tile id="388">
   <animation>
    <frame tileid="388" duration="150"/>
    <frame tileid="428" duration="150"/>
    <frame tileid="468" duration="150"/>
    <frame tileid="508" duration="150"/>
   </animation>
  </tile>
  <tile id="389">
   <animation>
    <frame tileid="389" duration="150"/>
    <frame tileid="429" duration="150"/>
    <frame tileid="469" duration="150"/>
    <frame tileid="509" duration="150"/>
   </animation>
  </tile>
  <tile id="390">
   <animation>
    <frame tileid="390" duration="150"/>
    <frame tileid="430" duration="150"/>
    <frame tileid="470" duration="150"/>
    <frame tileid="510" duration="150"/>
   </animation>
  </tile>
  <tile id="392">
   <animation>
    <frame tileid="392" duration="150"/>
    <frame tileid="432" duration="150"/>
    <frame tileid="472" duration="150"/>
    <frame tileid="512" duration="150"/>
   </animation>
  </tile>
  <tile id="393">
   <animation>
    <frame tileid="393" duration="150"/>
    <frame tileid="433" duration="150"/>
    <frame tileid="473" duration="150"/>
    <frame tileid="513" duration="150"/>
   </animation>
  </tile>
  <tile id="395">
   <animation>
    <frame tileid="395" duration="150"/>
    <frame tileid="435" duration="150"/>
    <frame tileid="475" duration="150"/>
    <frame tileid="515" duration="150"/>
   </animation>
  </tile>
  <tile id="396">
   <animation>
    <frame tileid="396" duration="150"/>
    <frame tileid="436" duration="150"/>
    <frame tileid="476" duration="150"/>
    <frame tileid="516" duration="150"/>
   </animation>
  </tile>
  <tile id="561">
   <animation>
    <frame tileid="561" duration="150"/>
    <frame tileid="564" duration="150"/>
    <frame tileid="567" duration="150"/>
    <frame tileid="570" duration="150"/>
   </animation>
  </tile>
  <tile id="563">
   <animation>
    <frame tileid="563" duration="150"/>
    <frame tileid="566" duration="150"/>
    <frame tileid="569" duration="150"/>
    <frame tileid="572" duration="150"/>
   </animation>
  </tile>
  <tile id="579">
   <animation>
    <frame tileid="579" duration="150"/>
    <frame tileid="582" duration="150"/>
    <frame tileid="585" duration="150"/>
    <frame tileid="588" duration="150"/>
   </animation>
  </tile>
  <tile id="581">
   <animation>
    <frame tileid="581" duration="150"/>
    <frame tileid="584" duration="150"/>
    <frame tileid="587" duration="150"/>
    <frame tileid="590" duration="150"/>
   </animation>
  </tile>
  <tile id="641">
   <animation>
    <frame tileid="641" duration="150"/>
    <frame tileid="644" duration="150"/>
    <frame tileid="647" duration="150"/>
    <frame tileid="650" duration="150"/>
    <frame tileid="653" duration="150"/>
    <frame tileid="656" duration="150"/>
    <frame tileid="659" duration="150"/>
    <frame tileid="662" duration="150"/>
   </animation>
  </tile>
  <tile id="642">
   <animation>
    <frame tileid="642" duration="150"/>
    <frame tileid="645" duration="150"/>
    <frame tileid="648" duration="150"/>
    <frame tileid="651" duration="150"/>
    <frame tileid="654" duration="150"/>
    <frame tileid="657" duration="150"/>
    <frame tileid="660" duration="150"/>
    <frame tileid="663" duration="150"/>
   </animation>
  </tile>
  <tile id="643">
   <animation>
    <frame tileid="643" duration="150"/>
    <frame tileid="646" duration="150"/>
    <frame tileid="649" duration="150"/>
    <frame tileid="652" duration="150"/>
    <frame tileid="655" duration="150"/>
    <frame tileid="658" duration="150"/>
    <frame tileid="661" duration="150"/>
    <frame tileid="664" duration="150"/>
   </animation>
  </tile>
  <tile id="681">
   <animation>
    <frame tileid="681" duration="150"/>
    <frame tileid="684" duration="150"/>
    <frame tileid="687" duration="150"/>
    <frame tileid="690" duration="150"/>
    <frame tileid="693" duration="150"/>
    <frame tileid="696" duration="150"/>
    <frame tileid="699" duration="150"/>
    <frame tileid="702" duration="150"/>
   </animation>
  </tile>
  <tile id="682">
   <animation>
    <frame tileid="682" duration="150"/>
    <frame tileid="685" duration="150"/>
    <frame tileid="688" duration="150"/>
    <frame tileid="691" duration="150"/>
    <frame tileid="694" duration="150"/>
    <frame tileid="697" duration="150"/>
    <frame tileid="700" duration="150"/>
    <frame tileid="703" duration="150"/>
   </animation>
  </tile>
  <tile id="683">
   <animation>
    <frame tileid="683" duration="150"/>
    <frame tileid="686" duration="150"/>
    <frame tileid="689" duration="150"/>
    <frame tileid="692" duration="150"/>
    <frame tileid="695" duration="150"/>
    <frame tileid="698" duration="150"/>
    <frame tileid="701" duration="150"/>
    <frame tileid="704" duration="150"/>
   </animation>
  </tile>
  <tile id="721">
   <animation>
    <frame tileid="721" duration="150"/>
    <frame tileid="724" duration="150"/>
    <frame tileid="727" duration="150"/>
    <frame tileid="730" duration="150"/>
    <frame tileid="733" duration="150"/>
    <frame tileid="736" duration="150"/>
    <frame tileid="739" duration="150"/>
    <frame tileid="742" duration="150"/>
   </animation>
  </tile>
  <tile id="722">
   <animation>
    <frame tileid="722" duration="150"/>
    <frame tileid="725" duration="150"/>
    <frame tileid="728" duration="150"/>
    <frame tileid="731" duration="150"/>
    <frame tileid="734" duration="150"/>
    <frame tileid="737" duration="150"/>
    <frame tileid="740" duration="150"/>
    <frame tileid="743" duration="150"/>
   </animation>
  </tile>
  <tile id="723">
   <animation>
    <frame tileid="723" duration="150"/>
    <frame tileid="726" duration="150"/>
    <frame tileid="729" duration="150"/>
    <frame tileid="732" duration="150"/>
    <frame tileid="735" duration="150"/>
    <frame tileid="738" duration="150"/>
    <frame tileid="741" duration="150"/>
    <frame tileid="744" duration="150"/>
   </animation>
  </tile>
  <tile id="801">
   <animation>
    <frame tileid="801" duration="150"/>
    <frame tileid="804" duration="150"/>
    <frame tileid="807" duration="150"/>
    <frame tileid="810" duration="150"/>
    <frame tileid="813" duration="150"/>
    <frame tileid="816" duration="150"/>
    <frame tileid="819" duration="150"/>
    <frame tileid="822" duration="150"/>
   </animation>
  </tile>
  <tile id="802">
   <animation>
    <frame tileid="802" duration="150"/>
    <frame tileid="805" duration="150"/>
    <frame tileid="808" duration="150"/>
    <frame tileid="811" duration="150"/>
    <frame tileid="814" duration="150"/>
    <frame tileid="817" duration="150"/>
    <frame tileid="820" duration="150"/>
    <frame tileid="823" duration="150"/>
   </animation>
  </tile>
  <tile id="803">
   <animation>
    <frame tileid="803" duration="150"/>
    <frame tileid="806" duration="150"/>
    <frame tileid="809" duration="150"/>
    <frame tileid="812" duration="150"/>
    <frame tileid="815" duration="150"/>
    <frame tileid="818" duration="150"/>
    <frame tileid="821" duration="150"/>
    <frame tileid="824" duration="150"/>
   </animation>
  </tile>
  <tile id="841">
   <animation>
    <frame tileid="841" duration="150"/>
    <frame tileid="844" duration="150"/>
    <frame tileid="847" duration="150"/>
    <frame tileid="850" duration="150"/>
    <frame tileid="853" duration="150"/>
    <frame tileid="856" duration="150"/>
    <frame tileid="859" duration="150"/>
    <frame tileid="862" duration="150"/>
   </animation>
  </tile>
  <tile id="843">
   <animation>
    <frame tileid="843" duration="150"/>
    <frame tileid="846" duration="150"/>
    <frame tileid="849" duration="150"/>
    <frame tileid="852" duration="150"/>
    <frame tileid="855" duration="150"/>
    <frame tileid="858" duration="150"/>
    <frame tileid="861" duration="150"/>
    <frame tileid="864" duration="150"/>
   </animation>
  </tile>
  <tile id="881">
   <animation>
    <frame tileid="881" duration="150"/>
    <frame tileid="884" duration="150"/>
    <frame tileid="887" duration="150"/>
    <frame tileid="890" duration="150"/>
    <frame tileid="893" duration="150"/>
    <frame tileid="896" duration="150"/>
    <frame tileid="899" duration="150"/>
    <frame tileid="902" duration="150"/>
   </animation>
  </tile>
  <tile id="882">
   <animation>
    <frame tileid="882" duration="150"/>
    <frame tileid="885" duration="150"/>
    <frame tileid="888" duration="150"/>
    <frame tileid="891" duration="150"/>
    <frame tileid="894" duration="150"/>
    <frame tileid="897" duration="150"/>
    <frame tileid="900" duration="150"/>
    <frame tileid="903" duration="150"/>
   </animation>
  </tile>
  <tile id="883">
   <animation>
    <frame tileid="883" duration="150"/>
    <frame tileid="886" duration="150"/>
    <frame tileid="889" duration="150"/>
    <frame tileid="892" duration="150"/>
    <frame tileid="895" duration="150"/>
    <frame tileid="898" duration="150"/>
    <frame tileid="901" duration="150"/>
    <frame tileid="904" duration="150"/>
   </animation>
  </tile>
  <wangsets>
   <wangset name="Water" type="corner" tile="-1">
    <wangcolor name="Dirt Edge" color="#ff0000" tile="-1" probability="1"/>
    <wangtile tileid="641" wangid="0,0,0,1,0,0,0,0"/>
    <wangtile tileid="642" wangid="0,0,0,1,0,1,0,0"/>
    <wangtile tileid="643" wangid="0,0,0,0,0,1,0,0"/>
    <wangtile tileid="681" wangid="0,1,0,1,0,0,0,0"/>
    <wangtile tileid="682" wangid="0,1,0,1,0,1,0,1"/>
    <wangtile tileid="683" wangid="0,0,0,0,0,1,0,1"/>
    <wangtile tileid="721" wangid="0,1,0,0,0,0,0,0"/>
    <wangtile tileid="722" wangid="0,1,0,0,0,0,0,1"/>
    <wangtile tileid="723" wangid="0,0,0,0,0,0,0,1"/>
    <wangtile tileid="801" wangid="0,1,0,0,0,1,0,1"/>
    <wangtile tileid="802" wangid="0,1,0,0,0,0,0,1"/>
    <wangtile tileid="803" wangid="0,1,0,1,0,0,0,1"/>
    <wangtile tileid="841" wangid="0,0,0,0,0,1,0,1"/>
    <wangtile tileid="843" wangid="0,1,0,1,0,0,0,0"/>
    <wangtile tileid="881" wangid="0,0,0,1,0,1,0,1"/>
    <wangtile tileid="882" wangid="0,0,0,1,0,1,0,0"/>
    <wangtile tileid="883" wangid="0,1,0,1,0,1,0,0"/>
   </wangset>
  </wangsets>
 </tileset>
 <layer id="28" name="Simple" width="64" height="48">
  <data encoding="csv">
757,757,757,757,757,757,757,757,757,757,757,757,757,757,757,757,757,757,757,757,757,757,757,757,757,757,757,757,757,757,757,757,757,757,757,757,757,757,757,757,757,757,757,757,757,757,757,757,757,757,757,757,757,757,757,757,757,757,757,757,757,757,757,757,
757,757,757,757,757,757,757,757,757,757,757,757,757,757,757,757,757,757,757,757,757,757,757,757,757,757,757,757,757,757,757,757,757,757,757,757,757,757,757,757,757,757,757,757,757,757,757,757,757,757,757,757,757,757,757,757,757,757,757,757,757,757,757,757,
757,757,757,757,757,757,757,757,757,757,757,757,757,757,757,757,757,757,757,757,757,757,757,757,757,757,757,757,757,757,757,757,757,757,757,757,757,757,757,757,757,757,757,757,757,757,757,757,757,757,757,757,757,757,757,757,757,757,757,757,757,757,757,757,
757,757,757,757,757,757,757,757,757,757,757,757,757,757,757,757,757,757,757,757,757,757,757,757,757,757,757,757,757,757,757,757,757,757,757,757,757,757,757,757,757,757,757,757,757,757,757,757,757,757,757,757,757,757,757,757,757,757,757,757,757,757,757,757,
757,757,757,757,757,757,757,757,757,757,757,757,757,757,757,757,757,757,757,757,757,757,757,757,757,757,757,757,757,757,757,757,757,757,757,757,757,757,757,757,757,757,757,757,757,757,757,757,757,757,757,757,757,757,757,757,757,757,757,757,757,757,757,757,
757,757,757,757,757,757,757,757,757,757,757,757,757,757,757,757,757,757,757,757,757,757,757,757,757,757,757,757,757,757,757,757,757,757,757,757,757,757,757,757,757,757,757,757,757,757,757,757,757,757,757,757,757,757,757,757,757,757,757,757,757,757,757,757,
757,757,757,757,757,757,757,757,757,757,757,757,757,757,757,757,757,757,757,757,757,757,757,757,757,757,757,757,757,757,757,757,757,757,757,757,757,757,757,757,757,757,757,757,757,757,757,757,757,757,757,757,757,757,757,757,757,757,757,757,757,757,757,757,
757,757,757,757,757,757,757,757,757,757,757,757,757,757,757,757,757,757,757,757,757,757,757,757,757,757,757,757,757,757,757,757,757,757,757,757,757,757,757,757,757,757,757,757,757,757,757,757,757,757,757,757,757,757,757,757,757,757,757,757,757,757,757,757,
757,757,757,757,757,757,757,757,757,757,757,757,757,757,757,757,757,757,757,757,757,757,757,757,757,757,757,757,757,757,757,757,757,757,757,757,757,757,757,757,757,757,757,757,757,757,757,757,757,757,757,757,757,757,757,757,757,757,757,757,757,757,757,757,
757,757,757,757,757,757,757,757,757,757,757,757,757,757,757,757,757,757,757,757,757,757,757,757,757,757,757,757,757,757,757,757,757,757,757,757,757,757,757,757,757,757,757,757,757,757,757,757,757,757,757,757,757,757,757,757,757,757,757,757,757,757,757,757,
757,757,757,757,757,757,757,757,757,757,757,757,757,757,757,757,757,757,757,757,757,757,757,757,757,757,757,757,757,757,757,757,757,757,757,757,757,757,757,757,757,757,757,757,757,757,757,757,757,757,757,757,757,757,757,757,757,757,757,757,757,757,757,757,
757,757,757,757,757,757,757,757,757,757,757,757,757,757,757,757,757,757,757,757,757,757,757,757,757,757,757,757,757,757,757,757,757,757,757,757,757,757,757,757,757,757,757,757,757,757,757,757,757,757,757,757,757,757,757,757,757,757,757,757,757,757,757,757,
757,757,757,757,757,757,757,757,757,757,757,757,757,757,757,757,757,757,757,757,757,757,757,757,757,757,757,757,757,757,757,757,757,757,757,757,757,757,757,757,757,757,757,757,757,757,757,757,757,757,757,757,757,757,757,757,757,757,757,757,757,757,757,757,
757,757,757,757,757,757,757,757,757,757,757,757,757,757,757,757,757,757,757,757,757,757,757,757,757,757,757,757,757,757,757,757,757,757,757,757,757,757,757,757,757,757,757,757,757,757,757,757,757,757,757,757,757,757,757,757,757,757,757,757,757,757,757,757,
757,757,757,757,757,757,757,757,757,757,757,757,757,757,757,757,757,757,757,757,757,757,757,757,757,757,757,757,757,757,757,757,757,757,757,757,757,757,757,757,757,757,757,757,757,757,757,757,757,757,757,757,757,757,757,757,757,757,757,757,757,757,757,757,
757,757,757,757,757,757,757,757,757,757,757,757,757,757,757,757,757,757,757,757,757,757,757,757,757,757,757,757,757,757,757,757,757,757,757,757,757,757,757,757,757,757,757,757,757,757,757,757,757,757,757,757,757,757,757,757,757,757,757,757,757,757,757,757,
757,757,757,757,757,757,757,757,757,757,757,757,757,757,757,757,757,757,757,757,757,757,757,757,757,757,757,757,757,757,757,757,757,757,757,757,757,757,757,757,757,757,757,757,757,757,757,757,757,757,757,757,757,757,757,757,757,757,757,757,757,757,757,757,
757,757,757,757,757,757,757,757,757,757,757,757,757,757,757,757,757,757,757,757,757,757,757,757,757,757,757,757,757,757,757,757,757,757,757,757,757,757,757,757,757,757,757,757,757,757,757,757,757,757,757,757,757,757,757,757,757,757,757,757,757,757,757,757,
757,757,757,757,757,757,757,757,757,757,757,757,757,757,757,757,757,757,757,757,757,757,757,757,757,757,757,757,757,757,757,757,757,757,757,757,757,757,757,757,757,757,757,757,757,757,757,757,757,757,757,757,757,757,757,757,757,757,757,757,757,757,757,757,
757,757,757,757,757,757,757,757,757,757,757,757,757,757,757,757,757,757,757,757,757,757,757,757,757,757,757,757,757,757,757,757,757,757,757,757,757,757,757,757,757,757,757,757,757,757,757,757,757,757,757,757,757,757,757,757,757,757,757,757,757,757,757,757,
757,757,757,757,757,757,757,757,757,757,757,757,757,757,757,757,757,757,757,757,757,757,757,757,757,757,757,757,757,757,757,757,757,757,757,757,757,757,757,757,757,757,757,757,757,757,757,757,757,757,757,757,757,757,757,757,757,757,757,757,757,757,757,757,
757,757,757,757,757,757,757,757,757,757,757,757,757,757,757,757,757,757,757,757,757,757,757,757,757,757,757,757,757,757,757,757,757,757,757,757,757,757,757,757,757,757,757,757,757,757,757,757,757,757,757,757,757,757,757,757,757,757,757,757,757,757,757,757,
757,757,757,757,757,757,757,757,757,757,757,757,757,757,757,757,757,757,757,757,757,757,757,757,757,757,757,757,757,757,757,757,757,757,757,757,757,757,757,757,757,757,757,757,757,757,757,757,757,757,757,757,757,757,757,757,757,757,757,757,757,757,757,757,
757,757,757,757,757,757,757,757,757,757,757,757,757,757,757,757,757,757,757,757,757,757,757,757,757,757,757,757,757,757,757,757,757,757,757,757,757,757,757,757,757,757,757,757,757,757,757,757,757,757,757,757,757,757,757,757,757,757,757,757,757,757,757,757,
757,757,757,757,757,757,757,757,757,757,757,757,757,757,757,757,757,757,757,757,757,757,757,757,757,757,757,757,757,757,757,757,757,757,757,757,757,757,757,757,757,757,757,757,757,757,757,757,757,757,757,757,757,757,757,757,757,757,757,757,757,757,757,757,
757,757,757,757,757,757,757,757,757,757,757,757,757,757,757,757,757,757,757,757,757,757,757,757,757,757,757,757,757,757,757,757,757,757,757,757,757,757,757,757,757,757,757,757,757,757,757,757,757,757,757,757,757,757,757,757,757,757,757,757,757,757,757,757,
757,757,757,757,757,757,757,757,757,757,757,757,757,757,757,757,757,757,757,757,757,757,757,757,757,757,757,757,757,757,757,757,757,757,757,757,757,757,757,757,757,757,757,757,757,757,757,757,757,757,757,757,757,757,757,757,757,757,757,757,757,757,757,757,
757,757,757,757,757,757,757,757,757,757,757,757,757,757,757,757,757,757,757,757,757,757,757,757,757,757,757,757,757,757,757,757,757,757,757,757,757,757,757,757,757,757,757,757,757,757,757,757,757,757,757,757,757,757,757,757,757,757,757,757,757,757,757,757,
757,757,757,757,757,757,757,757,757,757,757,757,757,757,757,757,757,757,757,757,757,757,757,757,757,757,757,757,757,757,757,757,757,757,757,757,757,757,757,757,757,757,757,757,757,757,757,757,757,757,757,757,757,757,757,757,757,757,757,757,757,757,757,757,
757,757,757,757,757,757,757,757,757,757,757,757,757,757,757,757,757,757,757,757,757,757,757,757,757,757,757,757,757,757,757,757,757,757,757,757,757,757,757,757,757,757,757,757,757,757,757,757,757,757,757,757,757,757,757,757,757,757,757,757,757,757,757,757,
757,757,757,757,757,757,757,757,757,757,757,757,757,757,757,757,757,757,757,757,757,757,757,757,757,757,757,757,757,757,757,757,757,757,757,757,757,757,757,757,757,757,757,757,757,757,757,757,757,757,757,757,757,757,757,757,757,757,757,757,757,757,757,757,
757,757,757,757,757,757,757,757,757,757,757,757,757,757,757,757,757,757,757,757,757,757,757,757,757,757,757,757,757,757,757,757,757,757,757,757,757,757,757,757,757,757,757,757,757,757,757,757,757,757,757,757,757,757,757,757,757,757,757,757,757,757,757,757,
757,757,757,757,757,757,757,757,757,757,757,757,757,757,757,757,757,757,757,757,757,757,757,757,757,757,757,757,757,757,757,757,757,757,757,757,757,757,757,757,757,757,757,757,757,757,757,757,757,757,757,757,757,757,757,757,757,757,757,757,757,757,757,757,
757,757,757,757,757,757,757,757,757,757,757,757,757,757,757,757,757,757,757,757,757,757,757,757,757,757,757,757,757,757,757,757,757,757,757,757,757,757,757,757,757,757,757,757,757,757,757,757,757,757,757,757,757,757,757,757,757,757,757,757,757,757,757,757,
757,757,757,757,757,757,757,757,757,757,757,757,757,757,757,757,757,757,757,757,757,757,757,757,757,757,757,757,757,757,757,757,757,757,757,757,757,757,757,757,757,757,757,757,757,757,757,757,757,757,757,757,757,757,757,757,757,757,757,757,757,757,757,757,
757,757,757,757,757,757,757,757,757,757,757,757,757,757,757,757,757,757,757,757,757,757,757,757,757,757,757,757,757,757,757,757,757,757,757,757,757,757,757,757,757,757,757,757,757,757,757,757,757,757,757,757,757,757,757,757,757,757,757,757,757,757,757,757,
757,757,757,757,757,757,757,757,757,757,757,757,757,757,757,757,757,757,757,757,757,757,757,757,757,757,757,757,757,757,757,757,757,757,757,757,757,757,757,757,757,757,757,757,757,757,757,757,757,757,757,757,757,757,757,757,757,757,757,757,757,757,757,757,
757,757,757,757,757,757,757,757,757,757,757,757,757,757,757,757,757,757,757,757,757,757,757,757,757,757,757,757,757,757,757,757,757,757,757,757,757,757,757,757,757,757,757,757,757,757,757,757,757,757,757,757,757,757,757,757,757,757,757,757,757,757,757,757,
757,757,757,757,757,757,757,757,757,757,757,757,757,757,757,757,757,757,757,757,757,757,757,757,757,757,757,757,757,757,757,757,757,757,757,757,757,757,757,757,757,757,757,757,757,757,757,757,757,757,757,757,757,757,757,757,757,757,757,757,757,757,757,757,
757,757,757,757,757,757,757,757,757,757,757,757,757,757,757,757,757,757,757,757,757,757,757,757,757,757,757,757,757,757,757,757,757,757,757,757,757,757,757,757,757,757,757,757,757,757,757,757,757,757,757,757,757,757,757,757,757,757,757,757,757,757,757,757,
757,757,757,757,757,757,757,757,757,757,757,757,757,757,757,757,757,757,757,757,757,757,757,757,757,757,757,757,757,757,757,757,757,757,757,757,757,757,757,757,757,757,757,757,757,757,757,757,757,757,757,757,757,757,757,757,757,757,757,757,757,757,757,757,
757,757,757,757,757,757,757,757,757,757,757,757,757,757,757,757,757,757,757,757,757,757,757,757,757,757,757,757,757,757,757,757,757,757,757,757,757,757,757,757,757,757,757,757,757,757,757,757,757,757,757,757,757,757,757,757,757,757,757,757,757,757,757,757,
757,757,757,757,757,757,757,757,757,757,757,757,757,757,757,757,757,757,757,757,757,757,757,757,757,757,757,757,757,757,757,757,757,757,757,757,757,757,757,757,757,757,757,757,757,757,757,757,757,757,757,757,757,757,757,757,757,757,757,757,757,757,757,757,
757,757,757,757,757,757,757,757,757,757,757,757,757,757,757,757,757,757,757,757,757,757,757,757,757,757,757,757,757,757,757,757,757,757,757,757,757,757,757,757,757,757,757,757,757,757,757,757,757,757,757,757,757,757,757,757,757,757,757,757,757,757,757,757,
757,757,757,757,757,757,757,757,757,757,757,757,757,757,757,757,757,757,757,757,757,757,757,757,757,757,757,757,757,757,757,757,757,757,757,757,757,757,757,757,757,757,757,757,757,757,757,757,757,757,757,757,757,757,757,757,757,757,757,757,757,757,757,757,
757,757,757,757,757,757,757,757,757,757,757,757,757,757,757,757,757,757,757,757,757,757,757,757,757,757,757,757,757,757,757,757,757,757,757,757,757,757,757,757,757,757,757,757,757,757,757,757,757,757,757,757,757,757,757,757,757,757,757,757,757,757,757,757,
757,757,757,757,757,757,757,757,757,757,757,757,757,757,757,757,757,757,757,757,757,757,757,757,757,757,757,757,757,757,757,757,757,757,757,757,757,757,757,757,757,757,757,757,757,757,757,757,757,757,757,757,757,757,757,757,757,757,757,757,757,757,757,757,
757,757,757,757,757,757,757,757,757,757,757,757,757,757,757,757,757,757,757,757,757,757,757,757,757,757,757,757,757,757,757,757,757,757,757,757,757,757,757,757,757,757,757,757,757,757,757,757,757,757,757,757,757,757,757,757,757,757,757,757,757,757,757,757
</data>
 </layer>
 <layer id="1" name="Base" width="64" height="48">
  <data encoding="csv">
0,0,0,0,0,0,0,0,0,0,0,0,0,0,0,0,0,2313,2314,2368,2364,2364,2364,2364,2367,2315,0,0,0,0,0,0,0,0,2363,2364,2364,2364,2364,2364,2364,2364,2364,2364,2364,2364,2364,2364,2364,2364,2364,2364,2364,2364,2364,2364,2364,2364,2364,2364,2364,2364,2364,2364,
0,0,0,0,0,0,0,0,0,0,0,0,0,0,0,2313,2314,2368,2364,2364,2364,2364,2364,2364,2364,2365,0,0,0,0,0,0,0,2313,2368,2364,2364,2317,2318,2364,2364,2317,2414,2414,2414,2414,2414,2414,2318,2364,2364,2364,2364,2364,2364,2364,2364,2364,2364,2364,2364,2364,2364,2364,
0,0,0,0,0,0,0,0,0,0,0,0,0,0,2313,2368,2364,2364,2364,2364,2364,2364,2364,2364,2364,2365,0,0,0,0,0,2313,2314,2368,2364,2364,2364,2365,2413,2414,2414,2415,0,0,0,0,0,0,2413,2414,2318,2364,2364,2364,2364,2364,2364,2364,2364,2364,2364,2364,2364,2317,
0,0,0,0,0,0,0,0,0,0,0,0,0,2313,2368,2364,2364,2364,2364,2364,2364,2364,2364,2364,2364,2367,2314,2315,0,0,2313,2368,2364,2364,2364,2364,2364,2365,0,0,0,0,0,0,0,0,0,0,0,0,2363,2364,2364,2364,2364,2364,2364,2364,2364,2364,2364,2364,2317,2415,
0,0,0,0,0,0,0,0,0,0,0,0,0,2363,2364,2364,2364,2364,2364,2364,2364,2364,2364,2364,2364,2364,2364,2365,0,0,2363,2364,2364,2364,2364,2364,2317,2415,0,0,0,0,0,0,0,0,0,0,0,0,2413,2414,2414,2414,2318,2364,2364,2364,2364,2364,2364,2317,2415,0,
0,0,0,0,0,0,0,0,0,0,0,0,0,2363,2364,2364,2364,2364,2364,2364,2364,2364,2364,2364,2364,2364,2364,2365,0,0,2363,2364,2317,2414,2414,2414,2415,0,0,0,0,0,0,0,0,0,0,0,0,0,0,0,0,0,2413,2414,2318,2364,2364,2364,2364,2365,0,0,
0,0,0,0,0,0,0,0,0,0,0,0,0,2363,2364,2364,2364,2364,2364,2364,2364,2364,2364,2364,2364,2364,2364,2365,0,0,2413,2414,2415,0,0,0,0,0,0,0,0,754,699,753,752,703,699,699,0,0,0,0,0,0,0,0,2363,2364,2364,2364,2317,2415,0,0,
0,0,0,0,0,0,0,0,0,0,0,0,0,2363,2364,2364,2364,2364,2364,2364,2364,2364,2364,2364,2317,2414,2414,2415,0,0,0,0,0,0,0,699,701,699,699,699,699,751,699,699,699,750,751,703,699,702,0,0,0,0,0,2313,2368,2364,2364,2364,2365,0,0,0,
0,0,0,0,0,0,0,0,0,0,0,0,0,2363,2364,2364,2364,2364,2364,2364,2364,2364,2364,2317,2415,0,0,0,0,0,699,699,754,699,699,751,699,751,703,754,700,699,699,750,699,704,700,751,749,699,0,0,0,0,2313,2368,2364,2364,2364,2317,2415,0,0,0,
0,0,0,0,0,0,0,0,0,0,0,0,0,2413,2318,2364,2364,2364,2364,2364,2364,2364,2364,2365,0,0,0,0,0,0,699,699,699,699,699,699,699,699,702,751,699,753,752,0,0,749,703,699,751,699,0,0,0,0,2363,2364,2364,2364,2364,2365,0,0,0,0,
0,0,0,0,0,0,0,0,0,0,0,0,0,0,2413,2318,2364,2364,2364,2364,2364,2364,2364,2365,0,0,0,0,0,699,750,754,699,702,699,699,749,699,703,0,0,0,0,0,0,0,0,703,752,702,0,0,0,0,2363,2364,2364,2364,2364,2365,0,0,0,0,
0,0,0,0,0,0,0,0,0,0,0,0,0,0,0,2413,2414,2318,2364,2364,2364,2364,2364,2365,0,0,0,699,699,703,699,699,699,704,0,0,0,0,0,0,0,0,0,0,0,0,0,0,0,699,0,0,0,0,2413,2318,2364,2364,2364,2367,2315,0,0,0,
0,0,0,0,0,0,0,0,0,0,0,0,0,0,0,0,0,2363,2364,2364,2364,2317,2414,2415,0,0,699,752,699,702,0,0,0,0,0,0,0,0,0,0,0,0,0,0,0,0,0,0,0,0,0,0,0,0,0,2363,2364,2364,2364,2364,2365,0,0,0,
0,0,0,0,0,0,0,0,0,0,0,0,0,0,0,0,2313,2368,2364,2364,2317,2415,0,0,0,0,754,699,699,702,0,0,0,0,0,0,0,0,0,0,0,0,0,0,0,0,0,0,0,0,0,0,0,0,0,2363,2364,2364,2364,2364,2365,0,0,0,
0,0,0,0,0,0,0,0,0,0,0,0,0,0,0,2313,2368,2364,2317,2414,2415,0,0,0,0,699,699,754,750,0,0,0,0,0,0,0,0,0,0,0,0,0,0,0,0,0,0,0,0,0,0,0,0,0,2313,2368,2364,2364,2364,2364,2367,2314,2315,0,
0,0,0,0,0,0,0,0,0,0,0,0,0,0,2313,2368,2364,2364,2365,0,2313,2314,2314,2315,0,749,750,699,699,0,0,0,2496,2496,2496,2496,2496,2496,2496,1606,0,0,0,0,0,0,0,0,0,703,0,0,0,2313,2368,2364,2364,2364,2364,2364,2364,2364,2365,0,
0,0,0,0,0,0,0,0,0,0,0,0,0,2313,2368,2364,2364,2364,2367,2315,2363,2364,2364,2365,0,699,0,0,0,0,2496,2496,2496,1768,1769,1768,1769,1768,1769,2496,2496,2496,1606,0,0,0,0,0,0,0,0,0,2313,2368,2364,2364,2364,2364,2364,2364,2364,2317,2415,0,
0,0,0,0,0,0,0,0,0,0,0,0,0,2363,2364,2364,2364,2364,2364,2367,2368,2364,2317,2415,0,699,0,0,0,2496,2496,1768,1769,1818,1819,1818,1819,1818,1668,1768,1768,1769,2496,2496,0,0,0,0,0,0,0,2313,2368,2364,2364,2364,2364,2364,2364,2364,2317,2415,0,0,
0,0,0,0,0,0,0,0,0,0,0,0,2313,2368,2364,2364,2364,2364,2364,2364,2364,2364,2365,0,0,701,0,0,0,2496,1768,1769,1768,1769,1768,1769,1768,1769,1768,1818,1819,1668,2496,2496,0,0,0,0,0,0,0,2363,2364,2364,2364,2364,2364,2317,2414,2414,2415,0,0,0,
0,0,0,0,0,0,0,0,0,0,0,0,2363,2364,2364,2364,2364,2364,2364,2364,2364,2364,2365,0,0,699,0,0,0,2496,1818,1819,1818,1819,1818,1819,1818,1819,1818,1819,1768,1769,2496,2496,0,0,0,0,0,0,0,2413,2414,2414,2414,2414,2414,2415,0,0,0,0,2313,2314,
0,0,0,0,0,0,0,0,0,0,0,0,2363,2364,2364,2364,2364,2364,2364,2364,2364,2317,2415,0,0,704,0,0,0,2496,1668,1769,1768,1768,1769,1811,1812,1813,1768,1769,1818,1668,2496,0,0,0,702,0,0,0,0,0,0,0,0,0,0,0,0,2313,2314,2314,2368,2364,
0,0,0,0,0,0,0,0,0,0,0,0,2413,2414,2414,2318,2364,2364,2364,2364,2364,2365,0,0,0,699,0,0,0,2496,1818,1668,1819,1818,1819,1861,1862,1863,1768,1819,1768,1769,2496,0,0,0,0,0,0,0,0,0,0,0,2313,2314,2314,2314,2314,2368,2364,2364,2364,2364,
0,0,0,0,0,0,0,0,0,0,0,0,0,0,0,2363,2364,2364,2364,2364,2364,2367,2315,0,0,0,0,0,0,2496,2496,1619,1769,1768,1769,1862,1862,1862,1818,1768,1819,1769,1619,2496,0,0,0,0,0,0,0,0,2313,2314,2368,2364,2364,2364,2364,2364,2364,2364,2364,2364,
0,0,0,0,0,0,0,0,0,0,0,0,0,0,0,2413,2414,2414,2414,2318,2364,2364,2367,2315,0,0,2314,2314,2315,0,2496,1818,1819,1818,1819,1768,1769,1768,1769,1818,1818,1819,1769,2496,0,0,0,0,2313,2314,2314,2314,2368,2364,2364,2364,2364,2364,2364,2364,2364,2364,2364,2317,
0,0,0,0,0,0,0,0,0,0,0,0,0,0,0,0,0,0,0,2413,2318,2364,2364,2365,0,0,2364,2364,2365,0,2496,1668,1769,1768,1769,1818,1819,1818,1819,1819,1768,1769,1819,2496,0,2313,2314,0,2363,2364,2364,2364,2364,2364,2364,2364,2364,2364,2364,2364,2364,2364,2317,2415,
0,0,0,0,0,0,0,0,0,0,0,0,0,0,0,0,0,0,0,0,2413,2414,2414,2415,0,0,2364,2364,2365,0,2496,1818,1619,1668,1619,1819,1769,1768,1769,1818,1818,1819,2496,1606,2313,2368,2364,0,2363,2364,2364,2364,2364,2364,2364,2364,2364,2364,2364,2364,2364,2364,2365,0,
0,0,0,0,0,0,0,0,0,0,0,0,0,2313,2314,2314,2315,0,0,0,0,0,0,0,0,0,2318,2364,2365,0,2496,2496,2496,2496,1818,1668,1668,1818,1668,1618,2496,1606,1606,0,2363,2364,2364,0,2413,2414,2318,2364,2364,2364,2364,2364,2364,2364,2364,2317,2414,2414,2415,0,
0,0,0,0,0,0,0,0,0,0,0,0,0,2363,2364,2364,2367,2315,0,0,0,0,0,0,0,0,2413,2318,2365,0,0,0,2496,2496,2496,2496,2496,2496,2496,2496,2496,0,0,0,2363,2364,2317,2415,0,0,2413,2318,2364,2364,2364,2364,2364,2317,2414,2415,0,0,0,0,
0,0,0,0,0,0,0,0,0,0,0,0,2313,2368,2364,2364,2364,2367,2314,2314,2315,0,0,0,0,0,704,2413,2415,0,0,0,0,0,0,0,0,0,0,699,703,702,703,699,2413,2414,2415,700,0,0,0,2413,2414,2414,2414,2414,2414,2415,0,0,0,0,0,0,
0,0,0,0,0,0,0,0,0,0,0,0,2363,2364,2364,2364,2364,2364,2364,2364,2365,0,0,0,0,0,704,699,0,2313,2314,2314,2314,2314,2315,0,0,0,699,1618,1619,1619,1769,1618,1619,0,699,699,0,0,0,0,0,0,0,0,0,0,0,0,2313,2314,2314,2314,
0,0,0,0,0,0,0,0,0,0,0,0,2363,2364,2364,2364,2364,2364,2364,2364,2367,2314,2314,2315,0,0,704,699,0,2363,2364,2364,2364,2364,2365,0,0,0,700,1619,1618,1818,1619,1768,1769,699,0,701,0,0,0,0,0,0,0,0,0,2313,2314,2314,2368,2364,2364,2364,
0,0,0,0,0,0,0,0,0,0,0,0,2413,2414,2318,2364,2364,2364,2364,2364,2364,2364,2364,2367,2315,0,699,699,0,2363,2364,2364,2364,2364,2367,2314,2315,0,699,1768,1769,1819,1819,1818,1619,699,0,702,699,699,699,699,700,699,699,0,2313,2368,2364,2364,2364,2364,2364,2364,
0,0,0,0,0,0,0,0,0,0,0,0,0,2313,2368,2364,2364,2364,2364,2364,2364,2364,2364,2364,2365,699,699,0,0,2363,2364,2364,2364,2364,2364,2364,2365,0,699,1818,1619,1619,1618,1619,1619,699,699,699,699,750,753,754,699,701,703,0,2363,2364,2364,2364,2364,2364,2364,2364,
0,0,0,0,0,0,0,0,0,0,0,0,2313,2368,2364,2364,2364,2364,2364,2364,2364,2364,2364,2317,2415,753,704,0,0,2363,2364,2317,0,0,2318,2364,2365,0,0,1618,1619,1618,1668,1669,1619,1769,699,699,699,699,701,703,701,699,750,0,2363,2364,2364,2364,2364,2364,2364,2364,
0,0,0,0,0,0,0,0,0,0,0,0,2363,2364,2364,2364,2364,2364,2364,2364,2364,2364,2364,2365,0,699,0,0,0,2363,2364,2365,0,0,0,2414,2415,0,0,1668,1619,1619,1619,1768,1619,1769,750,0,0,703,750,699,699,699,1511,0,2363,2364,2364,2364,2364,2364,2364,2364,
0,0,0,0,0,0,0,0,0,0,0,2313,2368,2364,2364,2364,2364,2364,2364,2364,2364,2364,2317,2415,0,699,0,0,0,2413,2414,2415,0,0,0,699,0,699,0,0,0,0,1818,1818,1818,1819,752,749,0,699,0,0,0,0,702,0,2363,2364,2364,2317,2414,2318,2364,2364,
0,0,0,0,0,0,0,0,0,0,2313,2368,2364,2364,2364,2364,2364,2364,2364,2364,2364,2317,2415,0,0,0,0,0,0,0,0,750,702,0,0,699,752,750,699,0,0,0,699,699,699,700,702,0,0,0,0,0,0,0,699,0,2413,2414,2414,2415,0,2363,2364,2364,
0,0,0,0,0,0,0,0,0,0,2363,2364,2364,2364,2364,2364,2364,2364,2364,2364,2364,2365,0,0,0,0,0,0,0,0,0,0,699,0,0,0,0,0,0,0,0,0,0,0,0,699,699,0,0,0,0,0,0,0,702,0,0,0,0,0,0,2363,2364,2364,
0,0,0,0,0,0,0,0,0,0,2413,2414,2318,2364,2364,2364,2364,2364,2364,2364,2317,2415,0,0,0,0,0,0,0,0,0,0,754,0,0,2313,2314,2314,2315,0,0,0,0,0,0,0,0,0,0,0,0,0,0,699,701,0,0,0,0,0,0,2413,2318,2364,
0,0,0,0,0,0,0,0,0,0,0,0,2363,2364,2364,2364,2364,2364,2364,2364,2365,0,0,0,0,0,0,0,0,0,0,0,0,0,0,2363,2364,2364,2365,0,0,0,0,0,0,0,0,0,0,699,699,700,699,750,699,0,0,0,0,0,0,0,2363,2364,
0,0,0,0,0,0,0,0,0,0,0,0,2413,2318,2364,2364,2364,2364,2364,2364,2365,0,0,0,0,0,0,0,0,0,0,0,0,0,0,2413,2318,2364,2367,2315,0,0,0,0,0,0,0,750,699,699,699,0,0,0,0,0,0,2313,2314,2315,0,2313,2368,2364,
0,0,0,0,0,0,0,0,0,0,0,0,0,2363,2364,2364,2364,2364,2364,2364,2365,0,0,0,0,0,0,0,0,0,0,0,0,0,0,0,2363,2364,2364,2365,0,0,0,0,0,0,0,0,0,0,0,0,0,0,0,0,2313,2368,2364,2367,2314,2368,2364,2364,
0,0,0,0,0,0,0,0,0,0,0,0,0,2363,2364,2364,2364,2364,2364,2364,2367,2315,0,0,0,699,0,0,0,0,0,0,0,0,0,0,2413,2318,2364,2367,2314,2314,2314,2315,0,0,0,0,0,0,0,0,0,0,0,2313,2368,2364,2364,2364,2364,2364,2364,2364,
0,0,0,0,0,0,0,0,0,0,0,0,0,2413,2318,2364,2364,2364,2364,2364,2364,2367,2314,2315,0,0,699,0,0,0,0,0,0,0,752,0,0,2363,2364,2364,2364,2364,2364,2365,0,0,0,0,0,0,0,0,0,0,0,2363,2364,2364,2364,2364,2364,2364,2364,2364,
0,0,0,0,0,0,0,0,0,0,0,0,0,0,2363,2364,2364,2364,2364,2364,2364,2364,2364,2367,2314,2315,0,699,0,0,0,0,0,0,699,0,0,2363,2364,2364,2364,2364,2364,2367,2314,2314,2314,2315,0,0,0,0,0,0,2313,2368,2364,2364,2364,2364,2364,2364,2364,2364,
0,0,0,0,0,0,0,0,0,0,0,0,0,2313,2368,2364,2364,2364,2364,2364,2364,2364,2364,2364,2364,2365,0,699,699,0,2313,2314,2314,2314,2315,0,0,2413,2318,2364,2364,2364,2364,2364,2364,2364,2364,2367,2314,2314,2315,0,0,2313,2368,2364,2364,2364,2364,2364,2364,2364,2364,2364,
0,0,0,0,0,0,0,0,0,0,0,0,2313,2368,2364,2364,2364,2364,2364,2364,2364,2364,2364,2364,2364,2367,2315,0,0,0,2363,2364,2364,2364,2365,0,0,0,2363,2364,2364,2364,2364,2364,2364,2364,2364,2364,2364,2364,2367,2314,2314,2368,2364,2364,2364,2364,2364,2364,2364,2364,2364,2364,
0,0,0,0,0,0,0,0,0,0,0,0,2363,2364,2364,2364,2364,2364,2364,2364,2364,2364,2364,2364,2364,2364,2365,0,0,0,2363,2364,2364,2364,2365,0,0,0,2363,2364,2364,2364,2364,2364,2364,2364,2364,2364,2364,2364,2364,2364,2364,2364,2364,2364,2364,2364,2364,2364,2364,2364,2364,2364
</data>
 </layer>
 <layer id="15" name="Terrain" width="64" height="48">
  <data encoding="csv">
0,0,0,0,0,0,0,0,0,0,0,0,0,0,0,0,0,0,0,0,0,0,0,0,0,0,0,0,0,0,0,0,0,0,0,0,0,0,0,0,0,0,0,0,0,0,0,0,0,0,0,0,0,0,0,0,0,0,0,0,0,0,0,0,
0,0,0,0,0,0,0,0,0,0,0,0,0,0,0,0,0,0,0,0,0,0,0,0,0,0,0,0,0,0,0,0,0,0,0,0,0,0,0,0,0,0,0,0,0,0,0,0,0,0,0,0,0,0,0,0,0,0,0,0,0,0,0,0,
0,0,0,0,0,0,0,0,0,0,0,0,0,0,0,0,0,0,0,0,0,0,0,0,0,0,0,0,0,0,0,0,0,0,0,0,0,0,0,0,0,0,0,0,0,0,0,0,0,0,0,0,0,0,0,0,0,0,0,0,0,0,0,0,
0,0,0,0,0,0,0,0,0,0,0,0,0,0,0,0,0,0,0,0,0,0,0,0,0,0,0,0,0,0,0,0,0,0,0,0,0,0,0,0,0,0,0,0,0,0,0,0,0,0,0,0,0,0,0,0,0,0,0,0,0,0,0,0,
0,0,0,0,0,0,0,0,0,0,0,0,0,0,0,0,0,0,0,0,0,0,0,0,0,0,0,0,0,0,0,0,0,0,0,0,0,0,0,0,0,0,0,0,0,0,0,0,0,0,0,0,0,0,0,0,0,0,0,0,0,0,0,0,
0,0,0,0,0,0,0,0,0,0,0,0,0,0,0,0,0,0,0,0,0,0,0,0,0,0,0,0,0,0,0,0,0,0,0,0,0,0,0,0,0,0,0,0,0,0,0,0,0,0,0,0,0,0,0,0,0,0,0,0,0,0,0,0,
0,0,0,0,0,0,0,0,0,0,0,0,0,0,0,0,0,0,0,0,0,0,0,0,0,0,0,0,0,0,0,0,0,0,0,0,0,0,0,0,0,0,0,0,0,0,0,0,0,0,0,0,0,0,0,0,0,0,0,0,0,0,0,0,
0,0,0,0,0,0,0,0,0,0,0,0,0,0,0,0,0,0,0,0,0,0,0,0,0,0,0,0,0,0,0,0,0,0,0,0,0,0,0,0,0,0,0,0,0,0,0,0,0,0,0,0,0,0,0,0,0,0,0,0,0,0,0,0,
0,0,0,0,0,0,0,0,0,0,0,0,0,0,0,0,0,0,0,0,0,0,0,0,0,0,0,0,0,0,0,0,0,0,0,0,0,0,0,0,0,1461,0,0,0,0,0,1461,0,0,0,0,0,0,0,0,0,0,0,0,0,0,0,0,
0,0,0,0,0,0,0,0,0,0,0,0,0,0,0,0,0,0,0,0,0,0,0,0,0,0,0,0,0,0,0,0,0,0,0,1461,0,0,0,0,0,1511,0,0,0,0,0,1511,0,1461,0,0,0,0,0,0,0,0,0,0,0,0,0,0,
0,0,0,0,0,0,0,0,0,0,0,0,0,0,0,0,0,0,0,0,0,0,0,0,0,0,0,0,0,0,1461,0,0,0,0,1511,2307,2307,2307,2307,2307,2308,0,0,0,0,0,2306,2307,1511,0,0,0,0,0,0,0,0,0,0,0,0,0,0,
0,0,0,0,0,0,0,0,0,0,0,0,0,0,0,0,0,0,0,0,0,0,0,0,0,0,0,0,0,0,1511,0,0,2306,2307,2361,2357,2357,2357,2357,2546,2358,0,0,0,0,2306,2361,2546,2358,0,0,0,0,0,0,0,0,0,0,0,0,0,0,
0,0,0,0,0,0,0,0,0,0,0,0,0,0,0,0,0,0,0,0,0,0,0,0,0,0,0,0,0,1461,0,0,0,2356,2546,2357,2357,2547,2310,2407,2407,2408,0,0,0,0,2356,2357,2357,2358,0,0,0,0,0,0,0,0,0,0,0,0,0,0,
0,0,0,0,0,0,0,0,0,0,0,0,0,0,0,0,0,0,0,0,0,0,0,0,0,0,1461,0,0,1511,0,0,0,2406,2407,2407,2407,2407,2408,0,0,0,0,0,0,2306,2361,2357,2500,2358,0,0,0,0,0,0,0,0,0,0,0,0,0,0,
0,0,0,0,0,0,0,0,0,0,0,0,0,0,0,0,0,0,0,0,0,0,0,0,0,0,1461,1650,0,0,0,2306,2307,2307,2307,2307,2307,2307,2307,2308,0,0,0,0,0,2356,2357,2546,2357,2358,0,0,0,0,0,0,0,0,0,0,0,0,0,0,
0,0,0,0,0,0,0,0,0,0,0,0,0,0,0,0,0,0,0,0,0,0,0,0,0,1461,0,0,0,2306,2307,2361,0,0,0,0,2497,0,0,2360,2307,2307,0,0,0,2356,2498,2357,2357,2358,0,0,0,0,0,0,0,0,0,0,0,0,0,0,
0,0,0,0,0,0,0,0,0,0,0,0,0,0,0,0,0,0,0,0,0,0,0,0,0,1511,2308,0,2306,2361,2547,0,2498,2642,2643,2643,2643,2643,2644,2546,0,0,2360,2307,2308,2406,2311,2357,2310,2408,0,0,0,0,0,0,0,0,0,0,0,0,0,0,
0,0,0,0,0,0,0,0,0,0,0,0,0,0,0,0,0,0,0,0,0,0,0,0,0,2356,2358,0,2356,0,0,2642,2643,2646,0,0,0,0,2647,2643,2643,2644,0,0,2358,2306,2361,2497,2358,0,0,0,0,0,0,0,0,0,0,0,0,0,0,0,
0,0,0,0,0,0,0,0,0,0,0,0,0,0,0,0,0,0,0,0,0,0,0,0,0,2356,2360,2308,2356,0,2642,2646,0,0,0,0,0,0,0,0,0,2694,2503,2504,2358,2356,2357,2357,2358,0,0,0,0,0,0,0,0,0,0,0,0,0,0,0,
0,0,0,0,0,0,0,0,0,0,0,0,0,0,0,0,0,0,0,0,0,0,0,0,0,2356,2546,2358,2356,2498,2692,0,0,0,0,0,0,0,0,0,0,2694,2553,2554,2358,2356,2357,2310,2408,0,0,0,0,0,0,0,0,0,0,0,0,0,0,0,
0,0,0,0,0,0,0,0,0,0,0,0,0,0,0,0,0,0,0,0,0,0,0,0,0,2356,2357,2358,2356,0,2692,0,0,0,0,0,0,0,0,0,0,2694,0,2310,2408,2406,2407,2408,0,0,0,0,0,0,0,0,0,0,0,0,0,0,0,0,
0,0,0,0,0,0,0,0,0,0,0,0,0,0,0,0,0,0,0,0,0,0,0,0,0,2356,2357,2358,2356,0,2742,2696,0,0,0,0,0,0,0,0,0,2694,0,2360,2308,0,0,0,0,0,0,0,0,0,0,0,0,0,0,0,0,0,0,0,
0,0,0,0,0,0,0,0,0,0,0,0,0,0,0,0,0,0,0,0,0,0,0,0,0,0,2407,2408,2356,0,2546,2692,0,0,0,1911,1912,1913,0,0,0,2647,2644,0,2358,0,0,0,0,0,0,0,0,0,0,0,0,0,0,0,0,0,0,0,
0,0,0,0,0,0,0,0,0,0,0,0,0,0,0,0,0,0,0,0,0,0,0,0,0,0,0,0,2406,2311,0,2692,0,0,0,0,0,0,0,0,0,0,2694,2498,2358,0,0,0,0,0,0,0,0,0,0,0,0,0,0,0,0,0,0,0,
0,0,0,0,0,0,0,0,0,0,0,0,0,0,0,0,0,0,0,0,0,0,0,0,0,0,0,0,0,2356,2497,2692,0,0,0,0,0,0,0,0,0,2697,2744,0,2358,0,0,0,0,0,0,0,0,0,0,0,0,0,0,0,0,0,0,0,
0,0,0,0,0,0,0,0,0,0,0,0,0,0,0,0,0,0,0,0,0,0,0,0,0,0,0,0,0,2356,0,2742,2743,2743,2696,0,0,0,0,2697,2743,2744,0,2310,2408,0,0,0,0,0,0,0,0,0,0,0,0,0,0,0,0,0,0,0,
0,0,0,0,0,0,0,0,0,0,0,0,0,0,0,0,0,0,0,0,0,0,0,0,0,0,0,0,0,2356,0,0,0,0,2742,2743,2743,2743,2743,2744,0,2310,2407,2408,0,0,0,0,0,0,0,0,0,0,0,0,0,0,0,0,0,0,0,0,
0,0,0,0,0,0,0,0,0,0,0,0,0,0,0,0,0,0,0,0,0,0,0,0,0,0,0,0,0,2406,2407,2311,2546,0,0,0,2497,0,0,0,2547,2358,0,0,0,0,1599,0,0,0,0,0,0,0,0,0,0,0,0,0,0,0,0,0,
0,0,0,0,0,0,0,0,0,0,0,0,0,0,0,0,0,0,0,0,0,0,0,0,0,0,0,0,0,0,0,2406,2407,2407,2407,2407,2407,2407,2311,2496,2496,2360,2307,2307,2308,0,1649,1461,0,0,0,0,0,0,0,0,0,0,0,0,0,0,0,0,
0,0,0,0,0,0,0,0,0,0,0,0,0,0,0,0,0,0,0,0,0,0,0,0,0,0,0,0,0,0,0,0,0,0,0,0,0,0,2356,2642,2643,2643,2644,2496,2358,0,0,0,0,0,0,0,0,0,0,0,0,0,0,0,0,0,0,0,
0,0,0,0,0,0,0,0,0,0,0,0,0,0,0,0,0,0,0,0,0,0,0,0,0,0,1461,0,0,0,0,0,0,0,0,0,0,0,2356,2692,0,0,2647,2644,2360,2308,0,0,0,0,0,0,0,0,0,0,0,0,0,0,0,0,0,0,
0,0,0,0,0,0,0,0,0,0,0,0,0,0,0,0,0,0,0,0,0,0,0,0,0,0,1461,0,0,0,0,0,0,0,0,0,0,0,2356,2742,2696,0,0,2647,2644,2358,0,0,0,0,0,0,0,0,0,0,0,0,0,0,0,0,0,0,
0,0,0,0,0,0,0,0,0,0,0,0,0,0,0,0,0,0,0,0,0,0,0,0,0,0,0,0,0,0,0,0,0,0,0,0,0,0,2406,2311,2692,0,0,0,2694,2358,0,0,0,1470,0,0,0,0,0,0,0,0,0,0,0,0,0,0,
0,0,0,0,0,0,0,0,0,0,0,0,0,0,0,0,0,0,0,0,0,0,0,0,0,0,0,0,0,0,0,0,0,0,0,0,0,0,0,2356,2692,0,0,0,2694,2360,2308,0,0,1520,0,0,0,0,1461,0,0,0,0,0,0,0,0,0,
0,0,0,0,0,0,0,0,0,0,0,0,0,0,0,0,0,0,0,0,0,0,0,0,0,1461,0,0,0,0,0,0,0,0,0,0,0,0,0,2356,2742,2743,2696,2693,2694,2496,2360,2308,0,0,0,0,0,0,0,0,0,0,0,0,0,0,0,0,
0,0,0,0,0,0,0,0,0,0,0,0,0,0,0,0,0,0,0,0,0,0,0,0,0,1511,2307,2308,0,0,0,0,0,0,0,0,0,0,0,2406,2407,2311,2742,2743,2744,2496,2497,2360,2307,2361,2501,2502,2357,2547,2357,0,0,0,0,0,0,0,0,0,
0,0,0,0,0,0,0,0,0,0,0,0,0,0,0,0,0,0,0,0,0,0,0,0,0,2356,2547,2358,0,0,0,0,0,0,0,0,0,0,0,0,0,2406,2407,2311,2546,2357,2357,2357,2549,2550,2551,2552,2357,2357,2357,0,0,0,0,0,0,0,0,0,
0,0,0,0,0,0,0,0,0,0,0,0,0,0,0,0,0,0,0,0,0,0,0,0,0,2356,2357,2360,2307,2308,0,0,1461,0,0,0,0,0,0,0,0,0,0,2356,2357,2357,2357,2547,2357,2357,2546,2357,2357,2498,2357,0,0,0,0,0,0,0,0,0,
0,0,0,0,0,0,0,0,0,0,0,0,0,0,0,0,0,0,0,0,0,0,0,0,0,2356,2549,2550,2357,2360,2308,0,1520,0,0,0,0,0,0,0,0,0,0,2356,2498,2357,2147486145,2357,2357,2357,2357,2503,2504,2357,0,0,0,0,0,0,0,0,0,0,
0,0,0,0,0,0,0,0,0,0,0,0,0,0,0,0,0,0,0,0,0,0,0,0,0,2356,2498,2357,2357,2546,2360,2307,2308,1461,0,0,0,0,0,0,0,0,0,2406,2407,2407,2407,2311,2357,2546,2357,2553,2554,2357,0,0,0,0,0,0,0,0,0,0,
0,0,0,0,0,0,0,0,0,0,0,0,0,0,0,0,0,0,0,0,0,0,0,0,0,2356,2357,2357,2501,2502,2357,2547,2360,1511,0,0,0,0,0,0,0,0,0,0,0,0,0,2356,2357,2357,2357,0,0,0,0,0,0,0,0,0,0,0,0,0,
0,0,0,0,0,0,0,0,0,0,0,0,0,0,0,0,0,0,0,0,0,0,0,0,0,2406,2311,2546,2551,2552,2357,2357,2497,2358,0,0,0,0,0,0,0,0,0,0,0,0,0,0,0,0,0,0,0,0,0,0,0,0,0,0,0,0,0,0,
0,0,0,0,0,0,0,0,0,0,0,0,0,0,0,0,0,0,0,0,0,0,0,0,0,0,2356,2357,2357,2357,2310,2407,2407,2408,1461,0,0,0,0,0,0,0,0,0,0,0,0,0,0,0,0,0,0,0,0,0,0,0,0,0,0,0,0,0,
0,0,0,0,0,0,0,0,0,0,0,0,0,0,0,0,0,0,0,0,0,0,0,0,0,0,2356,2357,2546,2357,2358,0,0,0,1461,0,0,0,0,0,0,0,0,0,0,0,0,0,0,0,0,0,0,0,0,0,0,0,0,0,0,0,0,0,
0,0,0,0,0,0,0,0,0,0,0,0,0,0,0,0,0,0,0,0,0,0,0,0,0,0,0,2407,2407,2407,2408,0,0,0,0,0,0,0,0,0,0,0,0,0,0,0,0,0,0,0,0,0,0,0,0,0,0,0,0,0,0,0,0,0,
0,0,0,0,0,0,0,0,0,0,0,0,0,0,0,0,0,0,0,0,0,0,0,0,0,0,0,0,0,0,0,0,0,0,0,0,0,0,0,0,0,0,0,0,0,0,0,0,0,0,0,0,0,0,0,0,0,0,0,0,0,0,0,0,
0,0,0,0,0,0,0,0,0,0,0,0,0,0,0,0,0,0,0,0,0,0,0,0,0,0,0,0,0,0,0,0,0,0,0,0,0,0,0,0,0,0,0,0,0,0,0,0,0,0,0,0,0,0,0,0,0,0,0,0,0,0,0,0,
0,0,0,0,0,0,0,0,0,0,0,0,0,0,0,0,0,0,0,0,0,0,0,0,0,0,0,0,0,0,0,0,0,0,0,0,0,0,0,0,0,0,0,0,0,0,0,0,0,0,0,0,0,0,0,0,0,0,0,0,0,0,0,0
</data>
 </layer>
 <layer id="16" name="Elevation" width="64" height="48">
  <data encoding="csv">
0,0,0,0,0,0,0,0,0,0,0,0,0,0,0,0,0,0,0,0,0,0,0,0,0,0,0,0,0,0,0,0,0,0,0,0,0,0,0,0,0,0,0,0,0,0,0,0,0,0,0,0,0,0,0,0,0,0,0,0,0,0,0,0,
0,0,0,0,0,0,0,0,0,0,0,0,0,0,0,0,0,0,0,0,0,0,0,0,0,0,0,0,0,0,0,0,0,0,0,0,0,0,0,0,0,0,0,0,0,0,0,0,0,0,0,0,0,0,0,0,0,0,0,0,0,0,0,0,
0,0,0,0,0,0,0,0,0,0,0,0,0,0,0,0,0,0,0,0,0,0,0,0,0,0,0,0,0,0,0,0,0,0,0,0,0,0,0,0,0,0,0,0,0,0,0,0,0,0,0,0,0,0,0,0,0,0,0,0,0,0,0,0,
0,0,0,0,0,0,0,0,0,0,0,0,0,0,0,0,0,0,0,0,0,0,0,0,0,0,0,0,0,0,0,0,0,0,0,0,0,0,0,0,0,0,0,0,0,0,0,0,0,0,0,0,0,0,0,0,0,0,0,0,0,0,0,0,
0,0,0,0,0,0,0,0,0,0,0,0,0,0,0,0,0,0,0,0,0,0,0,0,0,0,0,0,0,0,0,0,0,0,0,0,0,0,0,0,0,0,0,0,0,0,0,0,0,0,0,0,0,0,0,0,0,0,0,0,0,0,0,0,
0,0,0,0,0,0,0,0,0,0,0,0,0,0,0,0,0,0,0,0,0,0,0,0,0,0,0,0,0,0,0,0,0,0,0,0,0,0,0,0,0,0,0,0,0,0,0,0,0,0,0,0,0,0,0,0,0,0,0,0,0,0,0,0,
0,0,0,0,0,0,0,0,0,0,0,0,0,0,0,0,0,0,0,0,0,0,0,0,0,0,0,0,0,0,0,0,0,0,0,0,0,0,0,0,0,1322,1420,1420,1420,1420,1420,1324,0,0,0,0,0,0,0,0,0,0,0,0,0,0,0,0,
0,0,0,0,0,0,0,0,0,0,0,0,0,0,0,0,0,0,0,0,0,0,0,0,0,0,0,0,0,0,0,0,0,0,0,1322,1420,1420,1420,1420,1420,1426,1470,1470,1470,1470,1470,1425,1420,1324,0,0,0,0,0,0,0,0,0,0,0,0,0,0,
0,0,0,0,0,0,0,0,0,0,0,0,0,0,0,0,0,0,0,0,0,0,0,0,0,0,0,0,0,0,1322,1420,1420,1420,1420,1426,1470,1470,1470,1470,1470,1462,1470,1470,1470,1470,1470,1460,1470,1374,0,0,0,0,0,0,0,0,0,0,0,0,0,0,
0,0,0,0,0,0,0,0,0,0,0,0,0,0,0,0,0,0,0,0,0,0,0,0,0,0,0,0,0,0,1372,1470,1470,1470,1470,1462,1461,1470,1470,1470,1470,1462,1511,1511,1511,1511,1511,1460,1470,1360,0,0,0,0,0,0,0,0,0,0,0,0,0,0,
0,0,0,0,0,0,0,0,0,0,0,0,0,0,0,0,0,0,0,0,0,0,0,0,0,0,0,0,0,1322,1412,1470,1470,1470,1470,1462,1511,1511,1511,1511,1511,1512,0,0,0,0,0,1510,1511,1360,0,0,0,0,0,0,0,0,0,0,0,0,0,0,
0,0,0,0,0,0,0,0,0,0,0,0,0,0,0,0,0,0,0,0,0,0,0,0,0,0,1322,1420,1420,1426,1462,1511,1511,1511,1511,1512,0,0,0,0,0,0,0,0,0,0,0,0,0,1360,0,0,0,0,0,0,0,0,0,0,0,0,0,0,
0,0,0,0,0,0,0,0,0,0,0,0,0,0,0,0,0,0,0,0,0,0,0,0,0,0,1372,1470,1470,1462,1462,0,0,0,0,0,0,0,0,0,0,0,0,0,0,0,0,0,0,1360,0,0,0,0,0,0,0,0,0,0,0,0,0,0,
0,0,0,0,0,0,0,0,0,0,0,0,0,0,0,0,0,0,0,0,0,0,0,0,0,1322,1412,1470,1470,1462,1512,0,0,0,0,0,0,0,0,0,0,0,0,0,0,0,0,0,0,1360,0,0,0,0,0,0,0,0,0,0,0,0,0,0,
0,0,0,0,0,0,0,0,0,0,0,0,0,0,0,0,0,0,0,0,0,0,0,0,0,1372,1462,1511,1511,1512,0,0,0,0,0,0,0,0,0,0,0,0,0,0,0,0,0,0,0,1360,743,0,0,0,0,0,0,0,0,0,0,0,0,0,
0,0,0,0,0,0,0,0,0,0,0,0,0,0,0,0,0,0,0,0,0,0,0,0,0,1362,1462,0,0,0,0,0,0,0,0,0,0,0,0,0,0,0,0,0,0,0,0,0,0,1524,743,0,0,0,0,0,0,0,0,0,0,0,0,0,
0,0,0,0,0,0,0,0,0,0,0,0,0,0,0,0,0,0,0,0,0,0,0,0,743,1362,1512,0,0,0,0,0,0,0,0,0,0,0,0,0,0,0,0,0,0,0,0,0,1360,743,0,0,0,0,0,0,0,0,0,0,0,0,0,0,
0,0,0,0,0,0,0,0,0,0,0,0,0,0,0,0,0,0,0,0,0,0,0,0,743,1362,0,0,0,0,0,0,0,0,0,0,0,0,0,0,0,0,0,0,0,0,0,0,1360,743,0,0,0,0,0,0,0,0,0,0,0,0,0,0,
0,0,0,0,0,0,0,0,0,0,0,0,0,0,0,0,0,0,0,0,0,0,0,0,743,1362,0,0,0,0,0,0,0,0,0,0,0,0,0,0,0,0,0,0,0,0,0,0,1524,743,0,0,0,0,0,0,0,0,0,0,0,0,0,0,
0,0,0,0,0,0,0,0,0,0,0,0,0,0,0,0,0,0,0,0,0,0,0,0,743,1362,0,0,0,0,0,0,0,0,0,0,0,0,0,0,0,0,0,0,0,0,0,1524,743,743,0,0,0,0,0,0,0,0,0,0,0,0,0,0,
0,0,0,0,0,0,0,0,0,0,0,0,0,0,0,0,0,0,0,0,0,0,0,0,743,1362,0,0,0,0,0,0,0,0,0,0,0,0,0,0,0,0,0,0,0,0,1360,743,743,0,0,0,0,0,0,0,0,0,0,0,0,0,0,0,
0,0,0,0,0,0,0,0,0,0,0,0,0,0,0,0,0,0,0,0,0,0,0,0,743,1522,0,0,0,0,0,0,0,0,0,0,0,0,0,0,0,0,0,0,0,0,1360,743,0,0,0,0,0,0,0,0,0,0,0,0,0,0,0,0,
0,0,0,0,0,0,0,0,0,0,0,0,0,0,0,0,0,0,0,0,0,0,0,0,0,0,1362,0,0,0,0,0,0,0,0,0,0,0,0,0,0,0,0,0,0,0,1360,743,0,0,0,0,0,0,0,0,0,0,0,0,0,0,0,0,
0,0,0,0,0,0,0,0,0,0,0,0,0,0,0,0,0,0,0,0,0,0,0,0,0,0,1362,0,0,0,0,0,0,0,0,0,0,0,0,0,0,0,0,0,0,0,1360,0,0,0,0,0,0,0,0,0,0,0,0,0,0,0,0,0,
0,0,0,0,0,0,0,0,0,0,0,0,0,0,0,0,0,0,0,0,0,0,0,0,0,0,1362,0,0,0,0,0,0,0,0,0,0,0,0,0,0,0,0,0,0,0,1360,0,0,0,0,0,0,0,0,0,0,0,0,0,0,0,0,0,
0,0,0,0,0,0,0,0,0,0,0,0,0,0,0,0,0,0,0,0,0,0,0,0,0,0,1362,0,0,0,0,0,0,0,0,0,0,0,0,0,0,0,0,0,0,0,1360,0,0,0,0,0,0,0,0,0,0,0,0,0,0,0,0,0,
0,0,0,0,0,0,0,0,0,0,0,0,0,0,0,0,0,0,0,0,0,0,0,0,0,0,1522,0,0,0,0,0,0,0,0,0,0,0,0,0,0,0,0,0,0,0,1410,0,0,0,0,0,0,0,0,0,0,0,0,0,0,0,0,0,
0,0,0,0,0,0,0,0,0,0,0,0,0,0,0,0,0,0,0,0,0,0,0,0,0,0,743,1362,0,0,0,0,0,0,0,0,0,0,0,0,0,0,0,0,0,0,1460,1374,0,0,0,0,0,0,0,0,0,0,0,0,0,0,0,0,
0,0,0,0,0,0,0,0,0,0,0,0,0,0,0,0,0,0,0,0,0,0,0,0,0,743,1322,1412,0,0,0,0,0,0,0,0,0,0,0,0,0,0,0,0,0,0,1460,1360,0,0,0,0,0,0,0,0,0,0,0,0,0,0,0,0,
0,0,0,0,0,0,0,0,0,0,0,0,0,0,0,0,0,0,0,0,0,0,0,0,0,743,1372,1462,0,0,0,0,0,0,0,0,0,0,0,0,0,0,0,0,0,0,1510,1360,0,0,0,0,0,0,0,0,0,0,0,0,0,0,0,0,
0,0,0,0,0,0,0,0,0,0,0,0,0,0,0,0,0,0,0,0,0,0,0,0,0,743,1362,1462,0,0,0,0,0,0,0,0,0,0,0,0,0,0,0,0,0,0,0,1410,0,1324,0,0,0,0,0,0,0,0,0,0,0,0,0,0,
0,0,0,0,0,0,0,0,0,0,0,0,0,0,0,0,0,0,0,0,0,0,0,0,0,743,1362,1512,0,0,0,0,0,0,0,0,0,0,0,0,0,0,0,0,0,0,0,1460,1470,1425,1411,0,1411,1411,1324,0,0,0,0,0,0,0,0,0,
0,0,0,0,0,0,0,0,0,0,0,0,0,0,0,0,0,0,0,0,0,0,0,0,0,1322,1412,0,0,0,0,0,0,0,0,0,0,0,0,0,0,0,0,0,0,0,0,1460,1470,1460,1461,1461,1461,1461,1374,0,0,0,0,0,0,0,0,0,
0,0,0,0,0,0,0,0,0,0,0,0,0,0,0,0,0,0,0,0,0,0,0,0,0,1372,1462,0,0,0,0,1360,0,0,743,1362,0,0,0,0,0,0,0,0,0,0,0,1510,1511,1460,1461,1461,1461,1461,1360,0,0,0,0,0,0,0,0,0,
0,0,0,0,0,0,0,0,0,0,0,0,0,0,0,0,0,0,0,0,0,0,0,0,743,1362,1462,0,0,0,0,1360,0,0,0,1362,0,0,0,0,0,0,0,0,0,0,0,0,0,1510,1511,1511,1511,1511,1360,0,0,0,0,0,0,0,0,0,
0,0,0,0,0,0,0,0,0,0,0,0,0,0,0,0,0,0,0,0,0,0,0,0,743,1362,1512,0,0,0,0,1410,1324,0,743,1362,0,0,0,0,0,0,0,0,0,0,0,0,0,0,0,0,0,0,1360,0,0,0,0,0,0,0,0,0,
0,0,0,0,0,0,0,0,0,0,0,0,0,0,0,0,0,0,0,0,0,0,0,0,743,1362,0,0,0,0,0,1460,1374,0,0,1522,0,0,0,0,0,0,0,0,0,0,0,0,0,0,0,0,0,0,1360,0,0,0,0,0,0,0,0,0,
0,0,0,0,0,0,0,0,0,0,0,0,0,0,0,0,0,0,0,0,0,0,0,0,743,1362,0,0,0,0,0,1460,1410,0,0,0,743,0,0,1522,0,0,0,0,0,0,0,0,0,0,0,0,0,0,1360,0,0,743,0,0,0,0,0,0,
0,0,0,0,0,0,0,0,0,0,0,0,0,0,0,0,0,0,0,0,0,0,0,0,743,1362,0,0,0,0,0,1510,1460,1374,0,0,0,0,0,0,0,1362,0,0,0,0,0,0,0,0,0,0,0,0,1524,0,0,743,0,0,0,0,0,0,
0,0,0,0,0,0,0,0,0,0,0,0,0,0,0,0,0,0,0,0,0,0,0,0,0,1362,0,0,0,0,0,0,1460,1360,743,0,0,0,0,0,0,1362,0,0,0,0,0,0,0,0,0,0,0,1524,743,0,0,743,0,0,0,0,0,0,
0,0,0,0,0,0,0,0,0,0,0,0,0,0,0,0,0,0,0,0,0,0,0,0,743,1522,0,0,0,0,0,0,1510,1410,1324,0,0,0,0,0,0,1522,0,0,0,0,0,0,0,0,1524,743,0,0,0,0,0,0,0,0,0,0,0,0,
0,0,0,0,0,0,0,0,0,0,0,0,0,0,0,0,0,0,0,0,0,0,0,0,0,743,1362,0,0,0,0,0,0,1460,1374,0,0,0,0,0,0,0,0,0,0,0,0,0,0,0,743,743,0,743,0,0,743,0,0,0,0,0,0,0,
0,0,0,0,0,0,0,0,0,0,0,0,0,0,0,0,0,0,0,0,0,0,0,0,0,743,1362,0,0,0,0,0,0,1460,1360,0,0,0,0,0,0,0,0,0,0,0,0,0,0,0,0,0,0,0,0,0,0,0,0,0,0,0,0,0,
0,0,0,0,0,0,0,0,0,0,0,0,0,0,0,0,0,0,0,0,0,0,0,0,0,743,0,0,0,0,0,0,0,1510,1360,743,743,0,0,0,0,0,0,0,0,0,0,0,0,0,0,0,0,0,0,0,0,0,0,0,0,0,0,0,
0,0,0,0,0,0,0,0,0,0,0,0,0,0,0,0,0,0,0,0,0,0,0,0,0,0,0,0,0,0,0,0,0,0,1360,0,743,0,0,0,0,0,0,0,0,0,0,0,0,0,0,0,0,0,0,0,0,0,0,0,0,0,0,0,
0,0,0,0,0,0,0,0,0,0,0,0,0,0,0,0,0,0,0,0,0,0,0,0,0,0,743,0,0,0,1362,0,0,0,1360,0,743,0,0,0,0,0,0,0,0,0,0,0,0,0,0,0,0,0,0,0,0,0,0,0,0,0,0,0,
0,0,0,0,0,0,0,0,0,0,0,0,0,0,0,0,0,0,0,0,0,0,0,0,0,0,0,0,0,0,1362,0,0,0,1360,0,0,0,0,0,0,0,0,0,0,0,0,0,0,0,0,0,0,0,0,0,0,0,0,0,0,0,0,0,
0,0,0,0,0,0,0,0,0,0,0,0,0,0,0,0,0,0,0,0,0,0,0,0,0,0,0,0,0,743,1362,0,0,0,1360,0,0,0,0,0,0,0,0,0,0,0,0,0,0,0,0,0,0,0,0,0,0,0,0,0,0,0,0,0
</data>
 </layer>
 <layer id="22" name="Medium" width="64" height="48">
  <data encoding="csv">
0,0,0,0,0,0,0,0,0,0,0,0,0,0,0,0,0,0,0,0,0,0,0,0,0,0,0,0,0,0,0,0,0,0,0,0,0,0,0,0,0,0,0,0,0,0,0,0,0,0,0,0,0,0,0,0,0,0,0,0,0,0,0,0,
0,0,0,0,0,0,0,0,0,0,0,0,0,0,0,0,0,0,0,0,0,0,0,0,0,0,0,0,0,0,0,0,0,0,0,0,0,0,0,0,0,0,0,0,0,0,0,0,0,0,0,0,0,0,0,0,0,0,0,0,0,0,0,0,
0,0,0,0,0,0,0,0,0,0,0,0,0,0,0,0,0,0,0,0,0,0,0,0,0,0,0,0,0,0,0,0,0,0,0,0,0,0,0,0,0,0,0,0,0,0,0,0,0,0,0,0,0,0,0,0,0,0,0,0,0,0,0,0,
0,0,0,0,0,0,0,0,0,0,0,0,0,0,0,0,0,0,0,0,0,0,0,0,0,0,0,0,0,0,0,0,0,0,0,0,0,0,0,0,0,0,0,0,0,0,0,0,0,0,0,0,0,0,0,0,0,0,0,0,0,0,0,0,
0,0,0,0,0,0,0,0,0,0,0,0,0,0,0,0,0,0,0,0,0,0,0,0,0,0,0,0,0,0,0,0,0,0,0,0,0,0,0,0,0,0,0,0,0,0,0,0,0,0,0,0,0,0,0,0,0,0,0,0,0,0,0,0,
0,0,0,0,0,0,0,0,0,0,0,0,0,0,0,0,0,0,0,0,0,0,0,0,0,0,0,0,0,0,0,0,0,0,0,0,0,0,0,0,0,0,0,0,0,0,0,0,0,0,0,0,0,0,0,0,0,0,0,0,0,0,0,0,
0,0,0,0,0,0,0,0,0,0,0,0,0,0,0,0,0,0,0,0,0,0,0,0,0,0,0,0,0,0,0,0,0,0,0,0,0,0,0,0,0,0,0,0,0,0,0,0,0,0,0,0,0,0,0,0,0,0,0,0,0,0,0,0,
0,0,0,0,0,0,0,0,0,0,0,0,0,0,0,0,0,0,0,0,0,0,0,0,0,0,0,0,0,0,0,0,0,0,0,0,0,0,0,0,0,0,0,0,0,0,0,0,0,0,0,0,0,0,0,0,0,0,0,0,0,0,0,0,
0,0,0,0,0,0,0,0,0,0,0,0,0,0,0,0,0,0,0,0,0,0,0,0,0,0,0,0,0,0,0,0,0,0,0,0,0,0,0,0,0,0,0,0,0,0,0,0,0,0,0,0,0,0,0,0,0,0,0,0,0,0,0,0,
0,0,0,0,0,0,0,0,0,0,0,0,0,0,0,0,0,0,0,0,0,0,0,0,0,0,0,0,0,0,0,0,0,0,0,0,0,0,0,0,0,0,0,0,1495,0,0,0,0,0,0,0,0,0,0,0,0,0,0,0,0,0,0,0,
0,0,0,0,0,0,0,0,0,0,0,0,0,0,0,0,0,0,0,0,0,0,0,0,0,0,0,0,0,0,0,0,0,0,0,0,0,0,0,0,0,0,0,0,0,0,0,0,0,0,0,0,0,0,0,0,0,0,0,0,0,0,0,0,
0,0,0,0,0,0,0,0,0,0,0,0,0,0,0,0,0,0,0,0,0,0,0,0,0,0,0,0,0,0,0,0,0,0,0,0,0,0,0,0,0,0,0,0,0,0,0,0,0,0,0,0,0,0,0,0,0,0,0,0,0,0,0,0,
0,0,0,0,0,0,0,0,0,0,0,0,0,0,0,0,0,0,0,0,0,0,0,0,0,0,0,0,0,0,0,0,0,0,0,0,0,0,0,0,0,0,0,0,0,0,0,0,0,0,0,0,0,0,0,0,0,0,0,0,0,0,0,0,
0,0,0,0,0,0,0,0,0,0,0,0,0,0,0,0,0,0,0,0,0,0,0,0,0,0,0,0,0,0,0,0,0,0,0,0,0,0,0,0,0,0,0,0,0,0,0,0,0,0,0,0,0,0,0,0,0,0,0,0,0,0,0,0,
0,0,0,0,0,0,0,0,0,0,0,0,0,0,0,0,0,0,0,0,0,0,0,0,0,0,0,0,0,0,0,0,0,0,0,0,0,0,0,0,0,0,0,0,0,0,0,0,0,0,0,0,0,0,0,0,0,0,0,0,0,0,0,0,
0,0,0,0,0,0,0,0,0,0,0,0,0,0,0,0,0,0,0,0,0,0,0,0,0,0,0,0,0,0,0,0,0,0,0,0,0,0,0,0,0,0,0,0,0,0,0,0,0,0,0,0,0,0,0,0,0,0,0,0,0,0,0,0,
0,0,0,0,0,0,0,0,0,0,0,0,0,0,0,0,0,0,0,0,0,0,0,0,0,0,0,0,0,0,0,0,0,0,0,0,0,0,0,0,0,0,0,0,0,0,0,0,0,0,0,0,0,0,0,0,0,0,0,0,0,0,0,0,
0,0,0,0,0,0,0,0,0,0,0,0,0,0,0,0,0,0,0,0,0,0,0,0,0,0,0,0,0,0,0,0,0,0,0,0,0,0,0,0,0,0,0,0,0,0,0,0,0,0,0,0,0,0,0,0,0,0,0,0,0,0,0,0,
0,0,0,0,0,0,0,0,0,0,0,0,0,0,0,0,0,0,0,0,0,0,0,0,0,0,0,0,0,0,0,0,0,0,0,0,0,0,0,0,0,0,0,0,0,0,0,0,0,0,0,0,0,0,0,0,0,0,0,0,0,0,0,0,
0,0,0,0,0,0,0,0,0,0,0,0,0,0,0,0,0,0,0,0,0,0,0,0,0,0,0,0,0,0,0,0,0,0,0,0,0,0,0,0,0,0,0,0,0,0,0,0,0,0,0,0,0,0,0,0,0,0,0,0,0,0,0,0,
0,0,0,0,0,0,0,0,0,0,0,0,0,0,0,0,0,0,0,0,0,0,0,0,0,0,0,0,0,0,0,0,0,0,0,0,0,0,0,0,0,0,0,0,0,0,0,0,0,0,0,0,0,0,0,0,0,0,0,0,0,0,0,0,
0,0,0,0,0,0,0,0,0,0,0,0,0,0,0,0,0,0,0,0,0,0,0,0,0,0,0,0,0,0,0,0,0,0,0,0,0,0,0,0,0,0,0,0,0,0,0,0,0,0,0,0,0,0,0,0,0,0,0,0,0,0,0,0,
0,0,0,0,0,0,0,0,0,0,0,0,0,0,0,0,0,0,0,0,0,0,0,0,0,0,0,0,0,0,0,0,0,0,0,1915,1916,1917,0,0,0,0,0,0,0,0,0,0,0,0,0,0,0,0,0,0,0,0,0,0,0,0,0,0,
0,0,0,0,0,0,0,0,0,0,0,0,0,0,0,0,0,0,0,0,0,0,0,0,0,0,0,0,0,0,0,0,0,0,0,1768,1769,1819,0,0,0,0,0,0,0,0,0,0,0,0,0,0,0,0,0,0,0,0,0,0,0,0,0,0,
0,0,0,0,0,0,0,0,0,0,0,0,0,0,0,0,0,0,0,0,0,0,0,0,0,0,0,0,0,0,0,0,0,0,0,0,0,0,0,0,0,0,0,0,0,0,0,0,0,0,0,0,0,0,0,0,0,0,0,0,0,0,0,0,
0,0,0,0,0,0,0,0,0,0,0,0,0,0,0,0,0,0,0,0,0,0,0,0,0,0,0,0,0,0,0,0,0,0,0,0,0,0,0,0,0,0,0,0,0,0,0,0,0,0,0,0,0,0,0,0,0,0,0,0,0,0,0,0,
0,0,0,0,0,0,0,0,0,0,0,0,0,0,0,0,0,0,0,0,0,0,0,0,0,0,0,0,0,0,0,0,0,0,0,0,0,0,0,0,0,0,0,0,0,0,0,0,0,0,0,0,0,0,0,0,0,0,0,0,0,0,0,0,
0,0,0,0,0,0,0,0,0,0,0,0,0,0,0,0,0,0,0,0,0,0,0,0,0,0,0,0,0,0,0,0,0,0,0,0,0,0,0,0,0,0,0,0,0,0,0,0,0,0,0,0,0,0,0,0,0,0,0,0,0,0,0,0,
0,0,0,0,0,0,0,0,0,0,0,0,0,0,0,0,0,0,0,0,0,0,0,0,0,0,0,0,0,0,0,0,0,0,0,0,0,0,0,0,0,0,0,0,0,0,0,0,0,0,0,0,0,0,0,0,0,0,0,0,0,0,0,0,
0,0,0,0,0,0,0,0,0,0,0,0,0,0,0,0,0,0,0,0,0,0,0,0,0,0,0,0,0,0,0,0,0,0,0,0,0,0,0,0,0,0,0,0,0,0,0,0,0,0,0,0,0,0,0,0,0,0,0,0,0,0,0,0,
0,0,0,0,0,0,0,0,0,0,0,0,0,0,0,0,0,0,0,0,0,0,0,0,0,0,0,0,0,0,0,0,0,0,0,0,0,0,0,0,0,0,0,0,0,0,0,0,0,0,0,0,0,0,0,0,0,0,0,0,0,0,0,0,
0,0,0,0,0,0,0,0,0,0,0,0,0,0,0,0,0,0,0,0,0,0,0,0,0,0,0,0,0,0,0,0,0,0,0,0,0,0,0,0,0,0,0,0,0,0,0,0,0,0,0,0,0,0,0,0,0,0,0,0,0,0,0,0,
0,0,0,0,0,0,0,0,0,0,0,0,0,0,0,0,0,0,0,0,0,0,0,0,0,0,0,0,0,0,0,0,0,0,0,0,0,0,0,0,0,0,0,0,0,0,0,0,0,0,0,0,0,0,0,0,0,0,0,0,0,0,0,0,
0,0,0,0,0,0,0,0,0,0,0,0,0,0,0,0,0,0,0,0,0,0,0,0,0,0,0,0,0,0,0,0,0,0,0,0,0,0,0,0,0,0,0,0,0,0,0,0,0,0,0,0,0,0,0,0,0,0,0,0,0,0,0,0,
0,0,0,0,0,0,0,0,0,0,0,0,0,0,0,0,0,0,0,0,0,0,0,0,0,0,0,0,0,0,0,0,0,0,0,0,0,0,0,0,0,0,0,0,0,0,0,0,0,0,0,1495,0,0,0,0,0,0,0,0,0,0,0,0,
0,0,0,0,0,0,0,0,0,0,0,0,0,0,0,0,0,0,0,0,0,0,0,0,0,0,0,0,0,0,0,0,0,0,0,0,0,0,0,0,0,0,0,0,0,0,0,0,0,0,0,0,0,0,0,0,0,0,0,0,0,0,0,0,
0,0,0,0,0,0,0,0,0,0,0,0,0,0,0,0,0,0,0,0,0,0,0,0,0,0,0,0,0,0,0,0,0,0,0,0,0,0,0,0,0,0,0,0,0,0,0,0,0,0,0,0,0,0,0,0,0,0,0,0,0,0,0,0,
0,0,0,0,0,0,0,0,0,0,0,0,0,0,0,0,0,0,0,0,0,0,0,0,0,0,0,0,0,0,0,0,0,0,0,0,0,0,0,0,0,0,0,0,0,0,0,0,0,0,0,0,0,0,0,0,0,0,0,0,0,0,0,0,
0,0,0,0,0,0,0,0,0,0,0,0,0,0,0,0,0,0,0,0,0,0,0,0,0,0,0,0,0,0,0,0,0,0,0,0,0,0,0,0,0,0,0,0,0,0,0,0,0,0,0,0,0,0,0,0,0,0,0,0,0,0,0,0,
0,0,0,0,0,0,0,0,0,0,0,0,0,0,0,0,0,0,0,0,0,0,0,0,0,0,0,0,0,0,0,0,0,0,0,0,0,0,0,0,0,0,0,0,0,0,0,0,0,0,0,0,0,0,0,0,0,0,0,0,0,0,0,0,
0,0,0,0,0,0,0,0,0,0,0,0,0,0,0,0,0,0,0,0,0,0,0,0,0,0,0,0,0,0,0,0,0,0,0,0,0,0,0,0,0,0,0,0,0,0,0,0,0,0,0,0,0,0,0,0,0,0,0,0,0,0,0,0,
0,0,0,0,0,0,0,0,0,0,0,0,0,0,0,0,0,0,0,0,0,0,0,0,0,0,0,0,0,0,0,0,0,0,0,0,0,0,0,0,0,0,0,0,0,0,0,0,0,0,0,0,0,0,0,0,0,0,0,0,0,0,0,0,
0,0,0,0,0,0,0,0,0,0,0,0,0,0,0,0,0,0,0,0,0,0,0,0,0,0,0,0,0,0,0,0,0,0,0,0,0,0,0,0,0,0,0,0,0,0,0,0,0,0,0,0,0,0,0,0,0,0,0,0,0,0,0,0,
0,0,0,0,0,0,0,0,0,0,0,0,0,0,0,0,0,0,0,0,0,0,0,0,0,0,0,0,0,0,0,0,0,0,0,0,0,0,0,0,0,0,0,0,0,0,0,0,0,0,0,0,0,0,0,0,0,0,0,0,0,0,0,0,
0,0,0,0,0,0,0,0,0,0,0,0,0,0,0,0,0,0,0,0,0,0,0,0,0,0,0,0,0,0,0,0,0,0,0,0,0,0,0,0,0,0,0,0,0,0,0,0,0,0,0,0,0,0,0,0,0,0,0,0,0,0,0,0,
0,0,0,0,0,0,0,0,0,0,0,0,0,0,0,0,0,0,0,0,0,0,0,0,0,0,0,0,0,0,0,0,0,0,0,0,0,0,0,0,0,0,0,0,0,0,0,0,0,0,0,0,0,0,0,0,0,0,0,0,0,0,0,0,
0,0,0,0,0,0,0,0,0,0,0,0,0,0,0,0,0,0,0,0,0,0,0,0,0,0,0,0,0,0,0,0,0,0,0,0,0,0,0,0,0,0,0,0,0,0,0,0,0,0,0,0,0,0,0,0,0,0,0,0,0,0,0,0,
0,0,0,0,0,0,0,0,0,0,0,0,0,0,0,0,0,0,0,0,0,0,0,0,0,0,0,0,0,0,0,0,0,0,0,0,0,0,0,0,0,0,0,0,0,0,0,0,0,0,0,0,0,0,0,0,0,0,0,0,0,0,0,0
</data>
 </layer>
 <layer id="2" name="Objects" width="64" height="48">
  <data encoding="csv">
0,0,0,0,0,0,0,0,0,0,0,0,0,0,0,0,0,0,0,0,0,0,0,0,0,0,0,0,0,0,0,0,0,0,0,0,0,0,0,0,0,0,0,0,0,0,0,0,0,0,0,0,0,0,0,0,0,0,0,0,0,0,0,0,
0,0,0,0,0,0,0,0,0,0,0,0,0,0,0,0,0,0,0,0,0,0,0,0,0,0,0,0,0,0,0,0,0,0,0,0,0,0,0,0,0,0,0,0,0,0,0,0,0,0,0,0,0,0,0,0,0,0,0,0,0,0,0,0,
0,0,0,0,0,0,0,0,0,0,0,0,0,0,0,0,0,0,0,0,0,0,0,0,0,0,0,0,0,0,0,0,0,0,0,0,0,0,0,0,0,0,0,0,0,0,0,0,0,0,0,0,0,0,0,0,0,0,0,0,0,0,0,0,
0,0,0,0,0,0,0,0,0,0,0,0,0,0,0,0,0,0,0,0,0,0,0,0,0,0,0,0,0,0,0,0,0,0,0,0,0,0,0,0,0,0,0,0,0,0,0,0,0,0,0,0,0,0,0,0,0,0,0,0,0,0,0,0,
0,0,0,0,0,0,0,0,0,0,0,0,0,0,0,0,0,0,0,0,0,0,0,0,0,0,0,0,0,0,0,0,0,0,0,0,0,0,0,0,0,0,0,0,0,0,0,0,0,0,0,0,0,0,0,0,0,0,0,0,0,0,0,0,
0,0,0,0,0,0,0,0,0,0,0,0,0,0,0,0,0,0,0,0,0,0,0,0,0,0,0,0,0,0,0,0,0,0,0,0,0,0,0,0,0,0,0,0,0,0,0,0,0,0,0,0,0,0,0,0,0,0,0,0,0,0,0,0,
0,0,0,0,0,0,0,0,0,0,0,0,0,0,0,0,0,0,0,0,0,0,0,0,0,0,0,0,0,0,0,0,0,0,0,0,0,0,0,0,0,0,0,0,0,0,0,0,0,0,0,0,0,0,0,0,0,0,0,0,0,0,0,0,
0,0,0,0,0,0,0,0,0,0,0,0,0,0,0,0,0,0,0,0,0,0,0,0,0,0,0,0,0,0,0,0,0,0,0,0,0,0,0,0,0,0,0,0,0,0,0,0,0,0,0,0,0,0,0,0,0,0,0,0,0,0,0,0,
0,0,0,0,0,0,0,0,0,0,0,0,0,0,0,0,0,0,0,0,0,0,0,0,0,0,0,0,0,0,0,0,0,0,0,0,0,0,0,0,0,0,0,0,0,0,0,0,0,0,0,0,0,0,0,0,0,0,0,0,0,0,0,0,
0,0,0,0,0,0,0,0,0,0,0,0,0,0,0,0,0,0,0,0,0,0,0,0,0,0,0,0,0,0,0,0,0,0,0,0,0,0,0,0,0,0,0,0,0,0,0,0,0,0,0,0,0,0,0,0,0,0,0,0,0,0,0,0,
0,0,0,0,0,0,0,0,0,0,0,0,0,0,0,0,0,0,0,0,0,0,0,0,0,0,0,0,0,0,0,0,0,0,0,0,0,0,0,0,0,0,0,0,0,0,0,0,0,0,0,0,0,0,0,0,0,0,0,0,0,0,0,0,
0,0,0,0,0,0,0,0,0,0,0,0,0,0,0,0,0,0,0,0,0,0,0,0,0,0,0,0,0,0,0,0,0,0,0,0,0,0,0,0,0,0,0,0,0,0,0,0,0,0,0,0,0,0,0,0,0,0,0,0,0,0,0,0,
0,0,0,0,0,0,0,0,0,0,0,0,0,0,0,0,0,0,0,0,0,0,0,0,0,0,0,0,0,0,0,0,0,0,0,0,0,0,0,0,0,0,0,0,0,0,0,0,0,0,0,0,0,0,0,0,0,0,0,0,0,0,0,0,
0,0,0,0,0,0,0,0,0,0,0,0,0,0,0,0,0,0,0,0,0,0,0,0,0,0,0,0,0,0,0,0,0,0,0,0,0,0,0,0,0,0,0,0,0,0,0,0,0,0,0,0,0,0,0,0,0,0,0,0,0,0,0,0,
0,0,0,0,0,0,0,0,0,0,0,0,0,0,0,0,0,0,0,0,0,0,0,0,0,0,0,0,0,0,0,0,0,0,0,0,0,0,0,0,0,0,0,0,0,0,0,0,0,0,0,0,0,0,0,0,0,0,0,0,0,0,0,0,
0,0,0,0,0,0,0,0,0,0,0,0,0,0,0,0,0,0,0,0,0,0,0,0,0,0,0,0,0,0,0,0,0,0,0,0,0,0,0,0,0,0,0,0,0,0,0,0,0,0,0,0,0,0,0,0,0,0,0,0,0,0,0,0,
0,0,0,0,0,0,0,0,0,0,0,0,0,0,0,0,0,0,0,0,0,0,0,0,0,0,0,0,0,0,0,0,0,0,0,0,0,0,0,0,0,0,0,0,0,0,0,0,0,0,0,0,0,0,0,0,0,0,0,0,0,0,0,0,
0,0,0,0,0,0,0,0,0,0,0,0,0,0,0,0,0,0,0,0,0,0,0,0,0,0,0,0,0,0,0,0,0,0,0,0,0,0,0,0,0,0,0,0,0,0,0,0,0,0,0,0,0,0,0,0,0,0,0,0,0,0,0,0,
0,0,0,0,0,0,0,0,0,0,0,0,0,0,0,0,0,0,0,0,0,0,0,0,0,0,0,0,0,0,0,0,0,0,0,0,0,0,0,0,0,0,0,0,0,0,0,0,0,0,0,0,0,0,0,0,0,0,0,0,0,0,0,0,
0,0,0,0,0,0,0,0,0,0,0,0,0,0,0,0,0,0,0,0,0,0,0,0,0,0,0,0,0,0,0,0,0,0,0,0,0,0,0,0,0,0,0,0,0,0,0,0,0,0,0,0,0,0,0,0,0,0,0,0,0,0,0,0,
0,0,0,0,0,0,0,0,0,0,0,0,0,0,0,0,0,0,0,0,0,0,0,0,0,0,0,0,0,0,0,0,0,0,0,0,0,0,0,0,0,0,0,0,0,0,0,0,0,0,0,0,0,0,0,0,0,0,0,0,0,0,0,0,
0,0,0,0,0,0,0,0,0,0,0,0,0,0,0,0,0,0,0,0,0,0,0,0,0,0,0,0,0,0,0,0,0,0,0,0,0,0,0,0,0,0,0,0,0,0,0,0,0,0,0,0,0,0,0,0,0,0,0,0,0,0,0,0,
0,0,0,0,0,0,0,0,0,0,0,0,0,0,0,0,0,0,0,0,0,0,0,0,0,0,0,0,0,0,0,0,0,0,0,0,0,0,0,0,0,0,0,0,0,0,0,0,0,0,0,0,0,0,0,0,0,0,0,0,0,0,0,0,
0,0,0,0,0,0,0,0,0,0,0,0,0,0,0,0,0,0,0,0,0,0,0,0,0,0,0,0,0,0,0,0,0,0,0,0,0,0,0,0,0,0,0,0,0,0,0,0,0,0,0,0,0,0,0,0,0,0,0,0,0,0,0,0,
0,0,0,0,0,0,0,0,0,0,0,0,0,0,0,0,0,0,0,0,0,0,0,0,0,0,0,0,0,0,0,0,0,0,0,0,0,0,0,0,0,0,0,0,0,0,0,0,0,0,0,0,0,0,0,0,0,0,0,0,0,0,0,0,
0,0,0,0,0,0,0,0,0,0,0,0,0,0,0,0,0,0,0,0,0,0,0,0,0,0,0,0,0,0,0,0,0,0,0,0,0,0,0,0,0,0,0,0,0,0,0,0,0,0,0,0,0,0,0,0,0,0,0,0,0,0,0,0,
0,0,0,0,0,0,0,0,0,0,0,0,0,0,0,0,0,0,0,0,0,0,0,0,0,0,0,0,0,0,0,0,0,0,0,0,0,0,0,0,0,0,0,0,0,0,0,0,0,0,0,0,0,0,0,0,0,0,0,0,0,0,0,0,
0,0,0,0,0,0,0,0,0,0,0,0,0,0,0,0,0,0,0,0,0,0,0,0,0,0,0,0,0,0,0,0,0,0,0,0,0,0,0,0,0,0,0,0,0,0,0,0,0,0,0,0,0,0,0,0,0,0,0,0,0,0,0,0,
0,0,0,0,0,0,0,0,0,0,0,0,0,0,0,0,0,0,0,0,0,0,0,0,0,0,0,0,0,0,0,0,0,0,0,0,0,0,0,0,0,0,0,0,0,0,0,0,0,0,0,0,0,0,0,0,0,0,0,0,0,0,0,0,
0,0,0,0,0,0,0,0,0,0,0,0,0,0,0,0,0,0,0,0,0,0,0,0,0,0,0,0,0,0,0,0,0,0,0,0,0,0,0,0,0,0,0,0,0,0,0,0,0,0,0,0,0,0,0,0,0,0,0,0,0,0,0,0,
0,0,0,0,0,0,0,0,0,0,0,0,0,0,0,0,0,0,0,0,0,0,0,0,0,0,0,0,0,0,0,0,0,0,0,0,0,0,0,0,0,0,0,0,0,0,0,0,0,0,0,0,0,0,0,0,0,0,0,0,0,0,0,0,
0,0,0,0,0,0,0,0,0,0,0,0,0,0,0,0,0,0,0,0,0,0,0,0,0,0,0,0,0,0,0,0,0,0,0,0,0,0,0,0,0,0,0,0,0,0,0,0,0,0,0,0,0,0,0,0,0,0,0,0,0,0,0,0,
0,0,0,0,0,0,0,0,0,0,0,0,0,0,0,0,0,0,0,0,0,0,0,0,0,0,0,0,0,0,0,0,0,0,0,0,0,0,0,0,0,0,0,0,0,0,0,0,0,0,0,0,0,0,0,0,0,0,0,0,0,0,0,0,
0,0,0,0,0,0,0,0,0,0,0,0,0,0,0,0,0,0,0,0,0,0,0,0,0,0,0,4665,4691,4691,4666,0,0,0,0,0,0,0,0,0,0,0,0,0,0,0,0,0,0,0,0,0,0,0,0,0,0,0,0,0,0,0,0,0,
0,0,0,0,0,0,0,0,0,0,0,0,0,0,0,0,0,0,0,0,0,0,0,0,0,0,0,0,0,0,0,0,0,0,0,0,0,0,0,0,0,0,0,0,0,0,0,0,0,0,0,0,0,0,0,0,0,0,0,0,0,0,0,0,
0,0,0,0,0,0,0,0,0,0,0,0,0,0,0,0,0,0,0,0,0,0,0,0,0,0,0,0,0,0,0,0,0,0,0,0,0,0,0,0,0,0,0,0,0,0,0,0,0,0,0,0,0,0,0,0,0,0,0,0,0,0,0,0,
0,0,0,0,0,0,0,0,0,0,0,0,0,0,0,0,0,0,0,0,0,0,0,0,0,0,0,0,0,0,0,0,0,0,0,0,0,0,0,0,0,0,0,0,0,0,0,0,0,0,0,0,0,0,0,0,0,0,0,0,0,0,0,0,
0,0,0,0,0,0,0,0,0,0,0,0,0,0,0,0,0,0,0,0,0,0,0,0,0,0,0,0,0,0,0,0,0,0,0,0,0,0,0,0,0,0,0,0,0,0,0,0,0,0,0,0,0,0,0,0,0,0,0,0,0,0,0,0,
0,0,0,0,0,0,0,0,0,0,0,0,0,0,0,0,0,0,0,0,0,0,0,0,0,0,0,0,0,0,0,0,0,0,0,0,0,0,0,0,0,0,0,0,0,0,0,0,0,0,0,0,0,0,0,0,0,0,0,0,0,0,0,0,
0,0,0,0,0,0,0,0,0,0,0,0,0,0,0,0,0,0,0,0,0,0,0,0,0,0,0,0,0,0,0,0,0,0,0,0,0,0,0,0,0,0,0,0,0,0,0,0,0,0,0,0,0,0,0,0,0,0,0,0,0,0,0,0,
0,0,0,0,0,0,0,0,0,0,0,0,0,0,0,0,0,0,0,0,0,0,0,0,0,0,0,0,0,0,0,0,0,0,0,0,0,0,0,0,0,0,0,0,0,0,0,0,0,0,0,0,0,0,0,0,0,0,0,0,0,0,0,0,
0,0,0,0,0,0,0,0,0,0,0,0,0,0,0,0,0,0,0,0,0,0,0,0,0,0,0,0,0,0,0,0,0,0,0,0,0,0,0,0,0,0,0,0,0,0,0,0,0,0,0,0,0,0,0,0,0,0,0,0,0,0,0,0,
0,0,0,0,0,0,0,0,0,0,0,0,0,0,0,0,0,0,0,0,0,0,0,0,0,0,0,0,0,0,0,0,0,0,0,0,0,0,0,0,0,0,0,0,0,0,0,0,0,0,0,0,0,0,0,0,0,0,0,0,0,0,0,0,
0,0,0,0,0,0,0,0,0,0,0,0,0,0,0,0,0,0,0,0,0,0,0,0,0,0,0,0,0,0,0,0,0,0,0,0,0,0,0,0,0,0,0,0,0,0,0,0,0,0,0,0,0,0,0,0,0,0,0,0,0,0,0,0,
0,0,0,0,0,0,0,0,0,0,0,0,0,0,0,0,0,0,0,0,0,0,0,0,0,0,0,0,0,0,0,0,0,0,0,0,0,0,0,0,0,0,0,0,0,0,0,0,0,0,0,0,0,0,0,0,0,0,0,0,0,0,0,0,
0,0,0,0,0,0,0,0,0,0,0,0,0,0,0,0,0,0,0,0,0,0,0,0,0,0,0,0,0,0,0,0,0,0,0,0,0,0,0,0,0,0,0,0,0,0,0,0,0,0,0,0,0,0,0,0,0,0,0,0,0,0,0,0,
0,0,0,0,0,0,0,0,0,0,0,0,0,0,0,0,0,0,0,0,0,0,0,0,0,0,0,0,0,0,0,0,0,0,0,0,0,0,0,0,0,0,0,0,0,0,0,0,0,0,0,0,0,0,0,0,0,0,0,0,0,0,0,0,
0,0,0,0,0,0,0,0,0,0,0,0,0,0,0,0,0,0,0,0,0,0,0,0,0,0,0,0,0,0,0,0,0,0,0,0,0,0,0,0,0,0,0,0,0,0,0,0,0,0,0,0,0,0,0,0,0,0,0,0,0,0,0,0
</data>
 </layer>
 <layer id="11" name="Objects2" width="64" height="48">
  <data encoding="csv">
0,0,0,0,0,0,0,0,0,0,0,0,0,0,0,0,0,0,0,0,0,0,0,0,0,0,0,0,0,0,0,0,0,0,0,0,0,0,0,0,0,0,0,0,0,0,0,0,0,0,0,0,0,0,0,0,0,0,0,0,0,0,0,0,
0,0,0,0,0,0,0,0,0,0,0,0,0,0,0,0,0,0,0,0,0,0,0,0,0,0,0,0,0,0,0,0,0,0,0,0,0,0,0,0,0,0,0,0,0,0,0,0,0,0,0,0,0,0,0,0,0,0,0,0,0,0,0,0,
0,0,0,0,0,0,0,0,0,0,0,0,0,0,0,0,0,0,0,0,0,0,0,0,0,0,0,0,0,0,0,0,0,0,0,0,0,0,0,0,0,0,0,0,0,0,0,0,0,0,0,0,0,0,0,0,0,0,0,0,0,0,0,0,
0,0,0,0,0,0,0,0,0,0,0,0,0,0,0,0,0,0,0,0,0,0,0,0,0,0,0,0,0,0,0,0,0,0,0,0,0,0,0,0,0,0,0,0,0,0,0,0,0,0,0,0,0,0,0,0,0,0,0,0,0,0,0,0,
0,0,0,0,0,0,0,0,0,0,0,0,0,0,0,0,0,0,0,0,0,0,0,0,0,0,0,0,0,0,0,0,0,0,0,0,0,0,0,0,0,0,0,0,0,0,0,0,0,0,0,0,0,0,0,0,0,0,0,0,0,0,0,0,
0,0,0,0,0,0,0,0,0,0,0,0,0,0,0,0,0,0,0,0,0,0,0,0,0,0,0,0,0,0,0,0,0,0,0,0,0,0,0,0,0,0,0,0,0,0,0,0,0,0,0,0,0,0,0,0,0,0,0,0,0,0,0,0,
0,0,0,0,0,0,0,0,0,0,0,0,0,0,0,0,0,0,0,0,0,0,0,0,0,0,0,0,0,0,0,0,0,0,0,0,0,0,0,0,0,0,0,0,0,0,0,0,0,0,0,0,0,0,0,0,0,0,0,0,0,0,0,0,
0,0,0,0,0,0,0,0,0,0,0,0,0,0,0,0,0,0,0,0,0,0,0,0,0,0,0,0,0,0,0,0,0,0,0,0,0,0,0,0,0,0,0,0,0,0,0,0,0,0,0,0,0,0,0,0,0,0,0,0,0,0,0,0,
0,0,0,0,0,0,0,0,0,0,0,0,0,0,0,0,0,0,0,0,0,0,0,0,0,0,0,0,0,0,0,0,0,0,0,0,0,0,0,0,0,0,0,0,0,0,0,0,0,0,0,0,0,0,0,0,0,0,0,0,0,0,0,0,
0,0,0,0,0,0,0,0,0,0,0,0,0,0,0,0,0,0,0,0,0,0,0,0,0,0,0,0,0,0,0,0,0,0,0,0,0,0,0,0,0,0,0,0,0,0,0,0,0,0,0,0,0,0,0,0,0,0,0,0,0,0,0,0,
0,0,0,0,0,0,0,0,0,0,0,0,0,0,0,0,0,0,0,0,0,0,0,0,0,0,0,0,0,0,0,0,0,0,0,0,0,0,0,0,0,0,0,0,0,0,0,0,0,0,0,0,0,0,0,0,0,0,0,0,0,0,0,0,
0,0,0,0,0,0,0,0,0,0,0,0,0,0,0,0,0,0,0,0,0,0,0,0,0,0,0,0,0,0,0,0,0,0,0,0,0,0,0,0,0,0,0,0,0,0,0,0,0,0,0,0,0,0,0,0,0,0,0,0,0,0,0,0,
0,0,0,0,0,0,0,0,0,0,0,0,0,0,0,0,0,0,0,0,0,0,0,0,0,0,0,0,0,0,0,0,0,0,0,0,0,0,0,0,0,0,0,0,0,0,0,0,0,0,0,0,0,0,0,0,0,0,0,0,0,0,0,0,
0,0,0,0,0,0,0,0,0,0,0,0,0,0,0,0,0,0,0,0,0,0,0,0,0,0,0,0,0,0,0,0,0,0,0,0,0,0,0,0,0,0,0,0,0,0,0,0,0,0,0,0,0,0,0,0,0,0,0,0,0,0,0,0,
0,0,0,0,0,0,0,0,0,0,0,0,0,0,0,0,0,0,0,0,0,0,0,0,0,0,0,0,0,0,0,0,0,0,0,0,0,0,0,0,0,0,0,0,0,0,0,0,0,0,0,0,0,0,0,0,0,0,0,0,0,0,0,0,
0,0,0,0,0,0,0,0,0,0,0,0,0,0,0,0,0,0,0,0,0,0,0,0,0,0,0,0,0,0,0,0,0,0,0,0,0,0,0,0,0,0,0,0,0,0,0,0,0,0,0,0,0,0,0,0,0,0,0,0,0,0,0,0,
0,0,0,0,0,0,0,0,0,0,0,0,0,0,0,0,0,0,0,0,0,0,0,0,0,0,0,0,0,0,0,0,0,0,0,0,0,0,0,0,0,0,0,0,0,0,0,0,0,0,0,0,0,0,0,0,0,0,0,0,0,0,0,0,
0,0,0,0,0,0,0,0,0,0,0,0,0,0,0,0,0,0,0,0,0,0,0,0,0,0,0,0,0,0,0,0,0,0,0,0,0,0,0,0,0,0,0,0,0,0,0,0,0,0,0,0,0,0,0,0,0,0,0,0,0,0,0,0,
0,0,0,0,0,0,0,0,0,0,0,0,0,0,0,0,0,0,0,0,0,0,0,0,0,0,0,0,0,0,0,0,0,0,0,0,0,0,0,0,0,0,0,0,0,0,0,0,0,0,0,0,0,0,0,0,0,0,0,0,0,0,0,0,
0,0,0,0,0,0,0,0,0,0,0,0,0,0,0,0,0,0,0,0,0,0,0,0,0,0,0,0,0,0,0,0,0,0,0,0,0,0,0,0,0,0,0,0,0,0,0,0,0,0,0,0,0,0,0,0,0,0,0,0,0,0,0,0,
0,0,0,0,0,0,0,0,0,0,0,0,0,0,0,0,0,0,0,0,0,0,0,0,0,0,0,0,0,0,0,0,0,0,0,0,0,0,0,0,0,0,0,0,0,0,0,0,0,0,0,0,0,0,0,0,0,0,0,0,0,0,0,0,
0,0,0,0,0,0,0,0,0,0,0,0,0,0,0,0,0,0,0,0,0,0,0,0,0,0,0,0,0,0,0,0,0,0,0,0,0,0,0,0,0,0,0,0,0,0,0,0,0,0,0,0,0,0,0,0,0,0,0,0,0,0,0,0,
0,0,0,0,0,0,0,0,0,0,0,0,0,0,0,0,0,0,0,0,0,0,0,0,0,0,0,0,0,0,0,0,0,0,0,0,0,0,0,0,0,0,0,0,0,0,0,0,0,0,0,0,0,0,0,0,0,0,0,0,0,0,0,0,
0,0,0,0,0,0,0,0,0,0,0,0,0,0,0,0,0,0,0,0,0,0,0,0,0,0,0,0,0,0,0,0,0,0,0,0,0,0,0,0,0,0,0,0,0,0,0,0,0,0,0,0,0,0,0,0,0,0,0,0,0,0,0,0,
0,0,0,0,0,0,0,0,0,0,0,0,0,0,0,0,0,0,0,0,0,0,0,0,0,0,0,0,0,0,0,0,0,0,0,0,0,0,0,0,0,0,0,0,0,0,0,0,0,0,0,0,0,0,0,0,0,0,0,0,0,0,0,0,
0,0,0,0,0,0,0,0,0,0,0,0,0,0,0,0,0,0,0,0,0,0,0,0,0,0,0,0,0,0,0,0,0,0,0,0,0,0,0,0,0,0,0,0,0,0,0,0,0,0,0,0,0,0,0,0,0,0,0,0,0,0,0,0,
0,0,0,0,0,0,0,0,0,0,0,0,0,0,0,0,0,0,0,0,0,0,0,0,0,0,0,0,0,0,0,0,0,0,0,0,0,0,0,0,0,0,0,0,0,0,0,0,0,0,0,0,0,0,0,0,0,0,0,0,0,0,0,0,
0,0,0,0,0,0,0,0,0,0,0,0,0,0,0,0,0,0,0,0,0,0,0,0,0,0,0,0,0,0,0,0,0,0,0,0,0,0,0,0,0,0,0,0,0,0,0,0,0,0,0,0,0,0,0,0,0,0,0,0,0,0,0,0,
0,0,0,0,0,0,0,0,0,0,0,0,0,0,0,0,0,0,0,0,0,0,0,0,0,0,0,0,0,0,0,0,0,0,0,0,0,0,0,0,0,0,0,0,0,0,0,0,0,0,0,0,0,0,0,0,0,0,0,0,0,0,0,0,
0,0,0,0,0,0,0,0,0,0,0,0,0,0,0,0,0,0,0,0,0,0,0,0,0,0,0,0,0,0,0,0,0,0,0,0,0,0,0,0,0,0,0,0,0,0,0,0,0,0,0,0,0,0,0,0,0,0,0,0,0,0,0,0,
0,0,0,0,0,0,0,0,0,0,0,0,0,0,0,0,0,0,0,0,0,0,0,0,0,0,0,0,0,0,0,0,0,0,0,0,0,0,0,0,0,0,0,0,0,0,0,0,0,0,0,0,0,0,0,0,0,0,0,0,0,0,0,0,
0,0,0,0,0,0,0,0,0,0,0,0,0,0,0,0,0,0,0,0,0,0,0,0,0,0,0,0,0,0,0,0,0,0,0,0,0,0,0,0,0,0,0,0,0,0,0,0,0,0,0,0,0,0,0,0,0,0,0,0,0,0,0,0,
0,0,0,0,0,0,0,0,0,0,0,0,0,0,0,0,0,0,0,0,0,0,0,0,0,0,0,0,0,0,0,0,0,0,0,0,0,0,0,0,0,0,0,0,0,0,0,0,0,0,0,0,0,0,0,0,0,0,0,0,0,0,0,0,
0,0,0,0,0,0,0,0,0,0,0,0,0,0,0,0,0,0,0,0,0,0,0,0,0,0,0,0,0,0,0,0,0,0,0,0,0,0,0,0,0,0,0,0,0,0,0,0,0,0,0,0,0,0,0,0,0,0,0,0,0,0,0,0,
0,0,0,0,0,0,0,0,0,0,0,0,0,0,0,0,0,0,0,0,0,0,0,0,0,0,0,0,0,0,0,0,0,0,0,0,0,0,0,0,0,0,0,0,0,0,0,0,0,0,0,0,0,0,0,0,0,0,0,0,0,0,0,0,
0,0,0,0,0,0,0,0,0,0,0,0,0,0,0,0,0,0,0,0,0,0,0,0,0,0,0,0,0,0,0,0,0,0,0,0,0,0,0,0,0,0,0,0,0,0,0,0,0,0,0,0,0,0,0,0,0,0,0,0,0,0,0,0,
0,0,0,0,0,0,0,0,0,0,0,0,0,0,0,0,0,0,0,0,0,0,0,0,0,0,0,0,0,0,0,0,0,0,0,0,0,0,0,0,0,0,0,0,0,0,0,0,0,0,0,0,0,0,0,0,0,0,0,0,0,0,0,0,
0,0,0,0,0,0,0,0,0,0,0,0,0,0,0,0,0,0,0,0,0,0,0,0,0,0,0,0,0,0,0,0,0,0,0,0,0,0,0,0,0,0,0,0,0,0,0,0,0,0,0,0,0,0,0,0,0,0,0,0,0,0,0,0,
0,0,0,0,0,0,0,0,0,0,0,0,0,0,0,0,0,0,0,0,0,0,0,0,0,0,0,0,0,0,0,0,0,0,0,0,0,0,0,0,0,0,0,0,0,0,0,0,0,0,0,0,0,0,0,0,0,0,0,0,0,0,0,0,
0,0,0,0,0,0,0,0,0,0,0,0,0,0,0,0,0,0,0,0,0,0,0,0,0,0,0,0,0,0,0,0,0,0,0,0,0,0,0,0,0,0,0,0,0,0,0,0,0,0,0,0,0,0,0,0,0,0,0,0,0,0,0,0,
0,0,0,0,0,0,0,0,0,0,0,0,0,0,0,0,0,0,0,0,0,0,0,0,0,0,0,0,0,0,0,0,0,0,0,0,0,0,0,0,0,0,0,0,0,0,0,0,0,0,0,0,0,0,0,0,0,0,0,0,0,0,0,0,
0,0,0,0,0,0,0,0,0,0,0,0,0,0,0,0,0,0,0,0,0,0,0,0,0,0,0,0,0,0,0,0,0,0,0,0,0,0,0,0,0,0,0,0,0,0,0,0,0,0,0,0,0,0,0,0,0,0,0,0,0,0,0,0,
0,0,0,0,0,0,0,0,0,0,0,0,0,0,0,0,0,0,0,0,0,0,0,0,0,0,0,0,0,0,0,0,0,0,0,0,0,0,0,0,0,0,0,0,0,0,0,0,0,0,0,0,0,0,0,0,0,0,0,0,0,0,0,0,
0,0,0,0,0,0,0,0,0,0,0,0,0,0,0,0,0,0,0,0,0,0,0,0,0,0,0,0,0,0,0,0,0,0,0,0,0,0,0,0,0,0,0,0,0,0,0,0,0,0,0,0,0,0,0,0,0,0,0,0,0,0,0,0,
0,0,0,0,0,0,0,0,0,0,0,0,0,0,0,0,0,0,0,0,0,0,0,0,0,0,0,0,0,0,0,0,0,0,0,0,0,0,0,0,0,0,0,0,0,0,0,0,0,0,0,0,0,0,0,0,0,0,0,0,0,0,0,0,
0,0,0,0,0,0,0,0,0,0,0,0,0,0,0,0,0,0,0,0,0,0,0,0,0,0,0,0,0,0,0,0,0,0,0,0,0,0,0,0,0,0,0,0,0,0,0,0,0,0,0,0,0,0,0,0,0,0,0,0,0,0,0,0,
0,0,0,0,0,0,0,0,0,0,0,0,0,0,0,0,0,0,0,0,0,0,0,0,0,0,0,0,0,0,0,0,0,0,0,0,0,0,0,0,0,0,0,0,0,0,0,0,0,0,0,0,0,0,0,0,0,0,0,0,0,0,0,0,
0,0,0,0,0,0,0,0,0,0,0,0,0,0,0,0,0,0,0,0,0,0,0,0,0,0,0,0,0,0,0,0,0,0,0,0,0,0,0,0,0,0,0,0,0,0,0,0,0,0,0,0,0,0,0,0,0,0,0,0,0,0,0,0
</data>
 </layer>
 <layer id="17" name="Top" width="64" height="48">
  <data encoding="csv">
0,0,0,0,0,0,0,0,0,0,0,0,0,0,0,0,0,0,0,0,0,0,0,0,0,0,0,0,0,0,0,0,0,0,0,0,0,0,0,0,0,0,0,0,0,0,0,0,0,0,0,0,0,0,0,0,0,0,0,0,0,0,0,0,
0,0,0,0,0,0,0,0,0,0,0,0,0,0,0,0,0,0,0,0,0,0,0,0,0,0,0,0,0,0,0,0,0,0,0,0,0,0,0,0,0,0,0,0,0,0,0,0,0,0,0,0,0,0,0,0,0,0,0,0,0,0,0,0,
0,0,0,0,0,0,0,0,0,0,0,0,0,0,0,0,0,0,0,0,0,0,0,0,0,0,0,0,0,0,0,0,0,0,0,0,0,0,0,0,0,0,0,0,0,0,0,0,0,0,0,0,0,0,0,0,0,0,0,0,0,0,0,0,
0,0,0,0,0,0,0,0,0,0,0,0,0,0,0,0,0,0,0,0,0,0,0,0,0,0,0,0,0,0,0,0,0,0,0,0,0,0,0,0,0,0,0,0,0,0,0,0,0,0,0,0,0,0,0,0,0,0,0,0,0,0,0,0,
0,0,0,0,0,0,0,0,0,0,0,0,0,0,0,0,0,0,0,0,0,0,0,0,0,0,0,0,0,0,0,0,0,0,0,0,0,0,0,0,0,0,0,0,0,0,0,0,0,0,0,0,0,0,0,0,0,0,0,0,0,0,0,0,
0,0,0,0,0,0,0,0,0,0,0,0,0,0,0,0,0,0,0,0,0,0,0,0,0,0,0,0,0,0,0,0,0,0,0,0,0,0,0,0,0,0,0,0,0,0,0,0,0,0,0,0,0,0,0,0,0,0,0,0,0,0,0,0,
0,0,0,0,0,0,0,0,0,0,0,0,0,0,0,0,0,0,0,0,0,0,0,0,0,0,0,0,0,0,0,0,0,0,0,0,0,0,0,0,0,0,0,0,0,0,0,0,0,0,0,0,0,0,0,0,0,0,0,0,0,0,0,0,
0,0,0,0,0,0,0,0,0,0,0,0,0,0,0,0,0,0,0,0,0,0,0,0,0,0,0,0,0,0,0,0,0,0,0,0,0,0,0,0,0,0,0,0,0,0,0,0,0,0,0,0,0,0,0,0,0,0,0,0,0,0,0,0,
0,0,0,0,0,0,0,0,0,0,0,0,0,0,0,0,0,0,0,0,0,0,0,0,0,0,0,0,0,0,0,0,0,0,0,0,0,0,0,0,0,0,0,0,0,0,0,0,0,0,0,0,0,0,0,0,0,0,0,0,0,0,0,0,
0,0,0,0,0,0,0,0,0,0,0,0,0,0,0,0,0,0,0,0,0,0,0,0,0,0,0,0,0,0,0,0,0,0,0,0,0,0,0,0,0,0,0,0,0,0,0,0,0,0,0,0,0,0,0,0,0,0,0,0,0,0,0,0,
0,0,0,0,0,0,0,0,0,0,0,0,0,0,0,0,0,0,0,0,0,0,0,0,0,0,0,0,0,0,0,0,0,0,0,0,0,0,0,0,0,0,0,0,0,0,0,0,0,0,0,0,0,0,0,0,0,0,0,0,0,0,0,0,
0,0,0,0,0,0,0,0,0,0,0,0,0,0,0,0,0,0,0,0,0,0,0,0,0,0,0,0,0,0,0,0,0,0,0,0,0,0,0,0,0,0,0,0,0,0,0,0,0,0,0,0,0,0,0,0,0,0,0,0,0,0,0,0,
0,0,0,0,0,0,0,0,0,0,0,0,0,0,0,0,0,0,0,0,0,0,0,0,0,0,0,0,0,0,0,0,0,0,0,0,0,0,0,0,0,0,0,0,0,0,0,0,0,0,0,0,0,0,0,0,0,0,0,0,0,0,0,0,
0,0,0,0,0,0,0,0,0,0,0,0,0,0,0,0,0,0,0,0,0,0,0,0,0,0,0,0,0,0,0,0,0,0,0,0,0,0,0,0,0,0,0,0,0,0,0,0,0,0,0,0,0,0,0,0,0,0,0,0,0,0,0,0,
0,0,0,0,0,0,0,0,0,0,0,0,0,0,0,0,0,0,0,0,0,0,0,0,0,0,0,0,0,0,0,0,0,0,0,0,0,0,0,0,0,0,0,0,0,0,0,0,0,0,0,0,0,0,0,0,0,0,0,0,0,0,0,0,
0,0,0,0,0,0,0,0,0,0,0,0,0,0,0,0,0,0,0,0,0,0,0,0,0,0,0,0,0,0,0,0,0,0,0,0,0,0,0,0,0,0,0,0,0,0,0,0,1310,1524,0,0,0,0,0,0,0,0,0,0,0,0,0,0,
0,0,0,0,0,0,0,0,0,0,0,0,0,0,0,0,0,0,0,0,0,0,0,0,0,0,0,0,0,0,0,0,0,0,0,0,0,0,0,0,0,0,0,0,0,0,0,0,0,0,0,0,0,0,0,0,0,0,0,0,0,0,0,0,
0,0,0,0,0,0,0,0,0,0,0,0,0,0,0,0,0,0,0,0,0,0,0,0,0,0,0,0,0,0,0,0,0,0,0,0,0,0,0,0,0,0,0,0,0,0,0,0,0,0,0,0,0,0,0,0,0,0,0,0,0,0,0,0,
0,0,0,0,0,0,0,0,0,0,0,0,0,0,0,0,0,0,0,0,0,0,0,0,0,0,0,0,0,0,0,0,0,0,0,0,0,0,0,0,0,0,0,0,0,0,0,1310,1524,0,0,0,0,0,0,0,0,0,0,0,0,0,0,0,
0,0,0,0,0,0,0,0,0,0,0,0,0,0,0,0,0,0,0,0,0,0,0,0,0,0,0,0,0,0,0,0,0,0,0,0,0,0,0,0,0,0,0,0,0,0,1310,1524,0,0,0,0,0,0,0,0,0,0,0,0,0,0,0,0,
0,0,0,0,0,0,0,0,0,0,0,0,0,0,0,0,0,0,0,0,0,0,0,0,0,0,0,0,0,0,0,0,0,0,0,0,0,0,0,0,0,0,0,0,0,0,0,0,0,0,0,0,0,0,0,0,0,0,0,0,0,0,0,0,
0,0,0,0,0,0,0,0,0,0,0,0,0,0,0,0,0,0,0,0,0,0,0,0,0,1522,1312,0,0,0,0,0,0,0,0,0,0,0,0,0,0,0,0,0,0,0,0,0,0,0,0,0,0,0,0,0,0,0,0,0,0,0,0,0,
0,0,0,0,0,0,0,0,0,0,0,0,0,0,0,0,0,0,0,0,0,0,0,0,0,0,0,0,0,0,0,0,0,0,0,0,0,0,0,0,0,0,0,0,0,0,0,0,0,0,0,0,0,0,0,0,0,0,0,0,0,0,0,0,
0,0,0,0,0,0,0,0,0,0,0,0,0,0,0,0,0,0,0,0,0,0,0,0,0,0,0,0,0,0,0,0,0,0,0,0,0,0,0,0,0,0,0,0,0,0,0,0,0,0,0,0,0,0,0,0,0,0,0,0,0,0,0,0,
0,0,0,0,0,0,0,0,0,0,0,0,0,0,0,0,0,0,0,0,0,0,0,0,0,0,0,0,0,0,0,0,0,0,0,0,0,0,0,0,0,0,0,0,0,0,0,0,0,0,0,0,0,0,0,0,0,0,0,0,0,0,0,0,
0,0,0,0,0,0,0,0,0,0,0,0,0,0,0,0,0,0,0,0,0,0,0,0,0,0,0,0,0,0,0,0,0,0,0,0,0,0,0,0,0,0,0,0,0,0,0,0,0,0,0,0,0,0,0,0,0,0,0,0,0,0,0,0,
0,0,0,0,0,0,0,0,0,0,0,0,0,0,0,0,0,0,0,0,0,0,0,0,0,0,1522,1312,0,0,0,0,0,0,0,0,0,0,0,0,0,0,0,0,0,0,0,0,0,0,0,0,0,0,0,0,0,0,0,0,0,0,0,0,
0,0,0,0,0,0,0,0,0,0,0,0,0,0,0,0,0,0,0,0,0,0,0,0,0,0,0,0,0,0,0,0,0,0,0,0,0,0,0,0,0,0,0,0,0,0,0,0,0,0,0,0,0,0,0,0,0,0,0,0,0,0,0,0,
0,0,0,0,0,0,0,0,0,0,0,0,0,0,0,0,0,0,0,0,0,0,0,0,0,0,0,0,0,0,0,0,0,0,0,0,0,0,0,0,0,0,0,0,0,0,0,0,0,0,0,0,0,0,0,0,0,0,0,0,0,0,0,0,
0,0,0,0,0,0,0,0,0,0,0,0,0,0,0,0,0,0,0,0,0,0,0,0,0,0,0,0,0,0,0,0,0,0,0,0,0,0,0,0,0,0,0,0,0,0,0,0,0,0,0,0,0,0,0,0,0,0,0,0,0,0,0,0,
0,0,0,0,0,0,0,0,0,0,0,0,0,0,0,0,0,0,0,0,0,0,0,0,0,0,0,0,0,0,0,0,0,0,0,0,0,0,0,0,0,0,0,0,0,0,0,0,0,0,0,0,0,0,0,0,0,0,0,0,0,0,0,0,
0,0,0,0,0,0,0,0,0,0,0,0,0,0,0,0,0,0,0,0,0,0,0,0,0,0,0,0,0,0,0,0,0,0,0,0,0,0,0,0,0,0,0,0,0,0,0,0,0,0,0,0,0,0,0,0,0,0,0,0,0,0,0,0,
0,0,0,0,0,0,0,0,0,0,0,0,0,0,0,0,0,0,0,0,0,0,0,0,0,0,0,0,0,0,0,1310,1311,1311,1311,1312,0,0,0,0,0,0,0,0,0,0,0,0,0,0,0,0,0,0,0,0,0,0,0,0,0,0,0,0,
0,0,0,0,0,0,0,0,0,0,0,0,0,0,0,0,0,0,0,0,0,0,0,0,0,0,0,0,0,0,0,0,0,0,0,0,0,0,0,0,0,0,0,0,0,0,0,0,0,0,0,0,0,0,0,0,0,0,0,0,0,0,0,0,
0,0,0,0,0,0,0,0,0,0,0,0,0,0,0,0,0,0,0,0,0,0,0,0,0,0,0,0,0,0,0,0,0,0,0,0,0,0,0,0,0,0,0,0,0,0,0,0,0,0,0,0,0,0,0,0,0,0,0,0,0,0,0,0,
0,0,0,0,0,0,0,0,0,0,0,0,0,0,0,0,0,0,0,0,0,0,0,0,0,0,0,0,0,0,0,0,0,0,0,0,0,0,0,0,0,0,0,0,0,0,0,0,0,0,0,0,0,0,0,0,0,0,0,0,0,0,0,0,
0,0,0,0,0,0,0,0,0,0,0,0,0,0,0,0,0,0,0,0,0,0,0,0,0,0,0,0,0,0,0,0,0,0,0,1522,1311,1311,1311,1312,0,0,0,0,0,0,0,0,0,0,0,0,0,0,0,0,0,0,0,0,0,0,0,0,
0,0,0,0,0,0,0,0,0,0,0,0,0,0,0,0,0,0,0,0,0,0,0,0,0,0,0,0,0,0,0,0,0,0,0,0,0,0,0,1522,1311,1312,0,0,0,0,0,0,0,0,0,0,0,0,0,0,0,0,0,0,0,0,0,0,
0,0,0,0,0,0,0,0,0,0,0,0,0,0,0,0,0,0,0,0,0,0,0,0,0,0,0,0,0,0,0,0,0,0,0,0,0,0,0,0,0,0,0,0,0,0,0,0,0,0,0,0,0,1310,1524,0,0,0,0,0,0,0,0,0,
0,0,0,0,0,0,0,0,0,0,0,0,0,0,0,0,0,0,0,0,0,0,0,0,0,0,0,0,0,0,0,0,0,0,0,0,0,0,0,0,0,0,0,0,0,0,0,0,0,0,1310,1311,1311,1524,0,0,0,0,0,0,0,0,0,0,
0,0,0,0,0,0,0,0,0,0,0,0,0,0,0,0,0,0,0,0,0,0,0,0,0,1522,1312,0,0,0,0,0,0,0,0,0,0,0,0,0,0,1522,1311,1311,1311,1311,1311,1311,1311,1311,1524,0,0,0,0,0,0,0,0,0,0,0,0,0,
0,0,0,0,0,0,0,0,0,0,0,0,0,0,0,0,0,0,0,0,0,0,0,0,0,0,0,0,0,0,0,0,0,0,0,0,0,0,0,0,0,0,0,0,0,0,0,0,0,0,0,0,0,0,0,0,0,0,0,0,0,0,0,0,
0,0,0,0,0,0,0,0,0,0,0,0,0,0,0,0,0,0,0,0,0,0,0,0,0,0,0,0,0,0,0,0,0,0,0,0,0,0,0,0,0,0,0,0,0,0,0,0,0,0,0,0,0,0,0,0,0,0,0,0,0,0,0,0,
0,0,0,0,0,0,0,0,0,0,0,0,0,0,0,0,0,0,0,0,0,0,0,0,0,0,1522,1312,0,0,0,0,0,0,0,0,0,0,0,0,0,0,0,0,0,0,0,0,0,0,0,0,0,0,0,0,0,0,0,0,0,0,0,0,
0,0,0,0,0,0,0,0,0,0,0,0,0,0,0,0,0,0,0,0,0,0,0,0,0,0,0,1522,1311,1311,1312,0,0,0,0,0,0,0,0,0,0,0,0,0,0,0,0,0,0,0,0,0,0,0,0,0,0,0,0,0,0,0,0,0,
0,0,0,0,0,0,0,0,0,0,0,0,0,0,0,0,0,0,0,0,0,0,0,0,0,0,0,0,0,0,0,0,0,0,0,0,0,0,0,0,0,0,0,0,0,0,0,0,0,0,0,0,0,0,0,0,0,0,0,0,0,0,0,0,
0,0,0,0,0,0,0,0,0,0,0,0,0,0,0,0,0,0,0,0,0,0,0,0,0,0,0,0,0,0,0,0,0,0,0,0,0,0,0,0,0,0,0,0,0,0,0,0,0,0,0,0,0,0,0,0,0,0,0,0,0,0,0,0,
0,0,0,0,0,0,0,0,0,0,0,0,0,0,0,0,0,0,0,0,0,0,0,0,0,0,0,0,0,0,0,0,0,0,0,0,0,0,0,0,0,0,0,0,0,0,0,0,0,0,0,0,0,0,0,0,0,0,0,0,0,0,0,0
</data>
 </layer>
 <objectgroup id="3" name="Walls">
  <object id="1635" name="breakWallRuins" x="704" y="144" width="16" height="16"/>
  <object id="1640" x="720" y="112" width="32" height="48"/>
  <object id="1641" x="752" y="112" width="32" height="64"/>
  <object id="1642" x="784" y="128" width="12" height="124"/>
  <object id="1643" x="768" y="252" width="24" height="48"/>
  <object id="1644" x="752" y="300" width="32" height="16"/>
  <object id="1645" x="736" y="316" width="24" height="164"/>
  <object id="1646" x="752" y="480" width="32" height="64"/>
  <object id="1647" x="784" y="496" width="32" height="64"/>
  <object id="1648" x="816" y="512" width="16" height="28"/>
  <object id="1649" x="832" y="496" width="40" height="64"/>
  <object id="1650" x="864" y="560" width="12" height="60"/>
  <object id="1651" x="848" y="620" width="28" height="16"/>
  <object id="1652" x="800" y="636" width="56" height="16"/>
  <object id="1653" x="660" y="652" width="156" height="20"/>
  <object id="1654" x="640" y="604" width="32" height="48"/>
  <object id="1655" x="576" y="588" width="64" height="28"/>
  <object id="1656" x="496" y="524" width="80" height="52"/>
  <object id="1657" x="552" y="576" width="24" height="28"/>
  <object id="1658" x="496" y="576" width="32" height="48"/>
  <object id="1659" x="512" y="624" width="32" height="32"/>
  <object id="1660" x="528" y="656" width="24" height="48"/>
  <object id="1661" x="544" y="704" width="32" height="64"/>
  <object id="1662" x="448" y="716" width="48" height="52"/>
  <object id="1663" x="432" y="700" width="16" height="24"/>
  <object id="1664" x="416" y="652" width="16" height="56"/>
  <object id="1665" x="396" y="576" width="20" height="96"/>
  <object id="1667" x="408" y="512" width="24" height="64"/>
  <object id="1668" x="420" y="428" width="28" height="84"/>
  <object id="1669" x="416" y="348" width="16" height="80"/>
  <object id="1670" x="400" y="272" width="16" height="96"/>
  <object id="1671" x="400" y="240" width="32" height="32"/>
  <object id="1672" x="408" y="192" width="72" height="48"/>
  <object id="1673" x="480" y="176" width="16" height="48"/>
  <object id="1675" x="496" y="144" width="80" height="48"/>
  <object id="1676" x="576" y="128" width="96" height="48"/>
  <object id="1677" x="672" y="112" width="32" height="48"/>
  <object id="1678" x="704" y="112" width="16" height="20"/>
  <object id="1679" x="432" y="528" width="64" height="16"/>
 </objectgroup>
 <objectgroup id="12" name="Plants">
  <object id="1732" name="grass" x="688" y="176">
   <point/>
  </object>
  <object id="1733" name="grass" x="728" y="192">
   <point/>
  </object>
  <object id="1734" name="grass" x="712" y="236">
   <point/>
  </object>
  <object id="1735" name="grass" x="672" y="212">
   <point/>
  </object>
  <object id="1736" name="grass" x="640" y="240">
   <point/>
  </object>
  <object id="1737" name="grass" x="628" y="212">
   <point/>
  </object>
  <object id="1738" name="grass" x="580" y="224">
   <point/>
  </object>
  <object id="1739" name="grass" x="492" y="240">
   <point/>
  </object>
  <object id="1740" name="grass" x="440" y="256">
   <point/>
  </object>
  <object id="1741" name="grass" x="448" y="276">
   <point/>
  </object>
  <object id="1742" name="grass" x="444" y="352">
   <point/>
  </object>
  <object id="1743" name="grass" x="464" y="384">
   <point/>
  </object>
  <object id="1744" name="grass" x="444" y="412">
   <point/>
  </object>
  <object id="1745" name="grass" x="464" y="484">
   <point/>
  </object>
  <object id="1746" name="grass" x="488" y="460">
   <point/>
  </object>
  <object id="1747" name="grass" x="532" y="500">
   <point/>
  </object>
  <object id="1748" name="grass" x="576" y="472">
   <point/>
  </object>
  <object id="1749" name="grass" x="624" y="528">
   <point/>
  </object>
  <object id="1750" name="grass" x="592" y="548">
   <point/>
  </object>
  <object id="1751" name="grass" x="600" y="512">
   <point/>
  </object>
  <object id="1752" name="grass" x="656" y="576">
   <point/>
  </object>
  <object id="1754" name="grass" x="744" y="632">
   <point/>
  </object>
  <object id="1756" name="grass" x="772" y="556">
   <point/>
  </object>
  <object id="1757" name="grass" x="736" y="524">
   <point/>
  </object>
  <object id="1758" name="grass" x="744" y="492">
   <point/>
  </object>
  <object id="1759" name="grass" x="676" y="444">
   <point/>
  </object>
  <object id="1760" name="grass" x="720" y="416">
   <point/>
  </object>
  <object id="1761" name="grass" x="724" y="448">
   <point/>
  </object>
  <object id="1762" name="grass" x="704" y="336">
   <point/>
  </object>
  <object id="1763" name="grass" x="728" y="360">
   <point/>
  </object>
  <object id="1764" name="grass" x="736" y="272">
   <point/>
  </object>
  <object id="1765" name="grass" x="720" y="288">
   <point/>
  </object>
  <object id="1766" name="grass" x="488" y="508">
   <point/>
  </object>
  <object id="1767" name="grass" x="444" y="564">
   <point/>
  </object>
  <object id="1768" name="grass" x="484" y="588">
   <point/>
  </object>
  <object id="1769" name="grass" x="476.727" y="611.091">
   <point/>
  </object>
  <object id="1770" name="grass" x="496" y="688">
   <point/>
  </object>
  <object id="1771" name="grass" x="532" y="720">
   <point/>
  </object>
  <object id="1772" name="grass" x="508" y="744">
   <point/>
  </object>
  <object id="1773" name="grass" x="528" y="760">
   <point/>
  </object>
  <object id="1815" name="grass" x="524" y="556">
   <point/>
  </object>
  <object id="1816" name="grass" x="549.333" y="549">
   <point/>
  </object>
  <object id="1817" name="grass" x="568" y="684">
   <point/>
  </object>
  <object id="1818" name="grass" x="552" y="620">
   <point/>
  </object>
  <object id="1819" name="grass" x="568" y="756">
   <point/>
  </object>
  <object id="1820" name="grass" x="624" y="640">
   <point/>
  </object>
  <object id="1821" name="grass" x="716" y="684">
   <point/>
  </object>
  <object id="1822" name="grass" x="836" y="716">
   <point/>
  </object>
  <object id="1823" name="grass" x="960" y="616">
   <point/>
  </object>
  <object id="1824" name="grass" x="883" y="547">
   <point/>
  </object>
  <object id="1825" name="grass" x="924" y="460">
   <point/>
  </object>
  <object id="1826" name="grass" x="855.667" y="498.667">
   <point/>
  </object>
  <object id="1827" name="grass" x="808.667" y="492">
   <point/>
  </object>
  <object id="1828" name="grass" x="796.667" y="452.333">
   <point/>
  </object>
  <object id="1829" name="grass" x="759" y="402">
   <point/>
  </object>
  <object id="1830" name="grass" x="824" y="348">
   <point/>
  </object>
  <object id="1831" name="grass" x="796" y="312">
   <point/>
  </object>
  <object id="1832" name="grass" x="912" y="328">
   <point/>
  </object>
  <object id="1833" name="grass" x="864" y="208">
   <point/>
  </object>
  <object id="1834" name="grass" x="811.333" y="227.667">
   <point/>
  </object>
  <object id="1835" name="grass" x="852" y="136">
   <point/>
  </object>
  <object id="1836" name="grass" x="824" y="88">
   <point/>
  </object>
  <object id="1837" name="grass" x="796" y="112">
   <point/>
  </object>
  <object id="1838" name="grass" x="765.333" y="49">
   <point/>
  </object>
  <object id="1839" name="grass" x="715" y="57.3333">
   <point/>
  </object>
  <object id="1840" name="grass" x="692" y="96">
   <point/>
  </object>
  <object id="1841" name="grass" x="608" y="32">
   <point/>
  </object>
  <object id="1842" name="grass" x="636" y="76">
   <point/>
  </object>
  <object id="1843" name="grass" x="593.333" y="85.6667">
   <point/>
  </object>
  <object id="1844" name="grass" x="582.667" y="116.333">
   <point/>
  </object>
  <object id="1845" name="grass" x="500" y="120">
   <point/>
  </object>
  <object id="1846" name="grass" x="476" y="164">
   <point/>
  </object>
  <object id="1847" name="grass" x="488" y="32">
   <point/>
  </object>
  <object id="1848" name="grass" x="460" y="128">
   <point/>
  </object>
  <object id="1849" name="grass" x="412" y="136">
   <point/>
  </object>
  <object id="1850" name="grass" x="388" y="160">
   <point/>
  </object>
  <object id="1851" name="grass" x="404" y="180">
   <point/>
  </object>
  <object id="1852" name="grass" x="392" y="216">
   <point/>
  </object>
  <object id="1853" name="grass" x="312" y="248">
   <point/>
  </object>
  <object id="1854" name="grass" x="388" y="296">
   <point/>
  </object>
  <object id="1855" name="grass" x="364" y="340">
   <point/>
  </object>
  <object id="1856" name="grass" x="388" y="368">
   <point/>
  </object>
  <object id="1857" name="grass" x="420" y="448">
   <point/>
  </object>
  <object id="1858" name="grass" x="352" y="464">
   <point/>
  </object>
  <object id="1859" name="grass" x="304" y="420">
   <point/>
  </object>
  <object id="1860" name="grass" x="396" y="580">
   <point/>
  </object>
  <object id="1861" name="grass" x="388" y="628">
   <point/>
  </object>
  <object id="1862" name="grass" x="336" y="668">
   <point/>
  </object>
  <object id="1863" name="grass" x="408" y="704">
   <point/>
  </object>
  <object id="1864" name="grass" x="472" y="764.333">
   <point/>
  </object>
  <object id="1865" name="grass" x="463" y="732.333">
   <point/>
  </object>
  <object id="1866" name="grass" x="520" y="208">
   <point/>
  </object>
  <object id="1868" name="soil_ruins" x="724" y="604">
   <properties>
    <property name="cost" type="int" value="3"/>
    <property name="plant" value="shrub"/>
    <property name="reward" value="bone"/>
    <property name="rewardCount" type="int" value="3"/>
   </properties>
   <point/>
  </object>
 </objectgroup>
 <objectgroup id="9" name="Trees">
  <object id="1774" name="standard" type="fake" x="396" y="460">
   <point/>
  </object>
  <object id="1776" name="standard" type="fake" x="440.667" y="173.083">
   <point/>
  </object>
  <object id="1777" name="standard" type="fake" x="535.667" y="128.083">
   <point/>
  </object>
  <object id="1778" name="standard" type="fake" x="462" y="102.083">
   <point/>
  </object>
  <object id="1779" name="standard" type="fake" x="331" y="163.75">
   <point/>
  </object>
  <object id="1780" name="standard" type="fake" x="626.333" y="112.083">
   <point/>
  </object>
  <object id="1781" name="standard" type="fake" x="671" y="59.75">
   <point/>
  </object>
  <object id="1782" name="standard" type="fake" x="735" y="91.75">
   <point/>
  </object>
  <object id="1783" name="standard" type="fake" x="871" y="103.75">
   <point/>
  </object>
  <object id="1784" name="standard" type="fake" x="815" y="175.75">
   <point/>
  </object>
  <object id="1785" name="standard" type="fake" x="828" y="276">
   <point/>
  </object>
  <object id="1786" name="standard" type="fake" x="931" y="255.75">
   <point/>
  </object>
  <object id="1787" name="standard" type="fake" x="770.333" y="369.333">
   <point/>
  </object>
  <object id="1788" name="standard" type="fake" x="839" y="475.75">
   <point/>
  </object>
  <object id="1789" name="standard" type="fake" x="875" y="407.75">
   <point/>
  </object>
  <object id="1790" name="standard" type="fake" x="932" y="544">
   <point/>
  </object>
  <object id="1791" name="standard" type="fake" x="835" y="691.75">
   <point/>
  </object>
  <object id="1793" name="standard" type="fake" x="652" y="716">
   <point/>
  </object>
  <object id="1794" name="standard" type="fake" x="764" y="716">
   <point/>
  </object>
  <object id="1796" name="standard" type="fake" x="435" y="755.75">
   <point/>
  </object>
  <object id="1797" name="standard" type="fake" x="387.333" y="683.083">
   <point/>
  </object>
  <object id="1798" name="standard" type="fake" x="353" y="644.083">
   <point/>
  </object>
  <object id="1799" name="standard" type="fake" x="383" y="559.75">
   <point/>
  </object>
  <object id="1800" name="standard" type="fake" x="287" y="539.75">
   <point/>
  </object>
  <object id="1801" name="standard" type="fake" x="351" y="263.75">
   <point/>
  </object>
  <object id="1802" name="big" type="fake" x="824.333" y="429.083">
   <point/>
  </object>
  <object id="1803" name="big" type="fake" x="356" y="424">
   <point/>
  </object>
  <object id="1804" name="big" type="fake" x="959" y="703.75">
   <point/>
  </object>
  <object id="1805" name="big" type="fake" x="892.667" y="624.667">
   <point/>
  </object>
  <object id="1807" name="standard" type="fake" x="264.667" y="401.083">
   <point/>
  </object>
  <object id="1808" name="standard" type="fake" x="236.667" y="313.083">
   <point/>
  </object>
  <object id="1809" name="big" type="fake" x="300" y="744">
   <point/>
  </object>
  <object id="1810" name="big" type="fake" x="592" y="760">
   <point/>
  </object>
  <object id="1811" name="standard" type="fake" x="704" y="756">
   <point/>
  </object>
  <object id="1812" name="standard" type="fake" x="924" y="760">
   <point/>
  </object>
  <object id="1813" name="standard" type="fake" x="572" y="44">
   <point/>
  </object>
  <object id="1814" name="standard" type="fake" x="244" y="204">
   <point/>
  </object>
  <object id="1867" name="big" type="fake" x="880" y="328">
   <point/>
  </object>
 </objectgroup>
 <objectgroup id="8" name="Chests"/>
 <objectgroup id="14" name="NPC">
  <object id="1701" name="soldierRuins1" x="776" y="444">
   <properties>
    <property name="bailWithChallengeCheck" value="ruinsFight"/>
   </properties>
   <point/>
  </object>
  <object id="1702" name="soldierRuins2" x="784" y="484">
   <properties>
    <property name="bailWithChallengeCheck" value="ruinsFight"/>
   </properties>
   <point/>
  </object>
  <object id="1730" name="soldierLeader" x="704" y="496">
   <properties>
    <property name="bailWithChallengeCheck" value="ruinsFight"/>
   </properties>
   <point/>
  </object>
 </objectgroup>
 <objectgroup id="25" name="Challenges">
  <object id="1703" name="ruinsFight" x="584" y="346">
   <properties>
    <property name="triggerType" value="nearby"/>
    <property name="triggerVal" type="int" value="48"/>
   </properties>
   <point/>
  </object>
 </objectgroup>
 <objectgroup id="24" name="Structures"/>
 <objectgroup id="26" name="Elevators">
  <object id="1729" name="groundToCloud" x="584" y="344">
   <point/>
  </object>
 </objectgroup>
 <objectgroup id="10" name="Water"/>
 <objectgroup id="6" name="Enemies"/>
 <objectgroup id="7" name="Transitions">
  <object id="1634" name="c_cloudRuins" x="700" y="136" width="24" height="12">
   <properties>
    <property name="destX" type="int" value="632"/>
    <property name="destY" type="int" value="564"/>
   </properties>
  </object>
  <object id="1680" name="c_swamp" x="812" y="536" width="24" height="12">
   <properties>
    <property name="destX" type="int" value="400"/>
    <property name="destY" type="int" value="688"/>
   </properties>
  </object>
 </objectgroup>
 <objectgroup id="21" name="Weapons"/>
 <objectgroup id="27" name="Pins">
  <object id="1731" name="elevator" x="584" y="352">
   <point/>
  </object>
 </objectgroup>
</map>
