<?xml version="1.0" encoding="UTF-8"?>
<map version="1.5" tiledversion="1.5.0" orientation="orthogonal" renderorder="right-down" width="50" height="30" tilewidth="16" tileheight="16" infinite="0" nextlayerid="2" nextobjectid="1">
 <tileset firstgid="1" name="asdf" tilewidth="16" tileheight="16" tilecount="736" columns="23">
  <image source="_tilesets/overworld.png" width="368" height="520"/>
 </tileset>
 <layer id="1" name="Tile Layer 1" width="50" height="30">
  <data encoding="csv">
74,97,98,99,74,74,74,104,105,105,94,94,94,94,94,74,74,74,74,103,104,105,105,103,103,103,104,105,105,74,74,74,74,74,74,74,74,103,104,105,105,103,103,104,103,103,104,74,74,74,
74,74,74,74,103,103,104,105,105,105,94,94,94,94,94,74,74,74,103,104,105,105,103,103,104,103,103,104,105,105,74,97,98,99,99,74,74,103,103,104,105,105,105,105,105,105,105,105,74,74,
74,74,74,103,103,104,105,103,104,105,94,94,94,94,94,74,74,103,104,105,105,103,103,103,104,103,104,103,104,105,97,98,99,99,74,74,74,74,103,104,105,105,74,103,103,104,105,105,74,74,
74,74,105,105,103,104,105,103,104,105,94,94,94,94,94,74,74,103,104,105,103,103,103,103,104,103,104,105,103,104,105,74,74,74,74,74,74,74,94,94,94,94,74,74,103,104,105,103,74,74,
74,74,105,103,104,105,105,103,104,105,94,94,94,94,94,74,103,104,105,105,103,103,104,103,104,103,104,103,103,104,105,74,74,74,74,74,74,74,94,94,94,94,74,74,103,104,105,103,74,74,
74,103,104,105,104,105,103,103,104,105,94,94,94,94,94,74,103,104,105,104,103,103,104,103,104,103,103,103,104,105,74,74,74,74,74,74,74,74,74,94,94,74,74,74,74,103,103,104,74,74,
74,103,104,105,104,105,103,104,105,105,94,94,94,94,94,103,104,105,105,104,103,103,103,103,104,103,103,104,105,74,74,74,74,74,74,94,94,74,74,74,74,74,74,74,103,103,103,104,74,74,
74,103,104,105,105,104,105,105,105,74,94,94,94,94,94,103,103,104,105,104,105,103,103,104,105,103,103,104,105,74,74,74,74,74,74,94,94,74,74,74,74,74,74,103,103,103,103,104,74,74,
74,103,104,105,105,105,74,74,74,74,94,94,94,94,94,74,103,103,104,105,104,103,103,104,103,103,104,105,74,74,74,74,74,74,74,94,94,74,74,97,98,99,74,103,104,103,103,104,105,74,
74,105,103,104,105,74,74,74,74,74,94,94,94,94,94,74,103,103,104,105,104,105,103,103,103,104,105,105,74,74,74,74,74,74,74,94,94,74,97,98,99,99,103,103,104,103,103,103,104,74,
74,103,104,105,74,74,74,74,74,74,94,94,94,94,94,74,103,103,104,105,104,105,103,104,103,104,105,105,74,97,98,99,74,74,74,94,94,74,97,98,99,74,103,104,103,103,103,103,104,105,
74,104,105,105,74,74,74,74,74,74,94,94,94,94,94,74,103,103,104,105,104,105,103,103,104,105,105,74,74,97,98,99,74,74,74,94,94,74,97,98,99,74,103,104,103,104,103,104,103,104,
74,104,105,105,74,74,74,97,98,99,94,94,94,94,94,74,74,103,104,105,104,103,103,103,104,105,74,74,74,97,98,99,74,74,74,94,94,74,97,98,99,74,74,74,74,103,104,105,103,104,
74,104,105,105,74,74,74,97,98,99,94,94,94,94,94,74,74,103,104,105,104,103,104,105,74,74,74,74,97,98,99,74,74,74,74,94,94,74,97,98,99,74,74,74,74,103,104,105,103,104,
74,74,105,105,74,74,97,98,99,74,94,94,94,94,94,74,74,103,104,105,104,103,104,105,74,74,74,97,98,99,99,74,74,74,74,94,94,74,97,98,99,74,74,74,74,103,104,105,103,104,
74,74,74,74,74,97,97,98,99,74,94,94,94,94,94,74,74,103,104,105,104,103,104,105,74,74,74,97,98,99,74,74,74,74,74,94,94,74,97,98,99,74,74,74,74,103,103,104,103,104,
74,74,74,74,74,97,98,99,74,74,94,94,94,94,94,74,74,103,104,105,104,103,104,105,74,74,74,74,74,74,74,74,74,74,74,94,94,74,97,98,99,74,74,74,74,74,103,104,103,104,
74,74,74,74,97,97,98,99,74,74,94,94,94,94,94,74,74,103,104,105,104,105,103,104,105,74,74,74,74,74,74,74,74,74,94,94,94,74,74,74,103,104,105,74,74,74,103,103,103,74,
74,74,74,74,74,74,74,74,74,74,94,94,94,94,94,74,74,103,103,104,105,105,103,104,105,74,74,74,74,74,74,74,94,94,94,74,74,74,74,74,103,104,105,74,74,74,74,74,74,74,
74,74,74,74,74,74,74,74,74,74,94,94,94,94,94,74,74,74,103,103,103,104,103,104,105,74,74,74,74,74,74,94,94,94,74,74,74,74,74,103,104,105,105,105,74,74,74,74,74,74,
74,74,103,104,105,74,74,74,74,74,94,94,94,94,94,74,74,74,74,74,103,104,103,104,105,105,74,74,74,74,74,94,94,94,74,74,74,74,74,103,104,105,104,105,105,105,105,74,74,74,
74,103,103,103,104,105,74,74,74,74,94,94,94,94,94,74,74,74,74,74,103,103,104,103,104,105,74,74,74,74,74,94,94,74,74,74,74,74,103,104,103,103,103,104,105,104,105,74,74,74,
74,103,104,105,105,105,105,74,74,74,94,94,94,94,94,74,74,74,74,74,74,103,104,103,104,105,74,97,98,99,74,94,94,74,74,74,74,74,103,103,103,103,104,105,105,104,105,74,74,74,
74,103,104,105,103,104,105,105,74,74,94,94,94,94,94,74,74,74,74,74,74,103,104,103,104,105,74,74,74,74,74,94,94,74,74,74,74,103,103,103,104,103,104,105,104,105,105,105,105,74,
74,74,103,104,105,103,104,105,74,74,94,94,94,94,94,74,74,97,98,99,74,103,104,103,104,105,74,74,74,74,74,94,94,74,74,74,74,103,103,104,103,104,105,105,104,105,74,74,74,74,
74,74,103,104,105,104,105,105,74,74,94,94,94,94,94,74,74,97,98,99,74,103,103,104,105,74,74,74,74,74,74,94,94,74,74,74,74,74,74,103,104,105,105,103,104,105,74,74,74,74,
74,74,74,103,104,105,105,74,74,74,94,94,94,94,94,74,74,97,98,99,74,103,104,105,74,74,74,74,74,74,74,94,94,74,74,74,74,74,74,103,104,105,103,104,105,105,74,74,74,74,
74,74,74,74,74,74,74,74,74,74,94,94,94,94,94,74,74,74,74,74,74,74,74,74,74,74,74,74,74,74,74,94,94,74,74,97,97,98,99,74,103,103,104,105,74,74,74,74,74,74,
74,97,98,99,99,74,74,74,74,74,94,94,94,94,94,74,74,74,74,74,74,74,74,74,74,74,74,97,98,99,94,94,94,74,74,74,74,74,74,74,74,74,74,74,74,74,74,97,97,98,
74,97,98,99,74,74,74,97,98,99,94,94,94,94,94,74,74,74,74,74,74,74,74,74,74,74,97,98,99,99,94,94,94,74,74,74,74,74,74,74,74,74,74,74,74,74,74,74,97,98
</data>
 </layer>
</map>
