<?xml version="1.0" encoding="UTF-8"?>
<map version="1.10" tiledversion="1.10.2" orientation="orthogonal" renderorder="right-down" width="38" height="20" tilewidth="16" tileheight="16" infinite="0" nextlayerid="6" nextobjectid="435">
 <editorsettings>
  <export target="a1.lua" format="lua"/>
 </editorsettings>
 <properties>
  <property name="ambience" value="wind"/>
  <property name="background" value="fog2"/>
  <property name="dark" type="int" value="16"/>
  <property name="darkType" value="parallax"/>
  <property name="defaultX" type="int" value="656"/>
  <property name="defaultY" type="int" value="400"/>
  <property name="grid" value="overworld"/>
  <property name="music" value="town"/>
  <property name="shader" value="saturation"/>
  <property name="shaderVal" type="float" value="1.15"/>
  <property name="weather" value=""/>
 </properties>
 <tileset firstgid="1" name="terrain" tilewidth="16" tileheight="16" tilecount="612" columns="36">
  <image source="../_tilesets2/terrain.png" width="576" height="272"/>
  <wangsets>
   <wangset name="Grass" type="corner" tile="-1">
    <wangcolor name="Elevation" color="#ff0000" tile="-1" probability="1"/>
    <wangtile tileid="37" wangid="0,0,0,1,0,0,0,0"/>
    <wangtile tileid="38" wangid="0,0,0,1,0,1,0,0"/>
    <wangtile tileid="39" wangid="0,0,0,0,0,1,0,0"/>
    <wangtile tileid="41" wangid="0,1,0,0,0,1,0,1"/>
    <wangtile tileid="42" wangid="0,1,0,1,0,0,0,1"/>
    <wangtile tileid="73" wangid="0,1,0,1,0,0,0,0"/>
    <wangtile tileid="74" wangid="0,1,0,1,0,1,0,1"/>
    <wangtile tileid="75" wangid="0,0,0,0,0,1,0,1"/>
    <wangtile tileid="77" wangid="0,0,0,1,0,1,0,1"/>
    <wangtile tileid="78" wangid="0,1,0,1,0,1,0,0"/>
    <wangtile tileid="109" wangid="0,1,0,0,0,0,0,0"/>
    <wangtile tileid="110" wangid="0,1,0,0,0,0,0,1"/>
    <wangtile tileid="111" wangid="0,0,0,0,0,0,0,1"/>
   </wangset>
  </wangsets>
 </tileset>
 <layer id="1" name="Base" width="38" height="20">
  <data encoding="csv">
45,45,45,45,45,45,45,45,45,45,45,45,45,45,45,45,45,45,45,45,45,45,45,45,45,45,45,45,45,45,45,45,45,45,45,45,45,45,
45,45,45,45,45,45,45,45,45,45,45,45,45,45,45,45,45,45,45,45,45,45,45,45,45,45,45,45,45,45,45,45,45,45,45,45,45,45,
45,45,45,45,45,45,45,45,45,45,45,45,45,45,45,45,45,45,45,45,45,45,45,45,45,45,45,45,45,45,45,45,45,45,45,45,45,45,
45,45,45,45,45,45,45,45,45,45,45,45,45,45,45,45,45,45,45,45,45,45,45,45,45,45,45,45,45,45,45,45,45,45,45,45,45,45,
45,45,45,45,45,45,45,45,45,45,45,45,45,45,45,45,45,45,45,45,45,45,45,45,45,45,45,45,45,45,45,45,45,45,45,45,45,45,
45,45,45,45,45,45,45,45,45,45,45,45,45,45,45,45,45,45,45,45,45,45,45,45,45,45,45,45,45,45,45,45,45,45,45,45,45,45,
45,45,45,45,45,45,45,45,45,45,45,45,45,45,45,45,45,45,45,45,45,45,45,45,45,45,45,45,45,45,45,45,45,45,45,45,45,45,
45,45,45,45,45,45,45,45,45,45,45,45,45,45,45,45,45,45,45,45,45,45,45,45,45,45,45,45,45,45,45,45,45,45,45,45,45,45,
45,45,45,45,45,45,45,45,45,45,45,45,45,45,45,45,45,45,45,45,45,45,45,45,45,45,45,45,45,45,45,45,45,45,45,45,45,45,
45,45,45,45,45,45,45,45,45,45,45,45,45,45,45,45,45,45,45,45,45,45,45,45,45,45,45,45,45,45,45,45,45,45,45,45,45,45,
45,45,45,45,45,45,45,45,45,45,45,45,45,45,45,45,45,45,45,45,45,45,45,45,45,45,45,45,45,45,45,45,45,45,45,45,45,45,
45,45,45,45,45,45,45,45,45,45,45,45,45,45,45,45,45,45,45,45,45,45,45,45,45,45,45,45,45,45,45,45,45,45,45,45,45,45,
45,45,45,45,45,45,45,45,45,45,45,45,45,45,45,45,45,45,45,45,45,45,45,45,45,45,45,45,45,45,45,45,45,45,45,45,45,45,
45,45,45,45,45,45,45,45,45,45,45,45,45,45,45,45,45,45,45,45,45,45,45,45,45,45,45,45,45,45,45,45,45,45,45,45,45,45,
45,45,45,45,45,45,45,45,45,45,45,45,45,45,45,45,45,45,45,45,45,45,45,45,45,45,45,45,45,45,45,45,45,45,45,45,45,45,
45,45,45,45,45,45,45,45,45,45,45,45,45,45,45,45,45,45,45,45,45,45,45,45,45,45,45,45,45,45,45,45,45,45,45,45,45,45,
45,45,45,45,45,45,45,45,45,45,45,45,45,45,45,45,45,45,45,45,45,45,45,45,45,45,45,45,45,45,45,45,45,45,45,45,45,45,
45,45,45,45,45,45,45,45,45,45,45,45,45,45,45,45,45,45,45,45,45,45,45,45,45,45,45,45,45,45,45,45,45,45,45,45,45,45,
45,45,45,45,45,45,45,45,45,45,45,45,45,45,45,45,45,45,45,45,45,45,45,45,45,45,45,45,45,45,45,45,45,45,45,45,45,45,
45,45,45,45,45,45,45,45,45,45,45,45,45,45,45,45,45,45,45,45,45,45,45,45,45,45,45,45,45,45,45,45,45,45,45,45,45,45
</data>
 </layer>
 <layer id="5" name="Terrain" width="38" height="20">
  <data encoding="csv">
226,226,226,226,226,193,263,0,0,0,0,0,0,0,0,0,0,0,0,0,0,0,0,0,0,0,0,0,225,226,226,226,226,226,226,226,226,226,
226,226,226,193,262,263,0,0,0,0,189,190,190,190,190,190,190,191,0,0,0,0,0,0,0,0,0,0,261,262,194,226,226,226,193,262,262,262,
226,226,226,227,0,0,0,0,0,189,230,226,226,226,226,226,226,229,190,190,190,190,190,191,0,0,0,0,0,0,261,194,226,226,227,0,0,0,
226,226,226,227,0,0,0,0,0,225,226,226,226,226,226,226,226,226,226,226,226,226,226,229,190,0,0,0,0,0,0,261,262,262,263,0,0,0,
226,193,262,263,0,0,0,0,0,261,194,226,226,226,226,226,226,226,226,226,226,226,226,226,226,227,0,0,0,0,0,0,0,0,0,0,0,0,
226,227,0,0,0,0,0,0,0,0,225,226,226,226,226,226,193,262,262,262,194,226,226,226,226,229,190,190,190,190,190,0,0,0,0,0,0,0,
193,263,0,0,0,190,191,0,0,0,225,226,226,226,226,193,263,0,0,0,261,262,194,226,226,226,226,226,226,226,226,226,229,190,190,190,190,190,
263,0,0,189,230,226,227,0,0,0,261,262,262,262,262,263,0,0,0,0,0,0,225,226,226,226,226,193,262,262,262,194,226,226,226,226,226,226,
0,0,190,230,226,226,227,0,0,0,0,0,0,0,0,0,0,0,0,0,0,189,230,226,193,262,262,263,0,0,0,261,262,194,226,226,226,226,
0,0,226,226,226,193,263,0,0,0,0,0,0,0,0,0,0,0,0,0,0,225,226,193,263,0,0,0,0,0,0,0,189,230,226,226,226,226,
0,0,226,226,193,263,0,0,0,0,0,0,0,0,0,0,0,0,0,0,0,225,226,229,191,0,0,0,0,189,190,190,230,226,193,194,226,226,
0,0,226,226,227,0,0,0,0,0,189,190,190,190,190,191,0,0,0,0,0,261,194,226,229,190,190,190,190,230,226,226,226,226,227,0,0,0,
0,0,226,226,229,191,0,0,0,0,225,226,226,226,226,227,0,0,0,0,0,0,225,226,226,226,226,226,226,226,226,226,226,0,0,0,0,0,
0,0,226,226,226,229,190,191,0,189,230,226,226,226,226,227,0,0,0,0,0,0,261,262,262,262,262,262,262,262,262,262,262,0,0,0,0,0,
0,0,194,226,226,226,226,229,190,230,226,226,226,226,193,263,0,0,0,0,0,0,0,0,0,0,0,0,0,0,189,190,191,0,0,0,0,0,
0,0,225,226,226,226,226,226,226,226,226,226,193,262,263,0,0,0,0,0,0,0,0,0,0,0,0,0,0,0,225,226,229,190,191,0,0,0,
0,0,261,194,226,226,226,226,226,226,226,226,229,190,190,190,191,0,0,0,0,0,0,0,0,0,0,0,0,0,225,226,226,226,227,0,0,0,
190,191,0,225,226,226,226,226,226,226,226,226,226,226,226,226,227,0,0,0,0,0,0,189,190,191,0,0,0,0,225,226,226,226,227,0,0,0,
226,229,191,261,194,226,226,226,226,226,193,262,262,262,262,262,0,189,190,190,190,190,190,230,226,229,191,0,0,189,230,226,226,226,229,191,0,0,
226,226,227,0,225,226,226,226,226,193,0,0,0,0,0,0,0,225,226,226,226,226,226,226,226,226,227,0,0,225,226,226,226,226,226,227,0,0
</data>
 </layer>
 <layer id="2" name="Elevation" width="38" height="20">
  <data encoding="csv">
0,0,0,0,0,0,0,0,0,75,75,75,75,75,75,75,75,75,75,75,75,75,75,75,0,0,0,0,0,0,0,0,0,0,0,0,0,0,
0,0,0,0,0,0,75,75,75,75,42,111,111,111,111,111,111,43,75,75,75,75,75,75,0,0,0,0,0,0,0,0,0,0,0,0,0,0,
0,0,0,0,0,0,75,42,111,111,112,0,0,0,0,0,0,110,111,111,111,111,43,75,0,0,0,0,0,0,0,0,0,0,0,0,0,0,
0,0,0,0,0,0,42,112,0,0,0,0,0,0,0,0,0,0,0,0,0,0,110,43,75,0,0,0,0,0,0,0,0,0,0,0,0,0,
0,0,0,0,0,0,76,0,0,0,0,0,0,0,0,0,0,0,0,0,0,0,0,110,111,43,0,0,0,0,0,0,0,0,0,0,0,0,
0,0,0,0,0,0,76,0,0,0,0,0,0,0,0,0,0,0,0,0,0,0,0,0,0,110,111,111,111,111,43,0,0,0,0,0,0,0,
0,0,0,0,0,42,112,0,0,0,0,0,0,0,0,0,0,0,0,0,0,0,0,0,0,0,0,0,0,0,110,111,111,111,111,111,111,111,
0,0,75,75,42,112,0,0,0,0,0,0,0,0,0,0,0,0,0,0,0,0,0,0,0,0,0,0,0,0,0,0,0,0,0,0,0,0,
0,0,42,111,112,0,0,0,0,0,0,0,0,0,0,0,0,0,0,0,0,0,0,0,0,0,0,0,0,0,0,0,0,0,0,0,0,0,
0,0,76,0,0,0,0,0,0,0,0,0,0,0,0,0,0,0,0,0,0,0,0,0,0,0,0,0,0,0,0,0,0,0,0,0,0,0,
0,0,76,0,0,0,0,0,0,0,0,0,0,0,0,0,0,0,0,0,0,0,0,0,0,0,0,0,0,0,0,0,0,0,38,39,39,39,
0,0,76,0,0,0,0,0,0,0,0,0,0,0,0,0,0,0,0,0,0,0,0,0,0,0,0,0,0,0,0,0,38,39,79,0,0,0,
0,0,76,0,0,0,0,0,0,0,0,0,0,0,0,0,0,0,0,0,0,0,0,0,0,0,0,0,0,0,0,38,79,0,0,0,0,0,
0,0,76,0,0,0,0,0,0,0,0,0,0,0,0,0,0,0,0,0,0,0,0,0,0,38,39,39,39,39,39,79,75,0,0,0,0,0,
0,0,76,0,0,0,0,0,0,0,0,0,0,0,0,0,0,0,0,0,0,0,0,0,0,74,0,0,0,0,0,0,0,0,0,0,0,0,
0,0,76,0,0,0,0,0,0,0,0,0,0,0,0,0,0,0,0,0,0,0,0,38,39,79,0,0,0,0,0,0,0,0,0,0,0,0,
0,0,78,40,0,0,0,0,0,0,0,0,0,0,0,0,0,0,0,0,0,0,38,79,75,0,0,0,0,0,0,0,0,0,0,0,0,0,
0,0,0,76,0,0,0,0,0,0,0,0,0,0,0,38,39,39,39,39,39,39,79,0,0,0,0,0,0,0,0,0,0,0,0,0,0,0,
0,0,0,78,40,0,0,0,0,38,39,39,39,39,39,79,0,0,0,0,0,0,0,0,0,0,0,0,0,0,0,0,0,0,0,0,0,0,
0,0,0,75,76,0,0,0,0,74,0,0,0,0,0,0,0,0,0,0,0,0,0,0,0,0,0,0,0,0,0,0,0,0,0,0,0,0
</data>
 </layer>
 <objectgroup id="3" name="Walls">
  <object id="1" x="0" y="288" width="80" height="48"/>
  <object id="2" x="0" y="256" width="64" height="32"/>
  <object id="3" x="0" y="144" width="48" height="112"/>
  <object id="4" x="32" y="112" width="48" height="32"/>
  <object id="5" x="80" y="96" width="16" height="32"/>
  <object id="6" x="96" y="64" width="16" height="48"/>
  <object id="7" x="96" y="32" width="32" height="32"/>
  <object id="8" x="128" y="0" width="48" height="48"/>
  <object id="9" x="176" y="0" width="96" height="32"/>
  <object id="10" x="272" y="0" width="80" height="48"/>
  <object id="11" x="352" y="0" width="16" height="64"/>
  <object id="12" x="368" y="48" width="32" height="32"/>
  <object id="13" x="400" y="64" width="80" height="32"/>
  <object id="14" x="480" y="64" width="144" height="48"/>
  <object id="17" x="544" y="160" width="80" height="32"/>
  <object id="18" x="512" y="176" width="32" height="16"/>
  <object id="20" x="496" y="192" width="32" height="32"/>
  <object id="21" x="400" y="208" width="96" height="48"/>
  <object id="22" x="368" y="240" width="32" height="32"/>
  <object id="23" x="352" y="256" width="16" height="32"/>
  <object id="24" x="240" y="272" width="112" height="48"/>
  <object id="25" x="144" y="288" width="96" height="48"/>
 </objectgroup>
 <objectgroup id="4" name="Plants">
  <object id="386" name="tallGrass" type="field" x="264" y="136" width="80" height="16">
   <properties>
    <property name="density" type="float" value="0.65"/>
   </properties>
  </object>
  <object id="387" name="tallGrass" type="field" x="264" y="152" width="80" height="28">
   <properties>
    <property name="density" type="float" value="0.65"/>
   </properties>
  </object>
  <object id="388" name="tallGrass" type="field" x="264" y="180" width="96" height="32">
   <properties>
    <property name="density" type="float" value="0.65"/>
   </properties>
  </object>
  <object id="391" name="tallGrass" type="field" x="264" y="256" width="88" height="16">
   <properties>
    <property name="density" type="float" value="0.65"/>
   </properties>
  </object>
  <object id="392" name="tallGrass" type="field" x="232" y="228" width="16" height="36">
   <properties>
    <property name="density" type="float" value="0.65"/>
   </properties>
  </object>
  <object id="394" name="tallGrass" type="field" x="248" y="240" width="112" height="16">
   <properties>
    <property name="density" type="float" value="0.65"/>
   </properties>
  </object>
  <object id="407" name="tree_big" x="592" y="304">
   <point/>
  </object>
  <object id="408" name="tree_big" x="580" y="76">
   <point/>
  </object>
  <object id="409" name="tree_big" x="388" y="32">
   <point/>
  </object>
  <object id="410" name="tree_big" x="60" y="104">
   <point/>
  </object>
  <object id="411" name="tree_big" x="16" y="372">
   <point/>
  </object>
  <object id="412" name="tree_big" x="436" y="344">
   <point/>
  </object>
  <object id="413" name="tree_big" x="264" y="404">
   <point/>
  </object>
  <object id="415" name="tallGrass" type="field" x="248" y="212" width="112" height="28">
   <properties>
    <property name="density" type="float" value="0.65"/>
   </properties>
  </object>
  <object id="416" name="tallGrass" type="field" x="264" y="100" width="80" height="36">
   <properties>
    <property name="density" type="float" value="0.65"/>
   </properties>
  </object>
  <object id="417" name="tallGrass" type="field" x="264" y="84" width="68" height="16">
   <properties>
    <property name="density" type="float" value="0.65"/>
   </properties>
  </object>
  <object id="418" name="tallGrass" type="field" x="248" y="100" width="16" height="112">
   <properties>
    <property name="density" type="float" value="0.65"/>
   </properties>
  </object>
  <object id="419" name="tallGrass" type="field" x="200" y="244" width="32" height="20">
   <properties>
    <property name="density" type="float" value="0.65"/>
   </properties>
  </object>
  <object id="420" name="tallGrass" type="field" x="248" y="256" width="16" height="12">
   <properties>
    <property name="density" type="float" value="0.65"/>
   </properties>
  </object>
  <object id="422" name="tallGrass" type="field" x="112" y="68" width="56" height="148">
   <properties>
    <property name="density" type="float" value="0.65"/>
   </properties>
  </object>
  <object id="423" name="tallGrass" type="field" x="128" y="48" width="24" height="20">
   <properties>
    <property name="density" type="float" value="0.65"/>
   </properties>
  </object>
  <object id="424" name="tallGrass" type="field" x="72" y="164" width="40" height="36">
   <properties>
    <property name="density" type="float" value="0.65"/>
   </properties>
  </object>
  <object id="425" name="tallGrass" type="field" x="104" y="112" width="8" height="52">
   <properties>
    <property name="density" type="float" value="0.65"/>
   </properties>
  </object>
  <object id="430" name="tallGrass" x="208" y="180">
   <properties>
    <property name="huge" type="bool" value="true"/>
   </properties>
   <point/>
  </object>
  <object id="431" name="tallGrass" x="208" y="124">
   <properties>
    <property name="huge" type="bool" value="true"/>
   </properties>
   <point/>
  </object>
  <object id="432" name="tallGrass" type="field" x="120" y="216" width="32" height="16">
   <properties>
    <property name="density" type="float" value="0.65"/>
   </properties>
  </object>
  <object id="433" name="tallGrass" type="field" x="88" y="200" width="24" height="16">
   <properties>
    <property name="density" type="float" value="0.65"/>
   </properties>
  </object>
  <object id="434" name="tallGrass" type="field" x="88" y="152" width="16" height="12">
   <properties>
    <property name="density" type="float" value="0.65"/>
   </properties>
  </object>
 </objectgroup>
</map>
