<?xml version="1.0" encoding="UTF-8"?>
<map version="1.10" tiledversion="1.10.2" orientation="orthogonal" renderorder="right-down" width="36" height="20" tilewidth="16" tileheight="16" infinite="0" nextlayerid="5" nextobjectid="41">
 <editorsettings>
  <export target="a2.lua" format="lua"/>
 </editorsettings>
 <properties>
  <property name="ambience" value="wind"/>
  <property name="background" value="fog2"/>
  <property name="dark" type="int" value="16"/>
  <property name="darkType" value="parallax"/>
  <property name="defaultX" type="int" value="656"/>
  <property name="defaultY" type="int" value="400"/>
  <property name="grid" value="overworld"/>
  <property name="music" value="town"/>
  <property name="shader" value="saturation"/>
  <property name="shaderVal" type="float" value="1.15"/>
  <property name="weather" value=""/>
 </properties>
 <tileset firstgid="1" source="../_tilesets2/_export/terrain.tsx"/>
 <layer id="1" name="Base" width="36" height="20">
  <data encoding="csv">
45,45,45,45,45,45,45,45,45,45,45,45,45,45,45,45,45,45,45,45,45,45,45,45,45,45,45,45,45,45,45,45,45,45,45,45,
45,45,45,45,45,45,45,45,45,45,45,45,45,45,45,45,45,45,45,45,45,45,45,45,45,45,45,45,45,45,45,45,45,45,45,45,
45,45,45,45,45,45,45,45,45,45,45,45,45,45,45,45,45,45,45,45,45,45,45,45,45,45,45,45,45,45,45,45,45,45,45,45,
45,45,45,45,45,45,45,45,45,45,45,45,45,45,45,45,45,45,45,45,45,45,45,45,45,45,45,45,45,45,45,45,45,45,45,45,
45,45,45,45,45,45,45,45,45,45,45,45,45,45,45,45,45,45,45,45,45,45,45,45,45,45,45,45,45,45,45,45,45,45,45,45,
45,45,45,45,45,45,45,45,45,45,45,45,45,45,45,45,45,45,45,45,45,45,45,45,45,45,45,45,45,45,45,45,45,45,45,45,
45,45,45,45,45,45,45,45,45,45,45,45,45,45,45,45,45,45,45,45,45,45,45,45,45,45,45,45,45,45,45,45,45,45,45,45,
45,45,45,45,45,45,45,45,45,45,45,45,45,45,45,45,45,45,45,45,45,45,45,45,45,45,45,45,45,45,45,45,45,45,45,45,
45,45,45,45,45,45,45,45,45,45,45,45,45,45,45,45,45,45,45,45,45,45,45,45,45,45,45,45,45,45,45,45,45,45,45,45,
45,45,45,45,45,45,45,45,45,45,45,45,45,45,45,45,45,45,45,45,45,45,45,45,45,45,45,45,45,45,45,45,45,45,45,45,
45,45,45,45,45,45,45,45,45,45,45,45,45,45,45,45,45,45,45,45,45,45,45,45,45,45,45,45,45,45,45,45,45,45,45,45,
45,45,45,45,45,45,45,45,45,45,45,45,45,45,45,45,45,45,45,45,45,45,45,45,45,45,45,45,45,45,45,45,45,45,45,45,
45,45,45,45,45,45,45,45,45,45,45,45,45,45,45,45,45,45,45,45,45,45,45,45,45,45,45,45,45,45,45,45,45,45,45,45,
45,45,45,45,45,45,45,45,45,45,45,45,45,45,45,45,45,45,45,45,45,45,45,45,45,45,45,45,45,45,45,45,45,45,45,45,
45,45,45,45,45,45,45,45,45,45,45,45,45,45,45,45,45,45,45,45,45,45,45,45,45,45,45,45,45,45,45,45,45,45,45,45,
45,45,45,45,45,45,45,45,45,45,45,45,45,45,45,45,45,45,45,45,45,45,45,45,45,45,45,45,45,45,45,45,45,45,45,45,
45,45,45,45,45,45,45,45,45,45,45,45,45,45,45,45,45,45,45,45,45,45,45,45,45,45,45,45,45,45,45,45,45,45,45,45,
45,45,45,45,45,45,45,45,45,45,45,45,45,45,45,45,45,45,45,45,45,45,45,45,45,45,45,45,45,45,45,45,45,45,45,45,
45,45,45,45,45,45,45,45,45,45,45,45,45,45,45,45,45,45,45,45,45,45,45,45,45,45,45,45,45,45,45,45,45,45,45,45,
45,45,45,45,45,45,45,45,45,45,45,45,45,45,45,45,45,45,45,45,45,45,45,45,45,45,45,45,45,45,45,45,45,45,45,45
</data>
 </layer>
 <layer id="2" name="Elevation" width="36" height="20">
  <data encoding="csv">
0,0,0,0,0,0,0,0,0,0,75,75,75,75,75,75,75,75,75,75,75,75,75,75,75,75,75,75,75,75,75,75,75,75,75,75,
0,0,0,0,0,0,0,0,0,0,0,75,75,75,75,75,75,75,75,75,75,75,75,75,75,75,75,75,75,75,75,75,75,75,75,75,
0,0,0,0,0,0,0,0,0,0,75,75,75,75,75,75,75,75,75,75,75,75,75,75,75,75,75,75,75,75,75,75,75,75,75,75,
0,0,0,0,75,75,75,75,75,75,42,111,111,111,111,111,111,43,75,75,42,111,111,111,111,111,43,75,75,75,75,75,75,75,75,75,
0,0,0,75,42,111,111,111,111,111,112,0,0,0,0,0,0,110,111,111,112,0,0,0,0,0,110,111,43,75,75,75,75,75,75,75,
75,75,75,75,76,0,0,0,0,0,0,0,0,0,0,0,0,0,0,0,0,0,0,0,0,0,0,0,74,75,75,75,75,75,75,75,
111,111,111,111,112,0,0,0,0,0,0,0,0,0,0,0,0,0,0,0,0,0,0,0,0,0,0,0,110,43,75,75,75,75,75,75,
0,0,0,0,0,0,0,0,0,0,0,0,0,0,0,0,0,0,0,0,0,0,0,0,0,0,0,0,0,74,75,75,75,75,75,75,
0,0,0,0,0,0,0,0,0,0,0,0,0,0,0,0,0,0,0,0,0,0,0,0,0,0,0,0,0,74,75,75,75,75,75,75,
0,0,0,0,0,0,0,0,0,0,0,0,0,0,0,0,0,0,0,0,0,0,0,0,0,0,0,0,38,79,75,75,75,75,75,75,
39,39,39,40,0,0,0,0,0,0,0,0,0,0,0,0,0,0,0,0,0,0,0,0,0,0,38,39,79,75,75,75,75,75,75,75,
75,75,75,78,39,39,39,39,40,0,0,0,0,0,0,0,0,0,0,0,0,0,0,0,0,0,74,75,75,75,75,75,75,75,75,75,
75,75,75,75,75,75,75,75,76,0,0,0,0,0,0,0,0,0,0,0,0,0,0,0,0,0,74,75,75,75,75,75,75,75,75,75,
75,75,75,75,75,75,75,75,76,0,0,0,0,0,0,0,0,0,0,0,0,0,0,0,0,0,74,75,75,75,75,75,75,75,75,75,
75,75,75,75,75,75,75,75,76,0,0,0,0,0,0,0,0,0,0,0,0,0,0,0,0,0,110,43,75,75,75,75,75,75,75,75,
75,75,75,75,75,75,75,75,76,0,0,0,0,0,0,0,0,0,0,0,0,0,0,0,0,0,0,110,43,75,75,75,75,75,75,75,
75,75,75,75,75,75,75,75,78,39,39,40,0,0,0,0,0,0,0,0,0,0,0,0,0,0,0,0,74,75,75,75,75,75,75,75,
75,75,75,75,75,75,75,75,75,75,75,78,39,39,39,39,39,39,39,39,39,40,0,0,0,0,0,0,74,75,75,75,75,75,75,75,
75,75,75,75,75,75,75,75,75,75,75,75,75,75,75,75,75,75,75,75,75,78,39,40,0,0,0,0,74,75,75,75,75,75,75,75,
75,75,75,75,75,75,75,75,75,75,75,75,75,75,75,75,75,75,75,75,75,75,75,76,0,0,0,0,74,75,75,75,75,75,75,75
</data>
 </layer>
 <objectgroup id="3" name="Walls">
  <object id="2" x="-16" y="48" width="96" height="64"/>
  <object id="3" x="80" y="0" width="96" height="80"/>
  <object id="4" x="176" y="0" width="96" height="64"/>
  <object id="5" x="272" y="0" width="64" height="80"/>
  <object id="6" x="336" y="0" width="80" height="64"/>
  <object id="7" x="416" y="48" width="32" height="32"/>
  <object id="8" x="448" y="48" width="32" height="64"/>
  <object id="9" x="464" y="112" width="32" height="32"/>
  <object id="10" x="448" y="144" width="32" height="16"/>
  <object id="11" x="416" y="160" width="64" height="80"/>
  <object id="12" x="432" y="240" width="48" height="16"/>
  <object id="13" x="448" y="256" width="32" height="80"/>
  <object id="14" x="352" y="288" width="32" height="48"/>
  <object id="15" x="192" y="272" width="160" height="32"/>
  <object id="16" x="144" y="256" width="48" height="32"/>
  <object id="17" x="64" y="176" width="80" height="96"/>
  <object id="18" x="-16" y="160" width="80" height="32"/>
 </objectgroup>
 <objectgroup id="4" name="Plants">
  <object id="21" name="tallGrass" x="324" y="124">
   <point/>
  </object>
  <object id="24" name="tallGrass" x="328" y="152">
   <point/>
  </object>
  <object id="25" name="tallGrass" x="344" y="188">
   <point/>
  </object>
  <object id="26" name="tallGrass" x="324" y="176">
   <point/>
  </object>
  <object id="29" name="tallGrass" x="344" y="104">
   <point/>
  </object>
  <object id="30" name="tallGrass" x="328" y="232">
   <point/>
  </object>
  <object id="32" name="tallGrass" x="288" y="204">
   <properties>
    <property name="huge" type="bool" value="true"/>
   </properties>
   <point/>
  </object>
  <object id="37" name="tallGrass" x="300" y="100">
   <point/>
  </object>
  <object id="39" name="tallGrass" type="field" x="184" y="112" width="80" height="112">
   <properties>
    <property name="density" type="float" value="0.65"/>
   </properties>
  </object>
  <object id="40" name="tallGrass" x="288" y="136">
   <properties>
    <property name="huge" type="bool" value="true"/>
   </properties>
   <point/>
  </object>
 </objectgroup>
</map>
